%
O01001
(Using G0 which travels along dogleg path.)
(T1 D=0.5 CR=0. - ZMIN=-0.45 - flat end mill)
N10 G90 G94 G17 G40 G49 G80
N15 G20
N20 G53 G0 Z0.

(Top Face)
N25 T1 M6
N30 S10000 M3
N35 G54
N40 M8
N45 G0 X4.495 Y0.0131
N50 G43 Z0.6 H1
N55 G0 Z0.2
N60 G1 Z-0.03 F108.
N65 G18 G3 X4.475 Z-0.05 I-0.02 K0.
N70 G1 X4.4736
N75 G17 G3 X4.45 Y0.0052 I0. J-0.0394
N80 G2 X4.3 Y-0.0447 I-0.15 J0.2
N85 G1 X-0.3
N90 X-0.3332
N95 G2 X-0.45 Y0.3057 I0. J0.1947
N100 X-0.3 Y0.3557 I0.15 J-0.2
N105 G1 X4.3
N110 X4.45
N115 G3 X4.4893 Y0.3927 I0. J0.0394
N120 G1 X4.5129 Y0.7723
N125 G3 X4.45 Y0.8063 I-0.0393 J0.0024
N130 G2 X4.3 Y0.7562 I-0.15 J0.2
N135 G1 X-0.3
N140 X-0.3332
N145 G2 X-0.45 Y1.1068 I0. J0.1947
N150 X-0.3 Y1.1568 I0.15 J-0.2
N155 G1 X4.3
N160 X4.45
N165 G3 X4.4893 Y1.1937 I0. J0.0394
N170 G1 X4.5129 Y1.5733
N175 G3 X4.45 Y1.6073 I-0.0393 J0.0024
N180 G2 X4.3 Y1.5572 I-0.15 J0.2
N185 G1 X-0.3
N190 X-0.3332
N195 G2 X-0.45 Y1.9077 I0. J0.1947
N200 X-0.3 Y1.9577 I0.15 J-0.2
N205 G1 X4.3
N210 G18 G2 X4.32 Z-0.03 I0. K0.02
N215 G0 Z0.6

(2D Contour3)
N220 G0 X4.4364 Y-0.5871
N225 G0 Z0.55
N230 Z0.05
N235 G1 Z-0.0106 F13.333
N240 Z-0.15
N245 X4.4362 Y-0.5869 Z-0.1635 F108.
N250 X4.4355 Y-0.5863 Z-0.1769
N255 X4.4345 Y-0.5852 Z-0.1903
N260 X4.433 Y-0.5837 Z-0.2036
N265 X4.4311 Y-0.5818 Z-0.2168
N270 X4.4288 Y-0.5795 Z-0.2298
N275 X4.426 Y-0.5767 Z-0.2427
N280 X4.4229 Y-0.5736 Z-0.2554
N285 X4.4193 Y-0.5701 Z-0.2679
N290 X4.4154 Y-0.5661 Z-0.2802
N295 X4.4111 Y-0.5618 Z-0.2922
N300 X4.4064 Y-0.5571 Z-0.3039
N305 X4.4013 Y-0.552 Z-0.3153
N310 X4.3959 Y-0.5466 Z-0.3263
N315 X4.3901 Y-0.5409 Z-0.337
N320 X4.384 Y-0.5348 Z-0.3474
N325 X4.3776 Y-0.5283 Z-0.3573
N330 X4.3709 Y-0.5216 Z-0.3668
N335 X4.3638 Y-0.5146 Z-0.3759
N340 X4.3565 Y-0.5073 Z-0.3845
N345 X4.349 Y-0.4997 Z-0.3927
N350 X4.3411 Y-0.4919 Z-0.4004
N355 X4.3331 Y-0.4838 Z-0.4075
N360 X4.3248 Y-0.4755 Z-0.4142
N365 X4.3163 Y-0.467 Z-0.4203
N370 X4.3076 Y-0.4584 Z-0.4259
N375 X4.2988 Y-0.4495 Z-0.4309
N380 X4.2898 Y-0.4406 Z-0.4353
N385 X4.2807 Y-0.4314 Z-0.4392
N390 X4.2715 Y-0.4222 Z-0.4425
N395 X4.2621 Y-0.4129 Z-0.4452
N400 X4.2527 Y-0.4035 Z-0.4473
N405 X4.2433 Y-0.394 Z-0.4488
N410 X4.2338 Y-0.3845 Z-0.4497
N415 X4.2243 Y-0.375 Z-0.45
N420 G17
N425 G1 G41 X4.2066 Y0.0316 D1
N430 G3 X3.8 Y0.2 I-0.4066 J-0.4066
N435 G1 X0.2
N440 Y1.8
N445 X3.8
N450 Y0.2
N455 G3 X3.9684 Y-0.2066 I0.575 J0.
N460 G1 G40 X4.375 Y-0.2243
N465 X4.3845 Y-0.2338 Z-0.4497
N470 X4.394 Y-0.2433 Z-0.4488
N475 X4.4035 Y-0.2527 Z-0.4473
N480 X4.4129 Y-0.2621 Z-0.4452
N485 X4.4222 Y-0.2715 Z-0.4425
N490 X4.4314 Y-0.2807 Z-0.4392
N495 X4.4406 Y-0.2898 Z-0.4353
N500 X4.4495 Y-0.2988 Z-0.4309
N505 X4.4584 Y-0.3076 Z-0.4259
N510 X4.467 Y-0.3163 Z-0.4203
N515 X4.4755 Y-0.3248 Z-0.4142
N520 X4.4838 Y-0.3331 Z-0.4075
N525 X4.4919 Y-0.3411 Z-0.4004
N530 X4.4997 Y-0.349 Z-0.3927
N535 X4.5073 Y-0.3565 Z-0.3845
N540 X4.5146 Y-0.3638 Z-0.3759
N545 X4.5216 Y-0.3709 Z-0.3668
N550 X4.5283 Y-0.3776 Z-0.3573
N555 X4.5348 Y-0.384 Z-0.3474
N560 X4.5409 Y-0.3901 Z-0.337
N565 X4.5466 Y-0.3959 Z-0.3263
N570 X4.552 Y-0.4013 Z-0.3153
N575 X4.5571 Y-0.4064 Z-0.3039
N580 X4.5618 Y-0.4111 Z-0.2922
N585 X4.5661 Y-0.4154 Z-0.2802
N590 X4.5701 Y-0.4193 Z-0.2679
N595 X4.5736 Y-0.4229 Z-0.2554
N600 X4.5767 Y-0.426 Z-0.2427
N605 X4.5795 Y-0.4288 Z-0.2298
N610 X4.5818 Y-0.4311 Z-0.2168
N615 X4.5837 Y-0.433 Z-0.2036
N620 X4.5852 Y-0.4345 Z-0.1903
N625 X4.5863 Y-0.4355 Z-0.1769
N630 X4.5869 Y-0.4362 Z-0.1635
N635 X4.5871 Y-0.4364 Z-0.15
N640 G0 Z0.55

N645 M5
N650 M9
N655 G53 G0 Z0.
N660 G53 G0 X0. Y0.
N665 M30

%
