%
O12345
(Using G0 which travels along dogleg path.)
(Machine)
(  vendor: Haas Automation)
(  model: UMC-500)
(T1 D=0.25 CR=0. TAPER=90deg - ZMIN=-0.0101 - spot drill)
N10 G90 G94 G17
N15 G20
N20 G53 G0 Z0.

(Trace1)
N25 T1 M6
N30 S10000 M3
N35 G17 G90 G94
N40 G154 P48
N45 G53 G0 X-23.96 Y-3.37
N50 M11
N55 M13
N60 G0 B0. C0.
N65 M10
N70 M12
N75 M8
N80 G0 H1 X1.086 Y0.6675
N85 G43 Z0.6
N90 G0 Z0.2
N95 G1 Z-0.0101 F200.
N100 X1.0799 Y0.6693 F600.
N105 X1.073 Y0.6717
N110 X1.0652 Y0.6748
N115 X1.0567 Y0.6784
N120 X1.0475 Y0.6826
N125 X1.0377 Y0.6873
N130 X1.0274 Y0.6924
N135 X1.0168 Y0.6979
N140 X0.9947 Y0.7097
N145 X0.9725 Y0.7219
N150 X0.951 Y0.7339
N155 X0.9407 Y0.7396
N160 X0.931 Y0.7451
N165 X0.9217 Y0.7501
N170 X0.9131 Y0.7548
N175 X0.9051 Y0.7589
N180 X0.8977 Y0.7625
N185 X0.8909 Y0.7656
N190 X0.8846 Y0.768
N195 X0.8787 Y0.7698
N200 X0.8731 Y0.7711
N205 X0.8677 Y0.7718
N210 X0.8621 Y0.7721
N215 X0.8562 Y0.7718
N220 X0.8499 Y0.7712
N225 X0.8429 Y0.7702
N230 X0.8351 Y0.769
N235 X0.8265 Y0.7675
N240 X0.8168 Y0.7658
N245 X0.8062 Y0.764
N250 X0.7947 Y0.7621
N255 X0.7823 Y0.7601
N260 X0.7691 Y0.7582
N265 X0.7551 Y0.7562
N270 X0.7406 Y0.7542
N275 X0.7102 Y0.7506
N280 X0.6791 Y0.7476
N285 X0.6485 Y0.7455
N290 X0.6338 Y0.7449
N295 X0.6198 Y0.7446
N300 X0.6065
N305 X0.5941 Y0.7451
N310 X0.5828 Y0.7461
N315 X0.5727 Y0.7476
N320 X0.5638 Y0.7497
N325 X0.5563 Y0.7525
N330 X0.5501 Y0.7559
N335 X0.5475 Y0.758
N340 X0.5453 Y0.7602
N345 X0.5434 Y0.7627
N350 X0.5418 Y0.7654
N355 X0.5406 Y0.7684
N360 X0.5397 Y0.7716
N365 X0.5391 Y0.775
N370 X0.5389 Y0.7787
N375 X0.5392 Y0.7869
N380 X0.5407 Y0.7962
N385 X0.5432 Y0.8065
N390 X0.5467 Y0.8178
N395 X0.5511 Y0.83
N400 X0.5563 Y0.8431
N405 X0.5621 Y0.8568
N410 X0.5686 Y0.8711
N415 X0.5755 Y0.8859
N420 X0.5904 Y0.9161
N425 X0.6061 Y0.9462
N430 X0.6139 Y0.9609
N435 X0.6217 Y0.9752
N440 X0.6292 Y0.9889
N445 X0.6364 Y1.0019
N450 X0.6432 Y1.0141
N455 X0.6495 Y1.0254
N460 X0.6552 Y1.0357
N465 X0.6602 Y1.0449
N470 X0.6645 Y1.0531
N475 X0.668 Y1.0601
N480 X0.6706 Y1.0662
N485 X0.6723 Y1.0714
N490 X0.6729 Y1.0758
N495 X0.6725 Y1.0796
N500 X0.671 Y1.0831
N505 X0.6684 Y1.0864
N510 X0.6647 Y1.0898
N515 X0.6599 Y1.0935
N520 X0.654 Y1.0976
N525 X0.647 Y1.1023
N530 X0.6389 Y1.1078
N535 X0.63 Y1.114
N540 X0.6201 Y1.1212
N545 X0.6095 Y1.1292
N550 X0.5981 Y1.1382
N555 X0.5862 Y1.1481
N560 X0.5738 Y1.1588
N565 X0.5611 Y1.1704
N570 X0.5482 Y1.1827
N575 X0.5352 Y1.1956
N580 X0.5223 Y1.2091
N585 X0.5096 Y1.2231
N590 X0.4972 Y1.2373
N595 X0.4853 Y1.2518
N600 X0.4739 Y1.2663
N605 X0.4633 Y1.2807
N610 X0.4536 Y1.2949
N615 X0.4448 Y1.3088
N620 X0.4372 Y1.3222
N625 X0.4307 Y1.335
N630 X0.4255 Y1.3471
N635 X0.4235 Y1.3528
N640 X0.4218 Y1.3584
N645 X0.4204 Y1.3637
N650 X0.4195 Y1.3688
N655 X0.4189 Y1.3736
N660 X0.4187 Y1.3782
N665 X0.4189 Y1.3825
N670 X0.4196 Y1.3866
N675 X0.4206 Y1.3904
N680 X0.422 Y1.3939
N685 X0.4239 Y1.3971
N690 X0.4261 Y1.4001
N695 X0.4288 Y1.4028
N700 X0.4319 Y1.4052
N705 X0.4353 Y1.4073
N710 X0.4392 Y1.4092
N715 X0.4434 Y1.4108
N720 X0.4481 Y1.4121
N725 X0.453 Y1.4132
N730 X0.4584 Y1.414
N735 X0.4641 Y1.4145
N740 X0.4701 Y1.4149
N745 X0.483
N750 X0.497 Y1.414
N755 X0.512 Y1.4124
N760 X0.5278 Y1.4102
N765 X0.5441 Y1.4073
N770 X0.5608 Y1.404
N775 X0.5947 Y1.3963
N780 X0.6113 Y1.3921
N785 X0.6276 Y1.3878
N790 X0.6431 Y1.3835
N795 X0.6578 Y1.3794
N800 X0.6715 Y1.3754
N805 X0.6839 Y1.3718
N810 X0.6949 Y1.3687
N815 X0.6998 Y1.3673
N820 X0.7043 Y1.366
N825 X0.7084 Y1.365
N830 X0.712 Y1.3641
N835 X0.7152 Y1.3633
N840 X0.718 Y1.3628
N845 X0.7203 Y1.3624
N850 X0.7221 Y1.3623
N855 X0.7235 Y1.3624
N860 X0.7244 Y1.3628
N865 X0.7248 Y1.3633
N870 Y1.3642
N875 X0.7244 Y1.3652
N880 X0.7234 Y1.3666
N885 X0.7221 Y1.3682
N890 X0.7203 Y1.3701
N895 X0.7181 Y1.3723
N900 X0.7155 Y1.3748
N905 X0.7125 Y1.3776
N910 X0.7091 Y1.3807
N915 X0.7053 Y1.3841
N920 X0.6967 Y1.3918
N925 X0.6918 Y1.3961
N930 X0.6867 Y1.4008
N935 X0.6813 Y1.4057
N940 X0.6756 Y1.411
N945 X0.6696 Y1.4166
N950 X0.6569 Y1.4288
N955 X0.6433 Y1.4422
N960 X0.629 Y1.4568
N965 X0.6141 Y1.4727
N970 X0.5985 Y1.4898
N975 X0.5826 Y1.508
N980 X0.5663 Y1.5273
N985 X0.5497 Y1.5477
N990 X0.5328 Y1.5691
N995 X0.5159 Y1.5915
N1000 X0.4989 Y1.6148
N1005 X0.4819 Y1.6389
N1010 X0.4649 Y1.6638
N1015 X0.4481 Y1.6894
N1020 X0.4315 Y1.7156
N1025 X0.4152 Y1.7423
N1030 X0.3992 Y1.7695
N1035 X0.3835 Y1.7971
N1040 X0.3683 Y1.825
N1045 X0.3535 Y1.8531
N1050 X0.3393 Y1.8813
N1055 X0.3256 Y1.9096
N1060 X0.3125 Y1.9378
N1065 X0.2999 Y1.9659
N1070 X0.2881 Y1.9938
N1075 X0.2769 Y2.0214
N1080 X0.2664 Y2.0487
N1085 X0.2566 Y2.0754
N1090 X0.2475 Y2.1017
N1095 X0.2393 Y2.1273
N1100 X0.2317 Y2.1523
N1105 X0.225 Y2.1765
N1110 X0.2191 Y2.1999
N1115 X0.214 Y2.2224
N1120 X0.2097 Y2.244
N1125 X0.2062 Y2.2646
N1130 X0.2035 Y2.2842
N1135 X0.2017 Y2.3027
N1140 X0.2007 Y2.32
N1145 X0.2005 Y2.3363
N1150 X0.2011 Y2.3513
N1155 X0.2025 Y2.3652
N1160 X0.2048 Y2.3778
N1165 X0.2078 Y2.3893
N1170 X0.2116 Y2.3996
N1175 X0.2162 Y2.4086
N1180 X0.2215 Y2.4165
N1185 X0.2276 Y2.4233
N1190 X0.2343 Y2.429
N1195 X0.2418 Y2.4336
N1200 X0.25 Y2.4373
N1205 X0.2588 Y2.44
N1210 X0.2683 Y2.4418
N1215 X0.2785 Y2.4429
N1220 X0.2892 Y2.4431
N1225 X0.3005 Y2.4427
N1230 X0.3125 Y2.4416
N1235 X0.3249 Y2.4399
N1240 X0.338 Y2.4376
N1245 X0.3516 Y2.4348
N1250 X0.3656 Y2.4315
N1255 X0.3802 Y2.4278
N1260 X0.3953 Y2.4236 Z-0.01
N1265 X0.4109 Y2.419
N1270 X0.427 Y2.4141
N1275 X0.4435 Y2.4089
N1280 X0.4604 Y2.4033
N1285 X0.4778 Y2.3975
N1290 X0.4956 Y2.3915
N1295 X0.5138 Y2.3852
N1300 X0.5324 Y2.3787 Z-0.0099
N1305 X0.5514 Y2.3721
N1310 X0.5708 Y2.3653
N1315 X0.6107 Y2.3512
N1320 X0.652 Y2.3366
N1325 X0.6947 Y2.3217 Z-0.0098
N1330 X0.7386 Y2.3065
N1335 X0.7839 Y2.291
N1340 X0.8304 Y2.2754
N1345 X0.878 Y2.2596
N1350 X0.9267 Y2.2436
N1355 X0.9766 Y2.2276
N1360 X1.0276 Y2.2114
N1365 X1.0796 Y2.1952
N1370 X1.1326 Y2.1788 Z-0.0099
N1375 X1.1867 Y2.1622
N1380 X1.2417 Y2.1456 Z-0.01
N1385 X1.2978 Y2.1288
N1390 X1.3549 Y2.1118 Z-0.0101
N1395 X1.3682 Y2.1217
N1400 X1.382 Y2.1309
N1405 X1.3962 Y2.1395
N1410 X1.4107 Y2.1474
N1415 X1.4253 Y2.1547
N1420 X1.4396 Y2.1612
N1425 X1.4536 Y2.167
N1430 X1.4669 Y2.1721
N1435 X1.4791 Y2.1763
N1440 X1.4902 Y2.1799
N1445 X1.4952 Y2.1814
N1450 X1.504 Y2.184
N1455 X1.5077 Y2.1851
N1460 X1.511 Y2.1861
N1465 X1.5139 Y2.1871
N1470 X1.5162 Y2.1881
N1475 X1.5181 Y2.1891
N1480 X1.5195 Y2.1901
N1485 X1.5205 Y2.1913
N1490 X1.5209 Y2.1925
N1495 Y2.194
N1500 X1.5204 Y2.1957
N1505 X1.5196 Y2.1976
N1510 X1.5182 Y2.1998
N1515 X1.5165 Y2.2024
N1520 X1.5145 Y2.2054
N1525 X1.5121 Y2.2088
N1530 X1.5094 Y2.2126
N1535 X1.5064 Y2.2169
N1540 X1.5031 Y2.2217
N1545 X1.4997 Y2.2271
N1550 X1.496 Y2.2329
N1555 X1.4922 Y2.2393
N1560 X1.4882 Y2.2461
N1565 X1.4841 Y2.2535
N1570 X1.4799 Y2.2613
N1575 X1.4756 Y2.2696
N1580 X1.467 Y2.2874
N1585 X1.4583 Y2.3066
N1590 X1.4498 Y2.3269
N1595 X1.4416 Y2.3481
N1600 X1.4339 Y2.3698
N1605 X1.4269 Y2.3917
N1610 X1.4207 Y2.4135
N1615 X1.4155 Y2.4349
N1620 X1.4113 Y2.4554
N1625 X1.4097 Y2.4653
N1630 X1.4083 Y2.4749
N1635 X1.4073 Y2.4842
N1640 X1.4066 Y2.4931
N1645 X1.4063 Y2.5016
N1650 Y2.5097
N1655 X1.4066 Y2.5173
N1660 X1.4073 Y2.5245
N1665 X1.4083 Y2.5313
N1670 X1.4097 Y2.5376
N1675 X1.4114 Y2.5435
N1680 X1.4135 Y2.5489
N1685 X1.416 Y2.5539
N1690 X1.4188 Y2.5584
N1695 X1.4219 Y2.5625
N1700 X1.4254 Y2.5662
N1705 X1.4292 Y2.5695
N1710 X1.4333 Y2.5725
N1715 X1.4378 Y2.575
N1720 X1.4426 Y2.5771
N1725 X1.4478 Y2.5789
N1730 X1.4532 Y2.5803
N1735 X1.459 Y2.5814
N1740 X1.465 Y2.5822
N1745 X1.4714 Y2.5826
N1750 X1.478 Y2.5827
N1755 X1.485 Y2.5824
N1760 X1.4922 Y2.5819
N1765 X1.4997 Y2.581
N1770 X1.5075 Y2.5799
N1775 X1.5239 Y2.5768
N1780 X1.5413 Y2.5725
N1785 X1.5596 Y2.5672
N1790 X1.5789 Y2.5609
N1795 X1.599 Y2.5535
N1800 X1.6199 Y2.5453
N1805 X1.6415 Y2.5361
N1810 X1.6638 Y2.526
N1815 X1.6867 Y2.5151
N1820 X1.71 Y2.5035
N1825 X1.7338 Y2.4911
N1830 X1.7579 Y2.478
N1835 X1.7823 Y2.4642
N1840 X1.8069 Y2.4499
N1845 X1.8315 Y2.435
N1850 X1.8561 Y2.4196
N1855 X1.8806 Y2.4037
N1860 X1.9049 Y2.3875
N1865 X1.9288 Y2.371
N1870 X1.9523 Y2.3542
N1875 X1.9752 Y2.3374
N1880 X1.9974 Y2.3205
N1885 X2.0188 Y2.3036
N1890 X2.0392 Y2.287
N1895 X2.0586 Y2.2706
N1900 X2.0768 Y2.2547
N1905 X2.0938 Y2.2393
N1910 X2.1094 Y2.2246
N1915 X2.1168 Y2.2175
N1920 X2.1237 Y2.2106
N1925 X2.1303 Y2.2039
N1930 X2.1366 Y2.1975
N1935 X2.1425 Y2.1913
N1940 X2.148 Y2.1854
N1945 X2.1532 Y2.1797
N1950 X2.158 Y2.1744
N1955 X2.1625 Y2.1693
N1960 X2.1667 Y2.1645
N1965 X2.1705 Y2.1601
N1970 X2.1739 Y2.156
N1975 X2.18 Y2.1488
N1980 X2.1826 Y2.1457
N1985 X2.185 Y2.143
N1990 X2.1871 Y2.1407
N1995 X2.189 Y2.1387
N2000 X2.1907 Y2.1371
N2005 X2.1923 Y2.1359
N2010 X2.1952 Y2.1346
N2015 X2.1979 Y2.1349
N2020 X2.2008 Y2.1366
N2025 X2.2025 Y2.1381
N2030 X2.2043 Y2.1399
N2035 X2.2064 Y2.1421
N2040 X2.2115 Y2.1475
N2045 X2.2146 Y2.1507
N2050 X2.2181 Y2.1543
N2055 X2.222 Y2.1582
N2060 X2.2264 Y2.1624
N2065 X2.2314 Y2.1669
N2070 X2.2368 Y2.1717
N2075 X2.2428 Y2.1768
N2080 X2.2494 Y2.1822
N2085 X2.2565 Y2.1878
N2090 X2.2642 Y2.1937
N2095 X2.2725 Y2.1999
N2100 X2.2814 Y2.2062
N2105 X2.2909 Y2.2129
N2110 X2.301 Y2.2197
N2115 X2.3117 Y2.2267
N2120 X2.323 Y2.234
N2125 X2.3349 Y2.2414
N2130 X2.3473 Y2.249
N2135 X2.3604 Y2.2567
N2140 X2.3739 Y2.2646
N2145 X2.3881 Y2.2726
N2150 X2.4028 Y2.2808
N2155 X2.418 Y2.289
N2160 X2.4337 Y2.2974
N2165 X2.4498 Y2.3058
N2170 X2.4665 Y2.3143
N2175 X2.4835 Y2.3229
N2180 X2.5189 Y2.3401
N2185 X2.5556 Y2.3574
N2190 X2.5936 Y2.3747
N2195 X2.6325 Y2.3919
N2200 X2.6722 Y2.4089
N2205 X2.7122 Y2.4255
N2210 X2.7525 Y2.4417
N2215 X2.7926 Y2.4574
N2220 X2.8324 Y2.4725
N2225 X2.8715 Y2.4869
N2230 X2.9096 Y2.5005
N2235 X2.9283 Y2.5069
N2240 X2.9466 Y2.5132
N2245 X2.9645 Y2.5192
N2250 X2.9821 Y2.525
N2255 X2.9992 Y2.5305
N2260 X3.0158 Y2.5357
N2265 X3.032 Y2.5407
N2270 X3.0476 Y2.5454
N2275 X3.0627 Y2.5498
N2280 X3.0772 Y2.5539
N2285 X3.0912 Y2.5577
N2290 X3.1045 Y2.5612
N2295 X3.1171 Y2.5644
N2300 X3.1291 Y2.5673
N2305 X3.1404 Y2.5698
N2310 X3.151 Y2.572
N2315 X3.1608 Y2.5739
N2320 X3.17 Y2.5754
N2325 X3.1783 Y2.5766
N2330 X3.1859 Y2.5774
N2335 X3.1928 Y2.5779
N2340 X3.1988 Y2.578
N2345 X3.2041 Y2.5778
N2350 X3.2085 Y2.5772
N2355 X3.2223 Y2.5557
N2360 X3.2349 Y2.5339
N2365 X3.2463 Y2.5119
N2370 X3.2567 Y2.4896
N2375 X3.2659 Y2.4671
N2380 X3.2739 Y2.4443
N2385 X3.2809 Y2.4212
N2390 X3.2867 Y2.398
N2395 X3.2914 Y2.3745
N2400 X3.2951 Y2.3509
N2405 X3.2976 Y2.3271
N2410 X3.2991 Y2.3031
N2415 X3.2996 Y2.279
N2420 X3.2991 Y2.2547
N2425 X3.2975 Y2.2304
N2430 X3.2949 Y2.2059
N2435 X3.2914 Y2.1814
N2440 X3.287 Y2.1569
N2445 X3.2816 Y2.1324
N2450 X3.2753 Y2.1079
N2455 X3.2682 Y2.0834
N2460 X3.2602 Y2.059
N2465 X3.2514 Y2.0347
N2470 X3.2419 Y2.0106
N2475 X3.2316 Y1.9865
N2480 X3.2206 Y1.9627
N2485 X3.2089 Y1.9391
N2490 X3.1966 Y1.9157
N2495 X3.1836 Y1.8925
N2500 X3.1702 Y1.8697
N2505 X3.1562 Y1.8472
N2510 X3.1417 Y1.825
N2515 X3.1269 Y1.8032
N2520 X3.1116 Y1.7818
N2525 X3.096 Y1.7608
N2530 X3.0801 Y1.7403
N2535 X3.0639 Y1.7203
N2540 X3.0476 Y1.7007
N2545 X3.0311 Y1.6818
N2550 X3.0145 Y1.6633
N2555 X2.998 Y1.6455
N2560 X2.9814 Y1.6282
N2565 X2.965 Y1.6116
N2570 X2.9487 Y1.5956
N2575 X2.9326 Y1.5803
N2580 X2.9167 Y1.5657
N2585 X2.9012 Y1.5518
N2590 X2.8861 Y1.5385
N2595 X2.8715 Y1.526
N2600 X2.8574 Y1.5143
N2605 X2.8438 Y1.5032
N2610 X2.831 Y1.493
N2615 X2.8189 Y1.4835
N2620 X2.8076 Y1.4747
N2625 X2.7972 Y1.4668
N2630 X2.7878 Y1.4596
N2635 X2.7795 Y1.4532
N2640 X2.7723 Y1.4476
N2645 X2.7664 Y1.4428
N2650 X2.7618 Y1.4388
N2655 X2.7585 Y1.4355
N2660 X2.7574 Y1.4341
N2665 X2.7567 Y1.4329
N2670 X2.7563 Y1.4319
N2675 Y1.431
N2680 X2.7567 Y1.4303
N2685 X2.7575 Y1.4298
N2690 X2.7601 Y1.4291
N2695 X2.7642 Y1.429
N2700 X2.7697 Y1.4294
N2705 X2.7765 Y1.4302
N2710 X2.7846 Y1.4313
N2715 X2.7937 Y1.4326
N2720 X2.8038 Y1.434
N2725 X2.8147 Y1.4354
N2730 X2.8261 Y1.4367
N2735 X2.838 Y1.4377
N2740 X2.8501 Y1.4385
N2745 X2.8622 Y1.4388
N2750 X2.8742 Y1.4386
N2755 X2.8858 Y1.4378
N2760 X2.8969 Y1.4363
N2765 X2.9074 Y1.4341
N2770 X2.9169 Y1.4311
N2775 X2.9255 Y1.4272
N2780 X2.933 Y1.4225
N2785 X2.9393 Y1.4169
N2790 X2.9419 Y1.4138
N2795 X2.9442 Y1.4105
N2800 X2.9461 Y1.407
N2805 X2.9477 Y1.4032
N2810 X2.9489 Y1.3993
N2815 X2.9498 Y1.3951
N2820 X2.9503 Y1.3908
N2825 X2.9504 Y1.3863
N2830 X2.9501 Y1.3816
N2835 X2.9495 Y1.3767
N2840 X2.9471 Y1.3665
N2845 X2.9433 Y1.3557
N2850 X2.9382 Y1.3444
N2855 X2.9318 Y1.3327
N2860 X2.9243 Y1.3207
N2865 X2.9157 Y1.3084
N2870 X2.9062 Y1.296
N2875 X2.8958 Y1.2835
N2880 X2.8848 Y1.2711
N2885 X2.8733 Y1.2587
N2890 X2.8614 Y1.2466
N2895 X2.837 Y1.2231
N2900 X2.8249 Y1.212
N2905 X2.8129 Y1.2014
N2910 X2.8013 Y1.1914
N2915 X2.7903 Y1.1819
N2920 X2.7798 Y1.1731
N2925 X2.7702 Y1.165
N2930 X2.7614 Y1.1576
N2935 X2.7535 Y1.1509
N2940 X2.7468 Y1.1449
N2945 X2.7411 Y1.1394
N2950 X2.7365 Y1.1345
N2955 X2.733 Y1.1301
N2960 X2.7307 Y1.126
N2965 X2.7295 Y1.1221
N2970 X2.7293 Y1.1184
N2975 X2.7302 Y1.1147
N2980 X2.732 Y1.1109
N2985 X2.7346 Y1.1069
N2990 X2.7381 Y1.1025
N2995 X2.7422 Y1.0976
N3000 X2.747 Y1.0923
N3005 X2.7524 Y1.0863
N3010 X2.7582 Y1.0796
N3015 X2.7644 Y1.0723
N3020 X2.771 Y1.0643
N3025 X2.778 Y1.0556
N3030 X2.7851 Y1.0464
N3035 X2.7926 Y1.0365
N3040 X2.8002 Y1.0261
N3045 X2.808 Y1.0154
N3050 X2.8239 Y0.9928
N3055 X2.84 Y0.9695
N3060 X2.8558 Y0.9461
N3065 X2.8708 Y0.9232
N3070 X2.8778 Y0.9122
N3075 X2.8844 Y0.9015
N3080 X2.8905 Y0.8913
N3085 X2.896 Y0.8815
N3090 X2.9007 Y0.8723
N3095 X2.9045 Y0.8636
N3100 X2.9074 Y0.8555
N3105 X2.9091 Y0.848
N3110 X2.9096 Y0.8411
N3115 X2.9088 Y0.8348
N3120 X2.9077 Y0.8318
N3125 X2.9064 Y0.8289
N3130 X2.9046 Y0.8262
N3135 X2.9024 Y0.8236
N3140 X2.8997 Y0.8211
N3145 X2.8967 Y0.8187
N3150 X2.8932 Y0.8165
N3155 X2.8892 Y0.8143
N3160 X2.8849 Y0.8122
N3165 X2.8801 Y0.8103
N3170 X2.8749 Y0.8084
N3175 X2.8693 Y0.8066
N3180 X2.8569 Y0.8033
N3185 X2.843 Y0.8003
N3190 X2.8278 Y0.7977
N3195 X2.8114 Y0.7954
N3200 X2.794 Y0.7934
N3205 X2.7758 Y0.7916
N3210 X2.7571 Y0.7902
N3215 X2.7378 Y0.789
N3220 X2.699 Y0.7873
N3225 X2.6797 Y0.7868
N3230 X2.6608 Y0.7865
N3235 X2.6425 Y0.7864
N3240 X2.6249 Y0.7865
N3245 X2.6082 Y0.7866
N3250 X2.5927 Y0.787
N3255 X2.5784 Y0.7874
N3260 X2.5654 Y0.7879
N3265 X2.5539 Y0.7885
N3270 X2.5438 Y0.7892
N3275 X2.5353 Y0.7898
N3280 X2.5282 Y0.7904
N3285 X2.5224 Y0.7909
N3290 X2.5178 Y0.7912
N3295 X2.5142 Y0.7913
N3300 X2.5115 Y0.7912
N3305 X2.5093 Y0.7908
N3310 X2.5076 Y0.79
N3315 X2.5059 Y0.7889
N3320 X2.504 Y0.7872
N3325 X2.5017 Y0.7852
N3330 X2.4987 Y0.7826
N3335 X2.4947 Y0.7796
N3340 X2.4897 Y0.776
N3345 X2.4834 Y0.772
N3350 X2.4758 Y0.7675
N3355 X2.4669 Y0.7626
N3360 X2.4567 Y0.7573
N3365 X2.4453 Y0.7518
N3370 X2.4328 Y0.7461
N3375 X2.4193 Y0.7402
N3380 X2.405 Y0.7342
N3385 X2.39 Y0.7283
N3390 X2.3745 Y0.7225
N3395 X2.3429 Y0.7114
N3400 X2.3114 Y0.7014
N3405 X2.2962 Y0.6969
N3410 X2.2815 Y0.6928
N3415 X2.2676 Y0.6891
N3420 X2.2547 Y0.6859
N3425 X2.2428 Y0.683
N3430 X2.2321 Y0.6806
N3435 X2.2227 Y0.6785
N3440 X2.2147 Y0.6767
N3445 X2.2081 Y0.6751
N3450 X2.203 Y0.6736
N3455 X2.1994 Y0.672
N3460 X2.1971 Y0.6702
N3465 X2.1961 Y0.6681
N3470 X2.1964 Y0.6654
N3475 X2.1978 Y0.662
N3480 X2.2002 Y0.6578
N3485 X2.2036 Y0.6527
N3490 X2.2078 Y0.6467
N3495 X2.2129 Y0.6396
N3500 X2.2186 Y0.6314
N3505 X2.2249 Y0.6221
N3510 X2.2318 Y0.6117
N3515 X2.2391 Y0.6002
N3520 X2.2469 Y0.5877
N3525 X2.255 Y0.5741
N3530 X2.2634 Y0.5597
N3535 X2.2719 Y0.5443
N3540 X2.2807 Y0.5281
N3545 X2.2895 Y0.5112
N3550 X2.2983 Y0.4936
N3555 X2.3071 Y0.4755
N3560 X2.3159 Y0.4569
N3565 X2.3329 Y0.4189
N3570 X2.349 Y0.3805
N3575 X2.3566 Y0.3614
N3580 X2.3639 Y0.3427
N3585 X2.3708 Y0.3243
N3590 X2.3773 Y0.3065
N3595 X2.3833 Y0.2893
N3600 X2.3889 Y0.2728
N3605 X2.394 Y0.2573
N3610 X2.3985 Y0.2426
N3615 X2.4025 Y0.2291
N3620 X2.4059 Y0.2167
N3625 X2.4087 Y0.2055
N3630 X2.411 Y0.1957
N3635 X2.4126 Y0.1872
N3640 X2.4136 Y0.1801
N3645 X2.414 Y0.1745
N3650 Y0.1723
N3655 X2.4138 Y0.1704
N3660 X1.2906 Y0.1701
N3665 X1.2963 Y0.179
N3670 X1.3014 Y0.1875
N3675 X1.306 Y0.1956
N3680 X1.3099 Y0.2033
N3685 X1.3132 Y0.2105
N3690 X1.3158 Y0.2173
N3695 X1.3177 Y0.2236
N3700 X1.3187 Y0.2293
N3705 X1.3186 Y0.2344
N3710 X1.3181 Y0.2367
N3715 X1.3172 Y0.2387
N3720 X1.316 Y0.2405
N3725 X1.3144 Y0.2421
N3730 X1.3123 Y0.2434
N3735 X1.3098 Y0.2445
N3740 X1.3068 Y0.2453
N3745 X1.3033 Y0.2458
N3750 X1.2993 Y0.246
N3755 X1.2948 Y0.2459
N3760 X1.2898 Y0.2456
N3765 X1.2844 Y0.245
N3770 X1.2786 Y0.2443
N3775 X1.2725 Y0.2433
N3780 X1.2592 Y0.241
N3785 X1.245 Y0.2384
N3790 X1.2159 Y0.2334
N3795 X1.2019 Y0.2317
N3800 X1.1952 Y0.2312
N3805 X1.1888 Y0.231
N3810 X1.1829
N3815 X1.1773 Y0.2314
N3820 X1.1722 Y0.2322
N3825 X1.1676 Y0.2334
N3830 X1.1636 Y0.2349
N3835 X1.1602 Y0.2369
N3840 X1.1574 Y0.2394
N3845 X1.1552 Y0.2423
N3850 X1.1537 Y0.2456
N3855 X1.1529 Y0.2494
N3860 X1.1527 Y0.2537
N3865 X1.1532 Y0.2583
N3870 X1.1543 Y0.2634
N3875 X1.156 Y0.2688
N3880 X1.1583 Y0.2746
N3885 X1.1612 Y0.2807
N3890 X1.1645 Y0.2871
N3895 X1.1684 Y0.2938
N3900 X1.1727 Y0.3007
N3905 X1.1774 Y0.3078
N3910 X1.1877 Y0.3224
N3915 X1.1989 Y0.3372
N3920 X1.2221 Y0.3664
N3925 X1.2333 Y0.3802
N3930 X1.2436 Y0.393
N3935 X1.2483 Y0.399
N3940 X1.2526 Y0.4047
N3945 X1.2565 Y0.4101
N3950 X1.26 Y0.4151
N3955 X1.263 Y0.4198
N3960 X1.2655 Y0.4242
N3965 X1.2675 Y0.4282
N3970 X1.2689 Y0.4318
N3975 X1.2698 Y0.4352
N3980 X1.2702 Y0.4382
N3985 X1.2701 Y0.441
N3990 X1.2694 Y0.4436
N3995 X1.2683 Y0.446
N4000 X1.2667 Y0.4482
N4005 X1.2646 Y0.4504
N4010 X1.2622 Y0.4525
N4015 X1.2562 Y0.4566
N4020 X1.2488 Y0.4609
N4025 X1.2404 Y0.4657
N4030 X1.231 Y0.4711
N4035 X1.2208 Y0.4773
N4040 X1.2101 Y0.4844
N4045 X1.199 Y0.4926
N4050 X1.1876 Y0.5019
N4055 X1.1761 Y0.5125
N4060 X1.1646 Y0.5243
N4065 X1.1533 Y0.5375
N4070 X1.1423 Y0.552
N4075 X1.1316 Y0.5678
N4080 X1.1213 Y0.585
N4085 X1.1116 Y0.6036
N4090 X1.1024 Y0.6236
N4095 X1.0939 Y0.6449
N4100 X1.086 Y0.6675
N4105 Z0.2 F125.685
N4110 G0 X0.9511 Y0.9714
N4115 G1 Z-0.0101 F200.
N4120 X0.9418 Y0.968 F600.
N4125 X0.9327 Y0.9654
N4130 X0.9241 Y0.9636
N4135 X0.9159 Y0.9626
N4140 X0.9082 Y0.9623
N4145 X0.9011 Y0.9628
N4150 X0.8945 Y0.9641
N4155 X0.8886 Y0.9662
N4160 X0.8835 Y0.969
N4165 X0.8792 Y0.9725
N4170 X0.8758 Y0.9767
N4175 X0.8732 Y0.9816
N4180 X0.8715 Y0.987
N4185 X0.8706 Y0.9929
N4190 X0.8703 Y0.9992
N4195 X0.8712 Y1.0124
N4200 X0.8729 Y1.0257
N4205 X0.8736 Y1.032
N4210 X0.874 Y1.0379
N4215 X0.8741 Y1.0433
N4220 X0.8736 Y1.048
N4225 X0.8726 Y1.0519
N4230 X0.8709 Y1.0549
N4235 X0.8685 Y1.057
N4240 X0.8654 Y1.058
N4245 X0.8615 Y1.0579
N4250 X0.8568 Y1.0568
N4255 X0.8513 Y1.0545
N4260 X0.8449 Y1.0512
N4265 X0.8377 Y1.0468
N4270 X0.8295 Y1.0412
N4275 X0.8205 Y1.0346
N4280 X0.8106 Y1.027
N4285 X0.807 Y1.0315
N4290 X0.8046 Y1.0361
N4295 X0.8037 Y1.0408
N4300 X0.804 Y1.0454
N4305 X0.8055 Y1.05
N4310 X0.8082 Y1.0545
N4315 X0.8119 Y1.059
N4320 X0.8166 Y1.0633
N4325 X0.8221 Y1.0675
N4330 X0.8284 Y1.0714
N4335 X0.8352 Y1.0752
N4340 X0.8425 Y1.0786
N4345 X0.8501 Y1.0817
N4350 X0.858 Y1.0845
N4355 X0.8659 Y1.0868
N4360 X0.8738 Y1.0888
N4365 X0.8816 Y1.0902
N4370 X0.889 Y1.0913
N4375 X0.8961 Y1.0918
N4380 X0.9028
N4385 X0.9089 Y1.0913
N4390 X0.9144 Y1.0903
N4395 X0.9192 Y1.0889
N4400 X0.9234 Y1.087
N4405 X0.9269 Y1.0847
N4410 X0.9296 Y1.082
N4415 X0.9317 Y1.079
N4420 X0.9331 Y1.0756
N4425 X0.9339 Y1.0719
N4430 X0.934 Y1.0679
N4435 X0.9336 Y1.0636
N4440 X0.9327 Y1.0591
N4445 X0.9314 Y1.0544
N4450 X0.9297 Y1.0495
N4455 X0.9255 Y1.0393
N4460 X0.9162 Y1.0186
N4465 X0.9142 Y1.0138
N4470 X0.9125 Y1.0093
N4475 X0.9111 Y1.0051
N4480 X0.9102 Y1.0014
N4485 X0.9098 Y0.9982
N4490 X0.91 Y0.9956
N4495 X0.9108 Y0.9936
N4500 X0.9122 Y0.9923
N4505 X0.9143 Y0.9916
N4510 X0.9171 Y0.9915
N4515 X0.9206 Y0.9922
N4520 X0.9249 Y0.9935
N4525 X0.9298 Y0.9955
N4530 X0.9355 Y0.9981
N4535 X0.9419 Y1.0014
N4540 X0.9491 Y1.0053
N4545 X0.957 Y1.0098
N4550 X0.9656 Y1.0148
N4555 X0.9749 Y1.0204
N4560 X0.9849 Y1.0266
N4565 X0.9956 Y1.0332
N4570 X1.007 Y1.0404
N4575 X1.0191 Y1.0481
N4580 X1.0319 Y1.0562
N4585 X1.0365 Y1.0592
N4590 X1.0409 Y1.0618
N4595 X1.045 Y1.064
N4600 X1.0488 Y1.0657
N4605 X1.0523 Y1.0669
N4610 X1.0553 Y1.0676
N4615 X1.0579 Y1.0678
N4620 X1.0602 Y1.0675
N4625 X1.062 Y1.0668
N4630 X1.0635 Y1.0657
N4635 X1.0647 Y1.0643
N4640 X1.0654 Y1.0627
N4645 X1.0656 Y1.0606
N4650 X1.0649 Y1.0579
N4655 X1.0633 Y1.0546
N4660 X1.0604 Y1.0505
N4665 X1.0563 Y1.0456
N4670 X1.0509 Y1.0398
N4675 X1.0443 Y1.0334
N4680 X1.0367 Y1.0265
N4685 X1.0283 Y1.0193
N4690 X1.0193 Y1.0121
N4695 X1.0002 Y0.9982
N4700 X0.9903 Y0.9917
N4705 X0.9804 Y0.9857
N4710 X0.9705 Y0.9803
N4715 X0.9607 Y0.9755
N4720 X0.9511 Y0.9714
N4725 Z0.2 F125.685
N4730 G0 X0.961 Y1.1271
N4735 G1 Z-0.0101 F200.
N4740 X0.9506 Y1.1412 F600.
N4745 X0.9458 Y1.1487
N4750 X0.9412 Y1.1567
N4755 X0.9371 Y1.1651
N4760 X0.9332 Y1.1741
N4765 X0.9297 Y1.1835
N4770 X0.9265 Y1.1933
N4775 X0.9237 Y1.2036
N4780 X0.9212 Y1.2142
N4785 X0.9171 Y1.2363
N4790 X0.9141 Y1.2589
N4795 X0.9122 Y1.2814
N4800 X0.9112 Y1.303
N4805 X0.911 Y1.3132
N4810 X0.9111 Y1.3229
N4815 X0.9113 Y1.332
N4820 X0.9118 Y1.3405
N4825 X0.9125 Y1.3482
N4830 X0.9135 Y1.3552
N4835 X0.9147 Y1.3613
N4840 X0.9163 Y1.3667
N4845 X0.9183 Y1.3712
N4850 X0.9207 Y1.3749
N4855 X0.9236 Y1.378
N4860 X0.9272 Y1.3804
N4865 X0.9314 Y1.3822
N4870 X0.9364 Y1.3835
N4875 X0.9423 Y1.3844
N4880 X0.9489 Y1.3849
N4885 X0.9565 Y1.3852
N4890 X0.965
N4895 X0.9745 Y1.3851
N4900 X0.9848 Y1.3848
N4905 X0.9961 Y1.3845
N4910 X1.0082 Y1.3841
N4915 X1.0212 Y1.3837
N4920 X1.0349 Y1.3833
N4925 X1.0494 Y1.383
N4930 X1.0646 Y1.3827
N4935 X1.0804 Y1.3825
N4940 X1.0967 Y1.3823
N4945 X1.1307
N4950 X1.1659 Y1.3826
N4955 X1.2016 Y1.3832
N4960 X1.2371 Y1.384
N4965 X1.2716 Y1.3847
N4970 X1.2883 Y1.385
N4975 X1.3045 Y1.3853
N4980 X1.3202 Y1.3854
N4985 X1.3352
N4990 X1.3494 Y1.3852
N4995 X1.3629 Y1.3848
N5000 X1.3755 Y1.3841
N5005 X1.3873 Y1.3832
N5010 X1.3981 Y1.382
N5015 X1.4079 Y1.3804
N5020 X1.4168 Y1.3783
N5025 X1.4247 Y1.3758
N5030 X1.4315 Y1.3728
N5035 X1.4374 Y1.3692
N5040 X1.4423 Y1.365
N5045 X1.4463 Y1.3602
N5050 X1.4494 Y1.3548
N5055 X1.4515 Y1.3487
N5060 X1.4529 Y1.342
N5065 X1.4535 Y1.3346
N5070 X1.4533 Y1.3266
N5075 X1.4524 Y1.318
N5080 X1.4509 Y1.3089
N5085 X1.4489 Y1.2993
N5090 X1.4462 Y1.2894
N5095 X1.4431 Y1.2791
N5100 X1.4395 Y1.2687
N5105 X1.4355 Y1.2581
N5110 X1.4264 Y1.237
N5115 X1.4161 Y1.2165
N5120 X1.4106 Y1.2068
N5125 X1.4049 Y1.1975
N5130 X1.399 Y1.1888
N5135 X1.393 Y1.1807
N5140 X1.3869 Y1.1734
N5145 X1.3806 Y1.1668
N5150 X1.3743 Y1.1611
N5155 X1.3678 Y1.1563
N5160 X1.3613 Y1.1525
N5165 X1.3547 Y1.1497
N5170 X1.3479 Y1.1479
N5175 X1.341 Y1.1472
N5180 X1.334 Y1.1475
N5185 X1.3268 Y1.1487
N5190 X1.3195 Y1.151
N5195 X1.3121 Y1.1543
N5200 X1.3045 Y1.1584
N5205 X1.2968 Y1.1634
N5210 X1.2891 Y1.1692
N5215 X1.2813 Y1.1758
N5220 X1.2736 Y1.1831
N5225 X1.2659 Y1.1909
N5230 X1.2583 Y1.1993
N5235 X1.2508 Y1.2081
N5240 X1.2365 Y1.2268
N5245 X1.2234 Y1.2463
N5250 X1.2174 Y1.2562
N5255 X1.2119 Y1.266
N5260 X1.2069 Y1.2757
N5265 X1.2025 Y1.2853
N5270 X1.1986 Y1.2945
N5275 X1.1955 Y1.3035
N5280 X1.1929 Y1.3121
N5285 X1.1912 Y1.3202
N5290 X1.1901 Y1.3279
N5295 X1.1899 Y1.3351
N5300 X1.1904 Y1.3417
N5305 X1.1917 Y1.3478
N5310 Z0.2 F125.685
N5315 G0 X1.0779 Y1.4815
N5320 G1 Z-0.0101 F200.
N5325 X1.0686 Y1.4753 F600.
N5330 X1.0634 Y1.4725
N5335 X1.0577 Y1.4699
N5340 X1.0514 Y1.4676
N5345 X1.0446 Y1.4656
N5350 X1.0371 Y1.464
N5355 X1.0288 Y1.4627
N5360 X1.0198 Y1.4618
N5365 X1.0099 Y1.4614
N5370 X0.9991 Y1.4615
N5375 X0.9874 Y1.4621
N5380 X0.9746 Y1.4631
N5385 X0.9608 Y1.4647
N5390 X0.946 Y1.4669
N5395 X0.93 Y1.4696
N5400 X0.9129 Y1.4729
N5405 X0.8947 Y1.4768
N5410 X0.8932 Y1.4801
N5415 X0.8924 Y1.4833
N5420 X0.8922 Y1.4864
N5425 X0.8927 Y1.4896
N5430 X0.8938 Y1.4927
N5435 X0.8955 Y1.4958
N5440 X0.8979 Y1.4989
N5445 X0.9008 Y1.5019
N5450 X0.9043 Y1.5049
N5455 X0.9084 Y1.5079
N5460 X0.9131 Y1.5109
N5465 X0.9183 Y1.5138
N5470 X0.924 Y1.5167
N5475 X0.9302 Y1.5196
N5480 X0.937 Y1.5224
N5485 X0.9441 Y1.5252
N5490 X0.9517 Y1.5279
N5495 X0.9598 Y1.5306
N5500 X0.977 Y1.5359
N5505 X0.9956 Y1.5409
N5510 X1.0155 Y1.5457
N5515 X1.0363 Y1.5503
N5520 X1.058 Y1.5545
N5525 X1.0803 Y1.5584
N5530 X1.103 Y1.5619
N5535 X1.1259 Y1.565
N5540 X1.1488 Y1.5677
N5545 X1.1715 Y1.5699
N5550 X1.1938 Y1.5715
N5555 X1.2156 Y1.5726
N5560 X1.2365 Y1.5731
N5565 X1.2565 Y1.5729
N5570 X1.2754 Y1.572
N5575 X1.293 Y1.5704
N5580 X1.3012 Y1.5692
N5585 X1.3091 Y1.5679
N5590 X1.3166 Y1.5664
N5595 X1.3236 Y1.5646
N5600 X1.3302 Y1.5627
N5605 X1.3364 Y1.5605
N5610 X1.3421 Y1.5581
N5615 X1.3474 Y1.5554
N5620 X1.3522 Y1.5525
N5625 X1.3564 Y1.5494
N5630 X1.3602 Y1.5461
N5635 X1.3635 Y1.5425
N5640 X1.3662 Y1.5386
N5645 X1.3685 Y1.5346
N5650 X1.3686 Y1.5327
N5655 X1.3678 Y1.5311
N5660 X1.3661 Y1.5298
N5665 X1.3636 Y1.5288
N5670 X1.3603 Y1.528
N5675 X1.3561 Y1.5274
N5680 X1.3512 Y1.5271
N5685 X1.3456 Y1.527
N5690 X1.3393 Y1.5271
N5695 X1.3324 Y1.5274
N5700 X1.325 Y1.5278
N5705 X1.317 Y1.5283
N5710 X1.2998 Y1.5296
N5715 X1.2812 Y1.531
N5720 X1.2423 Y1.5335
N5725 X1.2229 Y1.5342
N5730 X1.2041
N5735 X1.1862 Y1.5334
N5740 X1.1778 Y1.5326
N5745 X1.1697 Y1.5317
N5750 X1.162 Y1.5304
N5755 X1.1547 Y1.529
N5760 X1.1478 Y1.5273
N5765 X1.1413 Y1.5253
N5770 X1.1352 Y1.5231
N5775 X1.1295 Y1.5207
N5780 X1.1191 Y1.5152
N5785 X1.11 Y1.509
N5790 X1.1018 Y1.5023
N5795 X1.0862 Y1.4883
N5800 X1.0779 Y1.4815
N5805 Z0.2 F125.685
N5810 G0 X0.961 Y1.1271
N5815 G1 Z-0.0101 F200.
N5820 X0.9645 Y1.1238 F600.
N5825 X0.9676 Y1.1213
N5830 X0.9704 Y1.1195
N5835 X0.9728 Y1.1187
N5840 X0.9747 Y1.1188
N5845 X0.9764 Y1.1202
N5850 X0.9776 Y1.1228
N5855 X0.9784 Y1.1268
N5860 X0.9788 Y1.1323
N5865 X0.9789 Y1.1391
N5870 X0.9786 Y1.1471
N5875 X0.978 Y1.1562
N5880 X0.977 Y1.1662
N5885 X0.9757 Y1.1767
N5890 X0.9725 Y1.1989
N5895 X0.9684 Y1.2214
N5900 X0.9637 Y1.2432
N5905 X0.9612 Y1.2536
N5910 X0.9587 Y1.2635
N5915 X0.9563 Y1.2729
N5920 X0.9538 Y1.2818
N5925 X0.9515 Y1.29
N5930 X0.9492 Y1.2976
N5935 X0.9472 Y1.3046
N5940 X0.9453 Y1.3108
N5945 X0.9437 Y1.3165
N5950 X0.9424 Y1.3215
N5955 X0.9414 Y1.3258
N5960 X0.9409 Y1.3296
N5965 X0.9407 Y1.3328
N5970 X0.941 Y1.3356
N5975 X0.9419 Y1.3378
N5980 X0.9433 Y1.3397
N5985 X0.9454 Y1.3413
N5990 X0.9481 Y1.3426
N5995 X0.9515 Y1.3437
N6000 X0.9556 Y1.3446
N6005 X0.9604 Y1.3454
N6010 X0.966 Y1.3462
N6015 X0.9722 Y1.3468
N6020 X0.9791 Y1.3475
N6025 X0.9867 Y1.348
N6030 X0.9949 Y1.3486
N6035 X1.0036 Y1.3491
N6040 X1.0129 Y1.3496
N6045 X1.0226 Y1.3501
N6050 X1.0328 Y1.3505
N6055 X1.0542 Y1.3511
N6060 X1.0766 Y1.3513
N6065 X1.0997 Y1.3509
N6070 X1.1229 Y1.3498
N6075 X1.1459 Y1.3478
N6080 X1.1684 Y1.3448
N6085 X1.1902 Y1.3407
N6090 Z0.2 F125.685
N6095 G0 X1.1536 Y1.0945
N6100 G1 Z-0.0101 F200.
N6105 X1.1398 Y1.0965 F600.
N6110 X1.127 Y1.0982
N6115 X1.1152 Y1.0995
N6120 X1.1042 Y1.1001
N6125 X1.094 Y1.0997
N6130 X1.0846 Y1.0983
N6135 X1.0761 Y1.0958
N6140 X1.0749 Y1.0936
N6145 X1.0741 Y1.0915
N6150 X1.0738 Y1.0894
N6155 X1.074 Y1.0874
N6160 X1.0747 Y1.0855
N6165 X1.0758 Y1.0837
N6170 X1.0774 Y1.0819
N6175 X1.0795 Y1.0802
N6180 X1.082 Y1.0785
N6185 X1.0849 Y1.077
N6190 X1.0882 Y1.0755
N6195 X1.0919 Y1.074
N6200 X1.1004 Y1.0714
N6205 X1.1104 Y1.069
N6210 X1.1215 Y1.0668
N6215 X1.1338 Y1.065
N6220 X1.1471 Y1.0634
N6225 X1.1611 Y1.062
N6230 X1.1757 Y1.0609
N6235 X1.1908 Y1.0602
N6240 X1.2216 Y1.0594
N6245 X1.237 Y1.0595
N6250 X1.252 Y1.0599
N6255 X1.2667 Y1.0606
N6260 X1.2807 Y1.0616
N6265 X1.2939 Y1.063
N6270 X1.3062 Y1.0647
N6275 X1.3173 Y1.0668
N6280 X1.3271 Y1.0693
N6285 X1.3355 Y1.0722
N6290 X1.3391 Y1.0738
N6295 X1.3422 Y1.0755
N6300 X1.345 Y1.0773
N6305 X1.3473 Y1.0793
N6310 X1.3491 Y1.0813
N6315 X1.3505 Y1.0835
N6320 X1.3513 Y1.0857
N6325 X1.3517 Y1.0881
N6330 X1.3516 Y1.0906
N6335 X1.3509 Y1.0933
N6340 X1.3497 Y1.096
N6345 X1.348 Y1.0989
N6350 X1.3457 Y1.1019
N6355 X1.3429 Y1.105
N6360 X1.3282 Y1.1015
N6365 X1.3142 Y1.0985
N6370 X1.3007 Y1.096
N6375 X1.2877 Y1.0938
N6380 X1.2753 Y1.0921
N6385 X1.2634 Y1.0908
N6390 X1.252 Y1.0898
N6395 X1.2411 Y1.0891
N6400 X1.2306 Y1.0888
N6405 X1.2206 Y1.0887
N6410 X1.211 Y1.0889
N6415 X1.2018 Y1.0893
N6420 X1.1844 Y1.0906
N6425 X1.1684 Y1.0924
N6430 X1.1536 Y1.0945
N6435 Z0.2 F125.685
N6440 G0 X1.4207 Y0.9037
N6445 G1 Z-0.0101 F200.
N6450 X1.4198 Y0.901 F600.
N6455 X1.4194 Y0.8982
N6460 X1.4196 Y0.8952
N6465 X1.4203 Y0.8922
N6470 X1.4216 Y0.8892
N6475 X1.4234 Y0.8861
N6480 X1.4258 Y0.8831
N6485 X1.4288 Y0.8801
N6490 X1.4323 Y0.8771
N6495 X1.4362 Y0.8742
N6500 X1.4406 Y0.8714
N6505 X1.4455 Y0.8686
N6510 X1.4508 Y0.8661
N6515 X1.4565 Y0.8637
N6520 X1.4689 Y0.8594
N6525 X1.4823 Y0.8559
N6530 X1.4965 Y0.8533
N6535 X1.5111 Y0.8517
N6540 X1.5259 Y0.8511
N6545 X1.5406 Y0.8516
N6550 X1.5549 Y0.8531
N6555 X1.5687 Y0.8555
N6560 X1.5818 Y0.8588
N6565 X1.5941 Y0.8629
N6570 X1.6056 Y0.8677
N6575 X1.6163 Y0.8729
N6580 X1.6262 Y0.8785
N6585 X1.6352 Y0.8843
N6590 X1.6436 Y0.89
N6595 X1.6513 Y0.8957
N6600 X1.6584 Y0.901
N6605 X1.6651 Y0.906
N6610 X1.6715 Y0.9103
N6615 X1.6776 Y0.9139
N6620 X1.6836 Y0.9168
N6625 X1.6896 Y0.9189
N6630 X1.6957 Y0.9201
N6635 X1.702 Y0.9204
N6640 X1.7086 Y0.9199
N6645 X1.7155 Y0.9187
N6650 X1.7228 Y0.9169
N6655 X1.7306 Y0.9145
N6660 X1.7389 Y0.9118
N6665 X1.7477 Y0.9089
N6670 X1.757 Y0.9058
N6675 X1.7669 Y0.9029
N6680 X1.7774 Y0.9002
N6685 X1.7884 Y0.898
N6690 X1.7999 Y0.8963
N6695 X1.8119 Y0.8953
N6700 X1.8243 Y0.895
N6705 X1.8371 Y0.8957
N6710 X1.8501 Y0.8972
N6715 X1.8633 Y0.8997
N6720 X1.8765 Y0.9031
N6725 X1.8897 Y0.9073
N6730 X1.9027 Y0.9124
N6735 X1.9154 Y0.9181
N6740 X1.9276 Y0.9243
N6745 X1.9392 Y0.9309
N6750 X1.9501 Y0.9378
N6755 X1.9601 Y0.9447
N6760 X1.9692 Y0.9516
N6765 X1.9771 Y0.9582
N6770 X1.9838 Y0.9644
N6775 X1.9893 Y0.9701
N6780 X1.9933 Y0.9751
N6785 X1.9948 Y0.9773
N6790 X1.996 Y0.9793
N6795 X1.9967 Y0.9811
N6800 X1.9971 Y0.9827
N6805 Y0.984
N6810 X1.9968 Y0.9851
N6815 X1.996 Y0.9859
N6820 X1.9949 Y0.9865
N6825 X1.9935 Y0.9868
N6830 X1.9916 Y0.9869
N6835 X1.9895 Y0.9868
N6840 X1.9869 Y0.9865
N6845 X1.9809 Y0.9851
N6850 X1.9737 Y0.983
N6855 X1.9653 Y0.9802
N6860 X1.9559 Y0.9768
N6865 X1.9457 Y0.973
N6870 X1.9347 Y0.9689
N6875 X1.9231 Y0.9647
N6880 X1.9111 Y0.9605
N6885 X1.8862 Y0.9526
N6890 X1.8736 Y0.9491
N6895 X1.8611 Y0.9462
N6900 X1.8488 Y0.9439
N6905 X1.8367 Y0.9422
N6910 X1.8249 Y0.9412
N6915 X1.8135 Y0.9409
N6920 X1.8024 Y0.9412
N6925 X1.7918 Y0.9422
N6930 X1.7816 Y0.9438
N6935 X1.7717 Y0.9459
N6940 X1.7622 Y0.9483
N6945 X1.753 Y0.9511
N6950 X1.7354 Y0.957
N6955 X1.7184 Y0.9625
N6960 X1.71 Y0.9647
N6965 X1.7016 Y0.9664
N6970 X1.6931 Y0.9674
N6975 X1.6846 Y0.9676
N6980 X1.6758 Y0.9667
N6985 X1.6669 Y0.9649
N6990 X1.6577 Y0.9619
N6995 X1.6484 Y0.9579
N7000 X1.6389 Y0.953
N7005 X1.6292 Y0.9474
N7010 X1.6097 Y0.9347
N7015 X1.5901 Y0.9216
N7020 X1.5804 Y0.9155
N7025 X1.5709 Y0.91
N7030 X1.5615 Y0.9052
N7035 X1.5524 Y0.9014
N7040 X1.5436 Y0.8987
N7045 X1.535 Y0.8972
N7050 X1.5267 Y0.8968
N7055 X1.5187 Y0.8975
N7060 X1.5109 Y0.8991
N7065 X1.5032 Y0.9016
N7070 X1.4882 Y0.9078
N7075 X1.4729 Y0.9139
N7080 X1.4652 Y0.9162
N7085 X1.4574 Y0.9177
N7090 X1.4496 Y0.9182
N7095 X1.4421 Y0.9175
N7100 X1.435 Y0.9156
N7105 X1.4289 Y0.9126
N7110 X1.4262 Y0.9107
N7115 X1.424 Y0.9086
N7120 X1.4221 Y0.9062
N7125 X1.4207 Y0.9037
N7130 Z0.2 F125.685
N7135 G0 X1.5477 Y1.1316
N7140 G1 Z-0.0101 F200.
N7145 X1.5457 Y1.133 F600.
N7150 X1.5437 Y1.135
N7155 X1.5416 Y1.1377
N7160 X1.5395 Y1.1411
N7165 X1.5376 Y1.1448
N7170 X1.5362 Y1.1488
N7175 X1.5353 Y1.1529
N7180 Y1.1568
N7185 X1.5362 Y1.1605
N7190 X1.5381 Y1.1637
N7195 X1.5411 Y1.1665
N7200 X1.5453 Y1.1689
N7205 X1.5507 Y1.1708
N7210 X1.5572 Y1.1722
N7215 X1.5649 Y1.1732
N7220 X1.5736 Y1.1736
N7225 X1.5833 Y1.1737
N7230 X1.5938 Y1.1734
N7235 X1.6051 Y1.1728
N7240 X1.6169 Y1.1719
N7245 X1.6413 Y1.1695
N7250 X1.6535 Y1.168
N7255 X1.6653 Y1.1664
N7260 X1.6764 Y1.1647
N7265 X1.6864 Y1.1627
N7270 X1.6951 Y1.1606
N7275 X1.6989 Y1.1594
N7280 X1.7022 Y1.1582
N7285 X1.705 Y1.1569
N7290 X1.7073 Y1.1556
N7295 X1.7092 Y1.1541
N7300 X1.7105 Y1.1527
N7305 X1.7114 Y1.1512
N7310 X1.7117 Y1.1496
N7315 X1.7115 Y1.148
N7320 X1.7108 Y1.1464
N7325 X1.7097 Y1.1448
N7330 X1.7081 Y1.1432
N7335 X1.7061 Y1.1415
N7340 X1.7036 Y1.1399
N7345 X1.6977 Y1.1367
N7350 X1.6904 Y1.1336
N7355 X1.6823 Y1.1307
N7360 X1.6734 Y1.1281
N7365 X1.6551 Y1.1235
N7370 X1.6461 Y1.1216
N7375 X1.6375 Y1.12
N7380 X1.6294 Y1.1186
N7385 X1.622 Y1.1176
N7390 X1.6152 Y1.1167
N7395 X1.609 Y1.1162
N7400 X1.6034 Y1.116
N7405 X1.5983 Y1.1161
N7410 X1.5937 Y1.1165
N7415 X1.5894 Y1.1171
N7420 X1.5817 Y1.1192
N7425 X1.5676 Y1.1252
N7430 X1.5612 Y1.1279
N7435 X1.5583 Y1.1288
N7440 X1.5558 Y1.1295
N7445 X1.5515 Y1.1302
N7450 X1.5477 Y1.1316
N7455 Z0.2 F125.685
N7460 G0 X1.9505 Y1.314
N7465 G1 Z-0.0101 F200.
N7470 X1.96 Y1.2898 F600.
N7475 X1.9709 Y1.2657
N7480 X1.9767 Y1.2541
N7485 X1.9828 Y1.2429
N7490 X1.9892 Y1.2323
N7495 X1.9958 Y1.2225
N7500 X2.0026 Y1.2135
N7505 X2.0097 Y1.2054
N7510 X2.0168 Y1.1984
N7515 X2.0242 Y1.1924
N7520 X2.0317 Y1.1876
N7525 X2.0392 Y1.1841
N7530 X2.0469 Y1.1817
N7535 X2.0546 Y1.1804
N7540 X2.0624 Y1.1803
N7545 X2.0702 Y1.1812
N7550 X2.0779 Y1.1831
N7555 X2.0856 Y1.1858
N7560 X2.0932 Y1.1894
N7565 X2.1006 Y1.1936
N7570 X2.108 Y1.1985
N7575 X2.1152 Y1.204
N7580 X2.1222 Y1.21
N7585 X2.129 Y1.2165
N7590 X2.1357 Y1.2235
N7595 X2.1421 Y1.2309
N7600 X2.1483 Y1.2386
N7605 X2.1542 Y1.2468
N7610 X2.1654 Y1.2639
N7615 X2.1755 Y1.2821
N7620 X2.1845 Y1.3012
N7625 X2.1924 Y1.3211
N7630 X2.1991 Y1.3418
N7635 X2.2047 Y1.3632
N7640 X2.2091 Y1.3852
N7645 X2.2123 Y1.408
N7650 X2.2368 Y1.4065
N7655 X2.2599 Y1.4057
N7660 X2.2815 Y1.4056
N7665 X2.3018 Y1.4061
N7670 X2.3206 Y1.4072
N7675 X2.338 Y1.409
N7680 X2.3539 Y1.4113
N7685 X2.3684 Y1.414
N7690 X2.3814 Y1.4171
N7695 X2.3929 Y1.4203
N7700 X2.4029 Y1.4235
N7705 X2.4115 Y1.4264
N7710 X2.4186 Y1.4287
N7715 X2.4217 Y1.4295
N7720 X2.4244 Y1.43
N7725 X2.4268 Y1.4301
N7730 X2.4289 Y1.4298
N7735 X2.4307 Y1.4289
N7740 X2.4322 Y1.4274
N7745 X2.4335 Y1.4253
N7750 X2.4345 Y1.4225
N7755 X2.4353 Y1.4189
N7760 X2.4359 Y1.4146
N7765 X2.4363 Y1.4095
N7770 X2.4365 Y1.4035
N7775 X2.4366 Y1.3969
N7780 Y1.3894
N7785 X2.4364 Y1.3813
N7790 X2.4362 Y1.3725
N7795 X2.436 Y1.3632
N7800 X2.4357 Y1.3533
N7805 X2.4353 Y1.3325
N7810 X2.435 Y1.3106
N7815 Y1.2887
N7820 X2.4357 Y1.2673
N7825 X2.4362 Y1.2571
N7830 X2.437 Y1.2474
N7835 X2.438 Y1.2382
N7840 X2.4392 Y1.2297
N7845 X2.4406 Y1.2219
N7850 X2.4424 Y1.2149
N7855 X2.4444 Y1.2089
N7860 X2.4467 Y1.2037
N7865 X2.4492 Y1.1996
N7870 X2.4521 Y1.1966
N7875 X2.4553 Y1.1946
N7880 X2.4588 Y1.1938
N7885 X2.4616 Y1.1953
N7890 X2.4642 Y1.1981
N7895 X2.4666 Y1.2023
N7900 X2.4688 Y1.2078
N7905 X2.4709 Y1.2144
N7910 X2.4727 Y1.2222
N7915 X2.4744 Y1.2311
N7920 X2.476 Y1.2409
N7925 X2.4774 Y1.2516
N7930 X2.4786 Y1.263
N7935 X2.4798 Y1.2751
N7940 X2.4808 Y1.2877
N7945 X2.4824 Y1.3138
N7950 X2.4836 Y1.3404
N7955 X2.4841 Y1.3664
N7960 X2.4842 Y1.3789
N7965 X2.484 Y1.391
N7970 X2.4836 Y1.4024
N7975 X2.483 Y1.4132
N7980 X2.4821 Y1.4232
N7985 X2.4809 Y1.4323
N7990 X2.4793 Y1.4406
N7995 X2.4773 Y1.4479
N8000 X2.4748 Y1.4543
N8005 X2.4717 Y1.4597
N8010 X2.4679 Y1.4643
N8015 X2.4634 Y1.4679
N8020 X2.4581 Y1.4707
N8025 X2.4518 Y1.4727
N8030 X2.4446 Y1.474
N8035 X2.4364 Y1.4747
N8040 X2.4272
N8045 X2.417 Y1.4742
N8050 X2.4057 Y1.4732
N8055 X2.3934 Y1.4717
N8060 X2.3802 Y1.4699
N8065 X2.366 Y1.4678
N8070 X2.351 Y1.4654
N8075 X2.3352 Y1.4628
N8080 X2.3015 Y1.4572
N8085 X2.2837 Y1.4543
N8090 X2.2655 Y1.4513
N8095 X2.228 Y1.4455
N8100 X2.1899 Y1.4401
N8105 X2.152 Y1.4352
N8110 X2.1333 Y1.4331
N8115 X2.1151 Y1.4311
N8120 X2.0972 Y1.4294
N8125 X2.08 Y1.4278
N8130 X2.0634 Y1.4264
N8135 X2.0475 Y1.4252
N8140 X2.0324 Y1.4241
N8145 X2.0183 Y1.4232
N8150 X2.0051 Y1.4224
N8155 X1.9929 Y1.4216
N8160 X1.9818 Y1.4209
N8165 X1.9718 Y1.4202
N8170 X1.963 Y1.4193
N8175 X1.9552 Y1.4183
N8180 X1.9486 Y1.417
N8185 X1.9431 Y1.4153
N8190 X1.9386 Y1.4131
N8195 X1.9351 Y1.4102
N8200 X1.9326 Y1.4067
N8205 X1.9309 Y1.4024
N8210 X1.9301 Y1.3973
N8215 Y1.3912
N8220 X1.9307 Y1.3843
N8225 X1.932 Y1.3765
N8230 X1.9339 Y1.3678
N8235 X1.9363 Y1.3583
N8240 X1.9392 Y1.3481
N8245 X1.9426 Y1.3372
N8250 X1.9463 Y1.3258
N8255 X1.9505 Y1.314
N8260 Z0.2 F125.685
N8265 G0 X2.4894 Y1.1053
N8270 G1 Z-0.0101 F200.
N8275 X2.496 Y1.1069 F600.
N8280 X2.5026 Y1.1075
N8285 X2.5022 Y1.1018
N8290 X2.5011 Y1.096
N8295 X2.4992 Y1.0901
N8300 X2.4967 Y1.0841
N8305 X2.4934 Y1.0781
N8310 X2.4895 Y1.072
N8315 X2.485 Y1.0658
N8320 X2.4799 Y1.0596
N8325 X2.4744 Y1.0534
N8330 X2.4684 Y1.0471
N8335 X2.4554 Y1.0347
N8340 X2.4415 Y1.0224
N8345 X2.4271 Y1.0105
N8350 X2.4129 Y0.9994
N8355 X2.3994 Y0.9892
N8360 X2.3931 Y0.9846
N8365 X2.387 Y0.9805
N8370 X2.3814 Y0.9768
N8375 X2.3762 Y0.9736
N8380 X2.3714 Y0.971
N8385 X2.3672 Y0.9691
N8390 X2.3634 Y0.968
N8395 X2.3602 Y0.9676
N8400 X2.3575 Y0.9682
N8405 X2.3553 Y0.9698
N8410 X2.3535 Y0.9723
N8415 X2.3522 Y0.9758
N8420 X2.3513 Y0.9801
N8425 X2.3507 Y0.9853
N8430 X2.3504 Y0.991
N8435 X2.3502 Y0.9972
N8440 Y1.0234
N8445 X2.3499 Y1.0294
N8450 X2.3494 Y1.0347
N8455 X2.3486 Y1.0394
N8460 X2.3475 Y1.0431
N8465 X2.346 Y1.046
N8470 X2.3441 Y1.0478
N8475 X2.3418 Y1.0485
N8480 X2.3391 Y1.0482
N8485 X2.336 Y1.047
N8490 X2.3325 Y1.0449
N8495 X2.3287 Y1.0421
N8500 X2.3246 Y1.0388
N8505 X2.3158 Y1.0313
N8510 X2.3065 Y1.0241
N8515 X2.3019 Y1.0212
N8520 X2.2973 Y1.0191
N8525 X2.2929 Y1.0179
N8530 X2.2887
N8535 X2.2847 Y1.0192
N8540 X2.281 Y1.022
N8545 X2.2793 Y1.024
N8550 X2.2776 Y1.0264
N8555 X2.276 Y1.0292
N8560 X2.2746 Y1.0325
N8565 X2.287 Y1.0493
N8570 X2.3003 Y1.0652
N8575 X2.3139 Y1.0799
N8580 X2.3208 Y1.0867
N8585 X2.3275 Y1.0931
N8590 X2.3342 Y1.0988
N8595 X2.3406 Y1.104
N8600 X2.3468 Y1.1085
N8605 X2.3526 Y1.1123
N8610 X2.3579 Y1.1153
N8615 X2.3629 Y1.1175
N8620 X2.3673 Y1.1188
N8625 X2.3711 Y1.1193
N8630 X2.3744 Y1.1188
N8635 X2.3771 Y1.1175
N8640 X2.3792 Y1.1154
N8645 X2.3807 Y1.1125
N8650 X2.3817 Y1.1089
N8655 X2.3823 Y1.1047
N8660 X2.3824 Y1.1
N8665 X2.3823 Y1.0951
N8670 X2.381 Y1.075
N8675 X2.3809 Y1.066
N8680 X2.3814 Y1.0578
N8685 X2.3827 Y1.0504
N8690 X2.3848 Y1.0438
N8695 X2.3877 Y1.038
N8700 X2.3893 Y1.0355
N8705 X2.3912 Y1.0334
N8710 X2.3933 Y1.0317
N8715 X2.3956 Y1.0306
N8720 X2.3981 Y1.0301
N8725 X2.4009 Y1.0304
N8730 X2.4039 Y1.0315
N8735 X2.4071 Y1.0334
N8740 X2.4106 Y1.036
N8745 X2.4144 Y1.0394
N8750 X2.4184 Y1.0434
N8755 X2.4227 Y1.0479
N8760 X2.4272 Y1.053
N8765 X2.4319 Y1.0584
N8770 X2.442 Y1.0698
N8775 X2.4529 Y1.0811
N8780 X2.4586 Y1.0865
N8785 X2.4645 Y1.0915
N8790 X2.4705 Y1.0959
N8795 X2.4767 Y1.0998
N8800 X2.483 Y1.1029
N8805 X2.4894 Y1.1053
N8810 Z0.2 F125.685
N8815 G0 X2.2409 Y1.1155
N8820 G1 Z-0.0101 F200.
N8825 X2.2497 Y1.1188 F600.
N8830 X2.2578 Y1.1223
N8835 X2.2651 Y1.1262
N8840 X2.2716 Y1.1304
N8845 X2.2772 Y1.1349
N8850 X2.2818 Y1.1397
N8855 X2.2854 Y1.1449
N8860 X2.2879 Y1.1504
N8865 X2.2894 Y1.1563
N8870 X2.2897 Y1.1625
N8875 X2.2643 Y1.1602
N8880 X2.2395 Y1.1579
N8885 X2.2154 Y1.1556
N8890 X2.192 Y1.1534
N8895 X2.1695 Y1.1511
N8900 X2.1479 Y1.1489
N8905 X2.1273 Y1.1466
N8910 X2.108 Y1.1444
N8915 X2.0901 Y1.1421
N8920 X2.0818 Y1.141
N8925 X2.0739 Y1.1399
N8930 X2.0664 Y1.1388
N8935 X2.0595 Y1.1377
N8940 X2.053 Y1.1366
N8945 X2.0472 Y1.1356
N8950 X2.0419 Y1.1345
N8955 X2.0373 Y1.1334
N8960 X2.0333 Y1.1323
N8965 X2.03 Y1.1313
N8970 X2.0274 Y1.1302
N8975 X2.0255 Y1.1292
N8980 X2.0244 Y1.1281
N8985 X2.024 Y1.1271
N8990 X2.0297 Y1.1225
N8995 X2.0361 Y1.1184
N9000 X2.0432 Y1.1147
N9005 X2.0509 Y1.1114
N9010 X2.0593 Y1.1086
N9015 X2.0683 Y1.1062
N9020 X2.0778 Y1.1042
N9025 X2.0878 Y1.1026
N9030 X2.0983 Y1.1014
N9035 X2.1091 Y1.1005
N9040 X2.1202 Y1.1
N9045 X2.1316 Y1.0998
N9050 X2.1546 Y1.1005
N9055 X2.1778 Y1.1024
N9060 X2.2003 Y1.1056
N9065 X2.2111 Y1.1076
N9070 X2.2215 Y1.11
N9075 X2.2315 Y1.1126
N9080 X2.2409 Y1.1155
N9085 Z0.2 F125.685
N9090 G0 X1.9936 Y1.5713
N9095 G1 Z-0.0101 F200.
N9100 X2.0028 Y1.572 F600.
N9105 X2.0129 Y1.5734
N9110 X2.024 Y1.5751
N9115 X2.0359 Y1.5771
N9120 X2.0487 Y1.5792
N9125 X2.0624 Y1.5813
N9130 X2.077 Y1.5832
N9135 X2.0924 Y1.5848
N9140 X2.1086 Y1.586
N9145 X2.1254 Y1.5867
N9150 X2.1428 Y1.5868
N9155 X2.1605 Y1.5864
N9160 X2.1786 Y1.5854
N9165 X2.1968 Y1.5838
N9170 X2.215 Y1.5818
N9175 X2.2332 Y1.5793
N9180 X2.269 Y1.5735
N9185 X2.2863 Y1.5703
N9190 X2.3032 Y1.5671
N9195 X2.3196 Y1.5639
N9200 X2.3354 Y1.561
N9205 X2.3505 Y1.5583
N9210 X2.3648 Y1.556
N9215 X2.3783 Y1.5542
N9220 X2.391 Y1.5529
N9225 X2.4028 Y1.5523
N9230 X2.4138
N9235 X2.4164 Y1.5558
N9240 X2.4184 Y1.5593
N9245 X2.4196 Y1.5627
N9250 X2.4201 Y1.566
N9255 X2.4198 Y1.5693
N9260 X2.4189 Y1.5724
N9265 X2.4172 Y1.5754
N9270 X2.4149 Y1.5784
N9275 X2.4119 Y1.5812
N9280 X2.4083 Y1.584
N9285 X2.404 Y1.5867
N9290 X2.3991 Y1.5893
N9295 X2.3937 Y1.5918
N9300 X2.3876 Y1.5942
N9305 X2.3811 Y1.5965
N9310 X2.374 Y1.5988
N9315 X2.3664 Y1.6009
N9320 X2.3583 Y1.603
N9325 X2.3498 Y1.605
N9330 X2.3409 Y1.6068
N9335 X2.3219 Y1.6103
N9340 X2.3016 Y1.6135
N9345 X2.2802 Y1.6163
N9350 X2.2579 Y1.6186
N9355 X2.2349 Y1.6206
N9360 X2.2116 Y1.6222
N9365 X2.1881 Y1.6234
N9370 X2.1647 Y1.6241
N9375 X2.1416 Y1.6244
N9380 X2.119 Y1.6242
N9385 X2.0973 Y1.6235
N9390 X2.0765 Y1.6223
N9395 X2.0569 Y1.6205
N9400 X2.0476 Y1.6194
N9405 X2.0388 Y1.6182
N9410 X2.0303 Y1.6168
N9415 X2.0222 Y1.6152
N9420 X2.0146 Y1.6135
N9425 X2.0075 Y1.6117
N9430 X2.0009 Y1.6096
N9435 X1.9947 Y1.6074
N9440 X1.9892 Y1.6051
N9445 X1.9841 Y1.6026
N9450 X1.9796 Y1.5999
N9455 X1.9758 Y1.597
N9460 X1.9725 Y1.5939
N9465 X1.9698 Y1.5907
N9470 X1.9677 Y1.5873
N9475 X1.9662 Y1.5837
N9480 X1.9654 Y1.5799
N9485 X1.9652 Y1.5759
N9490 X1.9711 Y1.5734
N9495 X1.9777 Y1.5719
N9500 X1.9853 Y1.5712
N9505 X1.9936 Y1.5713
N9510 Z0.2 F125.685
N9515 G0 X1.3401 Y0.1701
N9520 G1 Z-0.0101 F200.
N9525 X1.3414 Y0.172 F600.
N9530 X1.3434 Y0.1753
N9535 X1.3462 Y0.1798
N9540 X1.3496 Y0.1854
N9545 X1.3535 Y0.192
N9550 X1.3577 Y0.1994
N9555 X1.362 Y0.2075
N9560 X1.3661 Y0.216
N9565 X1.3698 Y0.2246
N9570 X1.373 Y0.2333
N9575 X1.3753 Y0.2416
N9580 X1.3767 Y0.2496
N9585 X1.3769 Y0.2569
N9590 X1.3759 Y0.2635
N9595 X1.3748 Y0.2664
N9600 X1.3734 Y0.2691
N9605 X1.3717 Y0.2716
N9610 X1.3695 Y0.2738
N9615 X1.367 Y0.2757
N9620 X1.3642 Y0.2774
N9625 X1.361 Y0.2788
N9630 X1.3575 Y0.2799
N9635 X1.3495 Y0.2815
N9640 X1.3403 Y0.282
N9645 X1.3301 Y0.2818
N9650 X1.3191 Y0.2808
N9655 X1.3075 Y0.2793
N9660 X1.2956 Y0.2774
N9665 X1.2717 Y0.2731
N9670 X1.2602 Y0.2711
N9675 X1.2494 Y0.2695
N9680 X1.2394 Y0.2683
N9685 X1.2305 Y0.2679
N9690 X1.2266 Y0.268
N9695 X1.2229 Y0.2683
N9700 X1.2197 Y0.2688
N9705 X1.2168 Y0.2696
N9710 X1.2144 Y0.2707
N9715 X1.2123 Y0.272
N9720 X1.2107 Y0.2736
N9725 X1.2095 Y0.2755
N9730 X1.2087 Y0.2777
N9735 X1.2084 Y0.2802
N9740 X1.2085 Y0.2829
N9745 X1.2091 Y0.2859
N9750 X1.2101 Y0.2892
N9755 X1.2115 Y0.2927
N9760 X1.2133 Y0.2965
N9765 X1.2154 Y0.3005
N9770 X1.218 Y0.3047
N9775 X1.2209 Y0.3091
N9780 X1.2278 Y0.3185
N9785 X1.2358 Y0.3284
N9790 X1.2447 Y0.3388
N9795 X1.2544 Y0.3493
N9800 X1.2645 Y0.36
N9805 X1.2852 Y0.3807
N9810 X1.2953 Y0.3905
N9815 X1.3049 Y0.3997
N9820 X1.3137 Y0.4082
N9825 X1.3216 Y0.4159
N9830 X1.3283 Y0.4229
N9835 X1.3312 Y0.426
N9840 X1.3337 Y0.429
N9845 X1.3359 Y0.4317
N9850 X1.3377 Y0.4343
N9855 X1.3391 Y0.4367
N9860 X1.3402 Y0.4389
N9865 X1.3408 Y0.441
N9870 X1.3411 Y0.4429
N9875 X1.3404 Y0.4466
N9880 X1.3382 Y0.4501
N9885 X1.3346 Y0.4537
N9890 X1.3296 Y0.4576
N9895 X1.3234 Y0.462
N9900 X1.316 Y0.467
N9905 X1.3077 Y0.4728
N9910 X1.2986 Y0.4794
N9915 X1.2888 Y0.4868
N9920 X1.2784 Y0.4949
N9925 X1.2676 Y0.5037
N9930 X1.2565 Y0.5132
N9935 X1.2454 Y0.5232
N9940 X1.2234 Y0.5443
N9945 X1.2129 Y0.5552
N9950 X1.2028 Y0.5661
N9955 X1.1934 Y0.5769
N9960 X1.1847 Y0.5875
N9965 X1.1769 Y0.5976
N9970 X1.1701 Y0.6072
N9975 X1.1643 Y0.6161
N9980 X1.1597 Y0.6242
N9985 X1.1563 Y0.6313
N9990 X1.1551 Y0.6345
N9995 X1.1542 Y0.6375
N10000 X1.1536 Y0.6401
N10005 X1.1534 Y0.6425
N10010 X1.1535 Y0.6447
N10015 X1.1539 Y0.6465
N10020 X1.1547 Y0.6481
N10025 X1.1558 Y0.6494
N10030 X1.1572 Y0.6504
N10035 X1.159 Y0.6511
N10040 X1.161 Y0.6515
N10045 X1.1634 Y0.6517
N10050 X1.1691 Y0.6514
N10055 X1.1759 Y0.65
N10060 X1.1839 Y0.6479
N10065 X1.1928 Y0.6449
N10070 X1.2027 Y0.6413
N10075 X1.2134 Y0.6372
N10080 X1.2248 Y0.6327
N10085 X1.2368 Y0.6278
N10090 X1.2493 Y0.6229
N10095 X1.2755 Y0.613
N10100 X1.3024 Y0.604
N10105 X1.3158 Y0.6
N10110 X1.3291 Y0.5965
N10115 X1.3422 Y0.5935
N10120 X1.355 Y0.5912
N10125 X1.3674 Y0.5894
N10130 X1.3793 Y0.5882
N10135 X1.3908 Y0.5876
N10140 X1.4017 Y0.5875
N10145 X1.412 Y0.588
N10150 X1.4216 Y0.589
N10155 X1.4305 Y0.5905
N10160 X1.4386 Y0.5923
N10165 X1.446 Y0.5944
N10170 X1.4526 Y0.5968
N10175 X1.4583 Y0.5994
N10180 X1.4632 Y0.6021
N10185 X1.4673 Y0.6049
N10190 X1.4705 Y0.6076
N10195 X1.4729 Y0.6103
N10200 X1.4746 Y0.6129
N10205 X1.4754 Y0.6153
N10210 X1.4755 Y0.6175
N10215 X1.4748 Y0.6195
N10220 X1.4732 Y0.6213
N10225 X1.4708 Y0.6229
N10230 X1.4675 Y0.6244
N10235 X1.4632 Y0.6258
N10240 X1.4578 Y0.6271
N10245 X1.4513 Y0.6284
N10250 X1.4436 Y0.6297
N10255 X1.4346 Y0.6312
N10260 X1.4243 Y0.6328
N10265 X1.4126 Y0.6346
N10270 X1.3996 Y0.6368
N10275 X1.3852 Y0.6393
N10280 X1.3695 Y0.6421
N10285 X1.3525 Y0.6454
N10290 X1.3345 Y0.649
N10295 X1.3154 Y0.6531
N10300 X1.2955 Y0.6576
N10305 X1.2749 Y0.6625
N10310 X1.2538 Y0.6678
N10315 X1.2107 Y0.6794
N10320 X1.1675 Y0.6921
N10325 X1.1461 Y0.6989
N10330 X1.1251 Y0.7058
N10335 X1.1046 Y0.7129
N10340 X1.0847 Y0.7201
N10345 X1.0655 Y0.7273
N10350 X1.0471 Y0.7346
N10355 X1.0295 Y0.7418
N10360 X1.0129 Y0.7489
N10365 X0.9974 Y0.756
N10370 X0.9829 Y0.7628
N10375 X0.9695 Y0.7695
N10380 X0.9572 Y0.7759
N10385 X0.946 Y0.7819
N10390 X0.9359 Y0.7877
N10395 X0.9269 Y0.7931
N10400 X0.919 Y0.7981
N10405 X0.912 Y0.8027
N10410 X0.9058 Y0.8068
N10415 X0.9004 Y0.8104
N10420 X0.8956 Y0.8136
N10425 X0.8913 Y0.8163
N10430 X0.8872 Y0.8185
N10435 X0.8832 Y0.8202
N10440 X0.879 Y0.8215
N10445 X0.8744 Y0.8223
N10450 X0.8692 Y0.8226
N10455 X0.8631
N10460 X0.856 Y0.8221
N10465 X0.8477 Y0.8214
N10470 X0.8381 Y0.8203
N10475 X0.8273 Y0.8189
N10480 X0.8153 Y0.8172
N10485 X0.8022 Y0.8153
N10490 X0.7881 Y0.8131
N10495 X0.7731 Y0.8108
N10500 X0.7576 Y0.8084
N10505 X0.6932 Y0.7982
N10510 X0.6776 Y0.7958
N10515 X0.6627 Y0.7936
N10520 X0.6488 Y0.7917
N10525 X0.6359 Y0.79
N10530 X0.6243 Y0.7888
N10535 X0.619 Y0.7884
N10540 X0.6142 Y0.7881
N10545 X0.6097 Y0.788
N10550 X0.6056 Y0.7881
N10555 X0.602 Y0.7884
N10560 X0.5988 Y0.7889
N10565 X0.596 Y0.7896
N10570 X0.5937 Y0.7905
N10575 X0.5918 Y0.7917
N10580 X0.5903 Y0.7932
N10585 X0.5893 Y0.795
N10590 X0.5887 Y0.797
N10595 X0.5886 Y0.7994
N10600 X0.5888 Y0.8021
N10605 X0.5895 Y0.8051
N10610 X0.5905 Y0.8085
N10615 X0.592 Y0.8121
N10620 X0.5938 Y0.8162
N10625 X0.5959 Y0.8205
N10630 X0.5984 Y0.8252
N10635 X0.6012 Y0.8303
N10640 X0.6043 Y0.8356
N10645 X0.6113 Y0.8473
N10650 X0.6192 Y0.8601
N10655 X0.6278 Y0.874
N10660 X0.637 Y0.8887
N10665 X0.6466 Y0.9043
N10670 X0.6565 Y0.9203
N10675 X0.676 Y0.9535
N10680 X0.6854 Y0.9702
N10685 X0.6943 Y0.9868
N10690 X0.7025 Y1.0031
N10695 X0.71 Y1.0189
N10700 X0.7165 Y1.034
N10705 X0.7219 Y1.0483
N10710 X0.7261 Y1.0618
N10715 X0.7278 Y1.0681
N10720 X0.7292 Y1.0741
N10725 X0.7302 Y1.0799
N10730 X0.7309 Y1.0854
N10735 X0.7313 Y1.0907
N10740 X0.7314 Y1.0956
N10745 X0.7311 Y1.1002
N10750 X0.7305 Y1.1046
N10755 X0.7297 Y1.1087
N10760 X0.7285 Y1.1126
N10765 X0.7253 Y1.1194
N10770 X0.721 Y1.1254
N10775 X0.7157 Y1.1305
N10780 X0.7096 Y1.1349
N10785 X0.7028 Y1.1388
N10790 X0.6954 Y1.1424
N10795 X0.6795 Y1.1489
N10800 X0.6625 Y1.1555
N10805 X0.645 Y1.1629
N10810 X0.6273 Y1.1717
N10815 X0.6185 Y1.1767
N10820 X0.6098 Y1.1823
N10825 X0.6011 Y1.1883
N10830 X0.5926 Y1.1949
N10835 X0.5842 Y1.2019
N10840 X0.5759 Y1.2095
N10845 X0.5678 Y1.2176
N10850 X0.5599 Y1.2262
N10855 X0.5445 Y1.2444
N10860 X0.5298 Y1.2636
N10865 X0.5161 Y1.2831
N10870 X0.5033 Y1.3022
N10875 X0.4974 Y1.3113
N10880 X0.4919 Y1.32
N10885 X0.4867 Y1.3282
N10890 X0.482 Y1.3358
N10895 X0.4778 Y1.3428
N10900 X0.4743 Y1.3489
N10905 X0.4714 Y1.3543
N10910 X0.4694 Y1.3588
N10915 X0.4683 Y1.3624
N10920 Y1.3651
N10925 X0.4696 Y1.367
N10930 X0.4707 Y1.3676
N10935 X0.4722 Y1.368
N10940 X0.4742 Y1.3682
N10945 X0.4765 Y1.3683
N10950 X0.4793 Y1.3681
N10955 X0.4825 Y1.3678
N10960 X0.4862 Y1.3673
N10965 X0.4903 Y1.3666
N10970 X0.4949 Y1.3658
N10975 X0.4999 Y1.3649
N10980 X0.5054 Y1.3638
N10985 X0.5113 Y1.3626
N10990 X0.5176 Y1.3613
N10995 X0.539 Y1.3569
N11000 X0.555 Y1.3536
N11005 X0.5722 Y1.3501
N11010 X0.5904 Y1.3465
N11015 X0.6092 Y1.343
N11020 X0.6286 Y1.3395
N11025 X0.6676 Y1.3331
N11030 X0.6866 Y1.3304
N11035 X0.7051 Y1.3281
N11040 X0.7226 Y1.3262
N11045 X0.739 Y1.3249
N11050 X0.7467 Y1.3244
N11055 X0.7541 Y1.3241
N11060 X0.761 Y1.324
N11065 X0.7675
N11070 X0.7736 Y1.3242
N11075 X0.7791 Y1.3245
N11080 X0.7843 Y1.3251
N11085 X0.7889 Y1.3258
N11090 X0.793 Y1.3267
N11095 X0.7966 Y1.3278
N11100 X0.7996 Y1.3291
N11105 X0.8022 Y1.3305
N11110 X0.8042 Y1.3322
N11115 X0.8057 Y1.334
N11120 X0.8067 Y1.336
N11125 X0.8072 Y1.3382
N11130 Y1.3406
N11135 X0.8068 Y1.3431
N11140 X0.8059 Y1.3458
N11145 X0.8046 Y1.3486
N11150 X0.8029 Y1.3516
N11155 X0.8009 Y1.3548
N11160 X0.7957 Y1.3615
N11165 X0.7892 Y1.3688
N11170 X0.7816 Y1.3767
N11175 X0.7729 Y1.385
N11180 X0.7635 Y1.3938
N11185 X0.7532 Y1.4031
N11190 X0.7423 Y1.4128
N11195 X0.719 Y1.4335
N11200 X0.7067 Y1.4445
N11205 X0.6942 Y1.4558
N11210 X0.6814 Y1.4676
N11215 X0.6684 Y1.4797
N11220 X0.6422 Y1.5051
N11225 X0.6159 Y1.532
N11230 X0.5899 Y1.5604
N11235 X0.5643 Y1.5903
N11240 X0.5517 Y1.6059
N11245 X0.5393 Y1.6217
N11250 X0.5271 Y1.638
N11255 X0.515 Y1.6546
N11260 X0.5031 Y1.6716
N11265 X0.4914 Y1.6889
N11270 X0.4687 Y1.7247
N11275 X0.4467 Y1.7617
N11280 X0.4254 Y1.8001
N11285 X0.405 Y1.8395
N11290 X0.3853 Y1.8798
N11295 X0.3664 Y1.9208
N11300 X0.3484 Y1.9621
N11305 X0.3312 Y2.0036
N11310 X0.3151 Y2.0449
N11315 X0.3001 Y2.0855
N11320 X0.293 Y2.1055
N11325 X0.2863 Y2.1252
N11330 X0.2799 Y2.1445
N11335 X0.2739 Y2.1635
N11340 X0.2682 Y2.182
N11345 X0.2629 Y2.2
N11350 X0.2581 Y2.2176
N11355 X0.2537 Y2.2345
N11360 X0.2498 Y2.2508
N11365 X0.2463 Y2.2665
N11370 X0.2434 Y2.2815
N11375 X0.241 Y2.2957
N11380 X0.2391 Y2.3092
N11385 X0.2379 Y2.3219
N11390 X0.2372 Y2.3337
N11395 Y2.3447
N11400 X0.2378 Y2.3548
N11405 X0.2392 Y2.364
N11410 X0.2412 Y2.3722
N11415 X0.244 Y2.3795
N11420 X0.2475 Y2.3859
N11425 X0.2518 Y2.3913
N11430 X0.257 Y2.3957
N11435 X0.263 Y2.3992
N11440 X0.2698 Y2.4018
N11445 X0.2776 Y2.4034
N11450 X0.2863 Y2.4041
N11455 X0.2959 Y2.4039
N11460 X0.3064 Y2.4028
N11465 X0.318 Y2.4009
N11470 X0.3305 Y2.3982
N11475 X0.344 Y2.3947
N11480 X0.3585 Y2.3905
N11485 X0.374 Y2.3856
N11490 X0.3905 Y2.38
N11495 X0.408 Y2.3739
N11500 X0.4265 Y2.3671
N11505 X0.446 Y2.3599
N11510 X0.4665 Y2.3521
N11515 X0.4879 Y2.344
N11520 X0.5102 Y2.3355
N11525 X0.5334 Y2.3266
N11530 X0.5575 Y2.3175
N11535 X0.5824 Y2.3082
N11540 X0.6082 Y2.2987
N11545 X0.6346 Y2.2891
N11550 X0.6618 Y2.2794
N11555 X0.6896 Y2.2697
N11560 X0.718 Y2.26
N11565 X0.7468 Y2.2503
N11570 X0.8058 Y2.2314
N11575 X0.8659 Y2.2131
N11580 X0.9264 Y2.1958
N11585 X0.9864 Y2.1796
N11590 X1.0159 Y2.172
N11595 X1.045 Y2.1647
N11600 X1.0733 Y2.1578
N11605 X1.1009 Y2.1512
N11610 X1.1276 Y2.1449
N11615 X1.1532 Y2.139
N11620 X1.1776 Y2.1333
N11625 X1.2006 Y2.128
N11630 X1.2116 Y2.1254
N11635 X1.2221 Y2.1229
N11640 X1.2322 Y2.1205
N11645 X1.2418 Y2.1181
N11650 X1.2509 Y2.1158
N11655 X1.2595 Y2.1135
N11660 X1.2675 Y2.1112
N11665 X1.2749 Y2.1089
N11670 X1.2816 Y2.1067
N11675 X1.2878 Y2.1045
N11680 X1.2932 Y2.1023
N11685 X1.298 Y2.1
N11690 X1.302 Y2.0978
N11695 X1.3053 Y2.0955
N11700 X1.3079 Y2.0933
N11705 X1.3097 Y2.0909
N11710 X1.3108 Y2.0886
N11715 X1.3111 Y2.0862
N11720 X1.3108 Y2.0838
N11725 X1.3097 Y2.0813
N11730 X1.308 Y2.0788
N11735 X1.3057 Y2.0762
N11740 X1.3028 Y2.0735
N11745 X1.2994 Y2.0709
N11750 X1.2914 Y2.0654
N11755 X1.2823 Y2.0598
N11760 X1.2635 Y2.0485
N11765 X1.255 Y2.043
N11770 X1.2479 Y2.0375
N11775 X1.245 Y2.0349
N11780 X1.2425 Y2.0323
N11785 X1.2405 Y2.0297
N11790 X1.239 Y2.0273
N11795 X1.2381 Y2.0248
N11800 X1.2376 Y2.0225
N11805 X1.2377 Y2.0202
N11810 X1.2382 Y2.018
N11815 X1.2393 Y2.0159
N11820 X1.2409 Y2.0139
N11825 X1.2429 Y2.0119
N11830 X1.2454 Y2.01
N11835 X1.2483 Y2.0083
N11840 X1.2516 Y2.0066
N11845 X1.2594 Y2.0034
N11850 X1.2684 Y2.0006
N11855 X1.2785 Y1.998
N11860 X1.2896 Y1.9959
N11865 X1.3015 Y1.994
N11870 X1.3142 Y1.9924
N11875 X1.3276 Y1.9912
N11880 X1.3416 Y1.9902
N11885 X1.3563 Y1.9895
N11890 X1.3715 Y1.9891
N11895 X1.3871 Y1.9889
N11900 X1.4032
N11905 X1.4196 Y1.9892
N11910 X1.4533 Y1.9903
N11915 X1.4877 Y1.992
N11920 X1.5224 Y1.9942
N11925 X1.5568 Y1.9967
N11930 X1.5904 Y1.9995
N11935 X1.6066 Y2.0008
N11940 X1.6222 Y2.0022
N11945 X1.637 Y2.0036
N11950 X1.6511 Y2.0049
N11955 X1.6642 Y2.0062
N11960 X1.6761 Y2.0075
N11965 X1.687 Y2.0087
N11970 X1.6966 Y2.0099
N11975 X1.705 Y2.0111
N11980 X1.7122 Y2.0123
N11985 X1.7183 Y2.0135
N11990 X1.7232 Y2.0148
N11995 X1.7272 Y2.0161
N12000 X1.7301 Y2.0176
N12005 X1.732 Y2.0191
N12010 X1.7331 Y2.0207
N12015 X1.7332 Y2.0224
N12020 X1.7325 Y2.0242
N12025 X1.7309 Y2.026
N12030 X1.7285 Y2.028
N12035 X1.7252 Y2.03
N12040 X1.721 Y2.032
N12045 X1.716 Y2.034
N12050 X1.7102 Y2.0361
N12055 X1.7036 Y2.0381
N12060 X1.6962 Y2.04
N12065 X1.6882 Y2.042
N12070 X1.6795 Y2.0438
N12075 X1.6702 Y2.0456
N12080 X1.6604 Y2.0472
N12085 X1.6502 Y2.0487
N12090 X1.6396 Y2.0501
N12095 X1.6175 Y2.0525
N12100 X1.5945 Y2.0541
N12105 X1.571 Y2.0549
N12110 X1.5471 Y2.055
N12115 X1.5229 Y2.0543
N12120 X1.4983 Y2.0529
N12125 X1.4482 Y2.0491
N12130 X1.4232 Y2.0471
N12135 X1.3987 Y2.0456
N12140 X1.3869 Y2.045
N12145 X1.3755 Y2.0447
N12150 X1.3646
N12155 X1.3546 Y2.045
N12160 X1.3457 Y2.0457
N12165 X1.3382 Y2.0469
N12170 X1.335 Y2.0477
N12175 X1.3322 Y2.0487
N12180 X1.33 Y2.0497
N12185 X1.3282 Y2.051
N12190 X1.327 Y2.0524
N12195 X1.3263 Y2.0539
N12200 X1.3262 Y2.0557
N12205 X1.3267 Y2.0575
N12210 X1.3277 Y2.0596
N12215 X1.3294 Y2.0617
N12220 X1.3317 Y2.0641
N12225 X1.3346 Y2.0666
N12230 X1.338 Y2.0692
N12235 X1.3421 Y2.0719
N12240 X1.3467 Y2.0748
N12245 X1.3518 Y2.0777
N12250 X1.3575 Y2.0808
N12255 X1.3636 Y2.0839
N12260 X1.3703 Y2.0872
N12265 X1.3773 Y2.0905
N12270 X1.3926 Y2.0972
N12275 X1.4092 Y2.104
N12280 X1.4267 Y2.1108
N12285 X1.4449 Y2.1175
N12290 X1.4816 Y2.1301
N12295 X1.4995 Y2.136
N12300 X1.5167 Y2.1414
N12305 X1.5328 Y2.1464
N12310 X1.5545 Y2.153
N12315 X1.5609 Y2.155
N12320 X1.5668 Y2.1569
N12325 X1.5723 Y2.1587
N12330 X1.5773 Y2.1604
N12335 X1.5818 Y2.162
N12340 X1.5858 Y2.1636
N12345 X1.5893 Y2.1652
N12350 X1.5923 Y2.1667
N12355 X1.5947 Y2.1683
N12360 X1.5967 Y2.1699
N12365 X1.5983 Y2.1715
N12370 X1.5993 Y2.1733
N12375 X1.5999 Y2.1752
N12380 X1.6001 Y2.1772
N12385 X1.6 Y2.1795
N12390 X1.5994 Y2.1819
N12395 X1.5985 Y2.1846
N12400 X1.5973 Y2.1875
N12405 X1.5957 Y2.1907
N12410 X1.5918 Y2.1979
N12415 X1.587 Y2.2064
N12420 X1.5813 Y2.216
N12425 X1.575 Y2.227
N12430 X1.568 Y2.2391
N12435 X1.5607 Y2.2524
N12440 X1.5529 Y2.2666
N12445 X1.545 Y2.2819
N12450 X1.537 Y2.2979
N12455 X1.5289 Y2.3145
N12460 X1.5131 Y2.349
N12465 X1.4983 Y2.384
N12470 X1.4916 Y2.4012
N12475 X1.4853 Y2.4179
N12480 X1.4797 Y2.434
N12485 X1.4748 Y2.4492
N12490 X1.4707 Y2.4635
N12495 X1.4674 Y2.4765
N12500 X1.4661 Y2.4826
N12505 X1.4651 Y2.4883
N12510 X1.4644 Y2.4937
N12515 X1.4639 Y2.4987
N12520 X1.4637 Y2.5034
N12525 X1.4639 Y2.5076
N12530 X1.4644 Y2.5115
N12535 X1.4652 Y2.515
N12540 X1.4664 Y2.5181
N12545 X1.4679 Y2.5208
N12550 X1.4699 Y2.5231
N12555 X1.4722 Y2.525
N12560 X1.475 Y2.5265
N12565 X1.4781 Y2.5276
N12570 X1.4817 Y2.5283
N12575 X1.4857 Y2.5286
N12580 X1.4902
N12585 X1.4951 Y2.5281
N12590 X1.5004 Y2.5273
N12595 X1.5062 Y2.5261
N12600 X1.5124 Y2.5246
N12605 X1.519 Y2.5227
N12610 X1.5261 Y2.5204
N12615 X1.5336 Y2.5178
N12620 X1.5416 Y2.5148
N12625 X1.5499 Y2.5116
N12630 X1.5586 Y2.508
N12635 X1.5678 Y2.5041
N12640 X1.5773 Y2.4999
N12645 X1.5872 Y2.4954
N12650 X1.5975 Y2.4906
N12655 X1.6081 Y2.4855
N12660 X1.619 Y2.4801
N12665 X1.6302 Y2.4745
N12670 X1.6535 Y2.4626
N12675 X1.6779 Y2.4497
N12680 X1.7031 Y2.436
N12685 X1.729 Y2.4215
N12690 X1.7554 Y2.4064
N12695 X1.7823 Y2.3907
N12700 X1.8093 Y2.3745
N12705 X1.8633 Y2.3411
N12710 X1.8899 Y2.3241
N12715 X1.916 Y2.307
N12720 X1.9415 Y2.2899
N12725 X1.9662 Y2.2729
N12730 X1.9899 Y2.2561
N12735 X2.0126 Y2.2396
N12740 X2.0341 Y2.2234
N12745 X2.0543 Y2.2077
N12750 X2.0732 Y2.1926
N12755 X2.0821 Y2.1853
N12760 X2.0906 Y2.1781
N12765 X2.0987 Y2.1711
N12770 X2.1065 Y2.1643
N12775 X2.1139 Y2.1577
N12780 X2.1209 Y2.1513
N12785 X2.1275 Y2.1451
N12790 X2.1338 Y2.1392
N12795 X2.1397 Y2.1334
N12800 X2.1452 Y2.1279
N12805 X2.1503 Y2.1227
N12810 X2.1551 Y2.1177
N12815 X2.1596 Y2.1129
N12820 X2.1636 Y2.1085
N12825 X2.1674 Y2.1043
N12830 X2.1709 Y2.1003
N12835 X2.1769 Y2.0933
N12840 X2.182 Y2.0875
N12845 X2.1864 Y2.0829
N12850 X2.1903 Y2.0794
N12855 X2.1939 Y2.0772
N12860 X2.1977 Y2.0763
N12865 X2.2019 Y2.0765
N12870 X2.2068 Y2.0781
N12875 X2.2125 Y2.0808
N12880 X2.2158 Y2.0826
N12885 X2.2194 Y2.0847
N12890 X2.2234 Y2.087
N12895 X2.2276 Y2.0897
N12900 X2.2323 Y2.0926
N12905 X2.2428 Y2.0994
N12910 X2.2486 Y2.1031
N12915 X2.2549 Y2.1071
N12920 X2.2616 Y2.1114
N12925 X2.2688 Y2.1159
N12930 X2.2764 Y2.1206
N12935 X2.2844 Y2.1256
N12940 X2.2929 Y2.1308
N12945 X2.3019 Y2.1362
N12950 X2.3113 Y2.1418
N12955 X2.3211 Y2.1476
N12960 X2.3313 Y2.1536
N12965 X2.342 Y2.1598
N12970 X2.3531 Y2.1661
N12975 X2.3647 Y2.1726
N12980 X2.3766 Y2.1793
N12985 X2.3889 Y2.1861
N12990 X2.4016 Y2.193
N12995 X2.4282 Y2.2073
N13000 X2.4561 Y2.222
N13005 X2.4853 Y2.237
N13010 X2.5156 Y2.2523
N13015 X2.5468 Y2.2677
N13020 X2.5789 Y2.2833
N13025 X2.6116 Y2.2989
N13030 X2.6448 Y2.3144
N13035 X2.7118 Y2.3449
N13040 X2.7452 Y2.3598
N13045 X2.7783 Y2.3743
N13050 X2.811 Y2.3884
N13055 X2.843 Y2.4019
N13060 X2.8741 Y2.4149
N13065 X2.9042 Y2.4272
N13070 X2.9331 Y2.4389
N13075 X2.9471 Y2.4444
N13080 X2.9607 Y2.4498
N13085 X2.9739 Y2.4549
N13090 X2.9866 Y2.4599
N13095 X2.999 Y2.4646
N13100 X3.011 Y2.4692
N13105 X3.0224 Y2.4735
N13110 X3.0335 Y2.4776
N13115 X3.044 Y2.4814
N13120 X3.054 Y2.4851
N13125 X3.0636 Y2.4885
N13130 X3.0726 Y2.4916
N13135 X3.081 Y2.4945
N13140 X3.089 Y2.4972
N13145 X3.0964 Y2.4997
N13150 X3.1032 Y2.5019
N13155 X3.1095 Y2.5039
N13160 X3.1152 Y2.5056
N13165 X3.1203 Y2.5071
N13170 X3.1248 Y2.5083
N13175 X3.1288 Y2.5094
N13180 X3.1322 Y2.5101
N13185 X3.1351 Y2.5107
N13190 X3.1373 Y2.511
N13195 X3.1391 Y2.5111
N13200 X3.1402 Y2.511
N13205 X3.1409 Y2.5107
N13210 X3.141 Y2.5102
N13215 X3.1406 Y2.5094
N13220 X3.1397 Y2.5085
N13225 X3.1383 Y2.5074
N13230 X3.1365 Y2.5062
N13235 X3.1342 Y2.5047
N13240 X3.1314 Y2.5031
N13245 X3.1283 Y2.5014
N13250 X3.1247 Y2.4995
N13255 X3.1165 Y2.4952
N13260 X3.1068 Y2.4904
N13265 X3.0959 Y2.485
N13270 X3.0706 Y2.4727
N13275 X3.0565 Y2.4658
N13280 X3.0415 Y2.4583
N13285 X3.0258 Y2.4504
N13290 X3.0095 Y2.4419
N13295 X2.9927 Y2.4329
N13300 X2.9755 Y2.4233
N13305 X2.9579 Y2.4132
N13310 X2.9401 Y2.4026
N13315 X2.9221 Y2.3913
N13320 X2.9041 Y2.3795
N13325 X2.8862 Y2.3672
N13330 X2.8683 Y2.3543
N13335 X2.8506 Y2.3408
N13340 X2.8332 Y2.3268
N13345 X2.8161 Y2.3122
N13350 X2.7994 Y2.2972
N13355 X2.7832 Y2.2817
N13360 X2.7676 Y2.2659
N13365 X2.7525 Y2.2497
N13370 X2.7382 Y2.2333
N13375 X2.7245 Y2.2167
N13380 X2.7116 Y2.2001
N13385 X2.6996 Y2.1834
N13390 X2.6884 Y2.1669
N13395 X2.6782 Y2.1506
N13400 X2.6689 Y2.1347
N13405 X2.6606 Y2.1194
N13410 X2.6534 Y2.105
N13415 X2.6503 Y2.0981
N13420 X2.6474 Y2.0916
N13425 X2.6448 Y2.0854
N13430 X2.6424 Y2.0796
N13435 X2.6404 Y2.0742
N13440 X2.6387 Y2.0691
N13445 X2.6372 Y2.0645
N13450 X2.6361 Y2.0602
N13455 X2.6352 Y2.0564
N13460 X2.6345 Y2.0529
N13465 X2.6341 Y2.0498
N13470 X2.634 Y2.047
N13475 X2.6342 Y2.0424
N13480 X2.6351 Y2.0388
N13485 X2.6366 Y2.036
N13490 X2.6384 Y2.0338
N13495 X2.6405 Y2.0322
N13500 X2.6428 Y2.0311
N13505 X2.6452 Y2.0303
N13510 X2.6477 Y2.0301
N13515 X2.6502 Y2.0304
N13520 X2.6528 Y2.0313
N13525 X2.6555 Y2.0328
N13530 X2.6583 Y2.0352
N13535 X2.6615 Y2.0383
N13540 X2.6649 Y2.0423
N13545 X2.6688 Y2.0472
N13550 X2.6732 Y2.0531
N13555 X2.6782 Y2.0599
N13560 X2.6839 Y2.0676
N13565 X2.6904 Y2.0761
N13570 X2.6978 Y2.0854
N13575 X2.706 Y2.0956
N13580 X2.7153 Y2.1064
N13585 X2.7255 Y2.1179
N13590 X2.7367 Y2.13
N13595 X2.749 Y2.1427
N13600 X2.7623 Y2.1559
N13605 X2.7765 Y2.1695
N13610 X2.7917 Y2.1834
N13615 X2.8076 Y2.1976
N13620 X2.8243 Y2.212
N13625 X2.8416 Y2.2266
N13630 X2.8594 Y2.2412
N13635 X2.8964 Y2.2703
N13640 X2.9344 Y2.299
N13645 X2.9725 Y2.3267
N13650 X2.9915 Y2.3401
N13655 X3.0101 Y2.3532
N13660 X3.0284 Y2.3658
N13665 X3.0463 Y2.3779
N13670 X3.0636 Y2.3895
N13675 X3.0803 Y2.4005
N13680 X3.0963 Y2.4109
N13685 X3.1115 Y2.4207
N13690 X3.1259 Y2.4298
N13695 X3.1393 Y2.4383
N13700 X3.1519 Y2.4459
N13705 X3.1634 Y2.4529
N13710 X3.174 Y2.459
N13715 X3.1836 Y2.4644
N13720 X3.1921 Y2.4689
N13725 X3.1997 Y2.4725
N13730 X3.2062 Y2.4754
N13735 X3.2118 Y2.4773
N13740 X3.2165 Y2.4784
N13745 X3.2204 Y2.4786
N13750 X3.2236 Y2.4779
N13755 X3.2262 Y2.4763
N13760 X3.2283 Y2.4738
N13765 X3.2302 Y2.4704
N13770 X3.2318 Y2.4662
N13775 X3.2334 Y2.4611
N13780 X3.235 Y2.4551
N13785 X3.2367 Y2.4483
N13790 X3.2384 Y2.4407
N13795 X3.2403 Y2.4324
N13800 X3.2424 Y2.4233
N13805 X3.2445 Y2.4135
N13810 X3.2467 Y2.403
N13815 X3.249 Y2.3919
N13820 X3.2512 Y2.3801
N13825 X3.2532 Y2.3678
N13830 X3.2551 Y2.355
N13835 X3.2568 Y2.3418
N13840 X3.2581 Y2.328
N13845 X3.259 Y2.3139
N13850 X3.2595 Y2.2994
N13855 Y2.2846
N13860 X3.2588 Y2.2696
N13865 X3.2576 Y2.2542
N13870 X3.2558 Y2.2387
N13875 X3.2534 Y2.223
N13880 X3.2503 Y2.2071
N13885 X3.2467 Y2.1912
N13890 X3.2426 Y2.1751
N13895 X3.2381 Y2.1589
N13900 X3.2281 Y2.1264
N13905 X3.217 Y2.0938
N13910 X3.2052 Y2.0611
N13915 X3.1927 Y2.0283
N13920 X3.1796 Y1.9956
N13925 X3.1659 Y1.9629
N13930 X3.1514 Y1.9302
N13935 X3.1358 Y1.8976
N13940 X3.119 Y1.8649
N13945 X3.1101 Y1.8486
N13950 X3.1007 Y1.8322
N13955 X3.0909 Y1.8159
N13960 X3.0807 Y1.7996
N13965 X3.07 Y1.7832
N13970 X3.0587 Y1.7669
N13975 X3.0469 Y1.7506
N13980 X3.0346 Y1.7344
N13985 X3.0217 Y1.7181
N13990 X3.0082 Y1.7019
N13995 X2.9941 Y1.6858
N14000 X2.9794 Y1.6697
N14005 X2.9642 Y1.6538
N14010 X2.9484 Y1.6379
N14015 X2.932 Y1.6222
N14020 X2.9151 Y1.6066
N14025 X2.8978 Y1.5912
N14030 X2.88 Y1.5761
N14035 X2.8618 Y1.5612
N14040 X2.8433 Y1.5466
N14045 X2.8246 Y1.5323
N14050 X2.8058 Y1.5184
N14055 X2.7869 Y1.505
N14060 X2.768 Y1.4921
N14065 X2.7494 Y1.4796
N14070 X2.731 Y1.4678
N14075 X2.713 Y1.4566
N14080 X2.6956 Y1.446
N14085 X2.6787 Y1.436
N14090 X2.6626 Y1.4268
N14095 X2.6473 Y1.4183
N14100 X2.633 Y1.4105
N14105 X2.6196 Y1.4034
N14110 X2.6074 Y1.397
N14115 X2.5964 Y1.3914
N14120 X2.5866 Y1.3865
N14125 X2.5782 Y1.3823
N14130 X2.5712 Y1.3789
N14135 X2.5682 Y1.3774
N14140 X2.5656 Y1.3761
N14145 X2.5634 Y1.375
N14150 X2.5616 Y1.374
N14155 X2.5601 Y1.3732
N14160 X2.5591 Y1.3725
N14165 X2.5584 Y1.3721
N14170 X2.5581 Y1.3717
N14175 X2.5582 Y1.3715
N14180 X2.5587
N14185 X2.5596 Y1.3716
N14190 X2.5609 Y1.3719
N14195 X2.5626 Y1.3723
N14200 X2.5647 Y1.3728
N14205 X2.57 Y1.3742
N14210 X2.5767 Y1.3761
N14215 X2.5945 Y1.3812
N14220 X2.6054 Y1.3842
N14225 X2.6174 Y1.3876
N14230 X2.6305 Y1.3911
N14235 X2.6446 Y1.3948
N14240 X2.6594 Y1.3986
N14245 X2.675 Y1.4024
N14250 X2.691 Y1.4061
N14255 X2.7241 Y1.413
N14260 X2.7574 Y1.4187
N14265 X2.7737 Y1.421
N14270 X2.7896 Y1.4227
N14275 X2.805 Y1.4238
N14280 X2.8196 Y1.4243
N14285 X2.8334 Y1.4241
N14290 X2.8462 Y1.4231
N14295 X2.8579 Y1.4213
N14300 X2.8684 Y1.4188
N14305 X2.8732 Y1.4171
N14310 X2.8776 Y1.4153
N14315 X2.8816 Y1.4133
N14320 X2.8853 Y1.411
N14325 X2.8886 Y1.4085
N14330 X2.8915 Y1.4058
N14335 X2.8941 Y1.4029
N14340 X2.8962 Y1.3998
N14345 X2.898 Y1.3964
N14350 X2.8994 Y1.3929
N14355 X2.9003 Y1.3891
N14360 X2.9009 Y1.3852
N14365 X2.901 Y1.381
N14370 X2.9008 Y1.3767
N14375 X2.9001 Y1.3721
N14380 X2.8991 Y1.3674
N14385 X2.8977 Y1.3626
N14390 X2.8959 Y1.3576
N14395 X2.8911 Y1.3471
N14400 X2.885 Y1.3361
N14405 X2.8776 Y1.3247
N14410 X2.869 Y1.3129
N14415 X2.8593 Y1.3009
N14420 X2.8487 Y1.2888
N14425 X2.8373 Y1.2767
N14430 X2.8252 Y1.2646
N14435 X2.8126 Y1.2526
N14440 X2.7866 Y1.2295
N14445 X2.7736 Y1.2184
N14450 X2.7606 Y1.2078
N14455 X2.7481 Y1.1977
N14460 X2.736 Y1.1881
N14465 X2.7245 Y1.179
N14470 X2.7138 Y1.1706
N14475 X2.7041 Y1.1627
N14480 X2.6954 Y1.1554
N14485 X2.6879 Y1.1486
N14490 X2.6816 Y1.1422
N14495 X2.6767 Y1.1361
N14500 X2.6733 Y1.1302
N14505 X2.6714 Y1.1244
N14510 X2.671 Y1.1184
N14515 X2.6721 Y1.1123
N14520 X2.6748 Y1.1058
N14525 X2.6789 Y1.0988
N14530 X2.6843 Y1.0912
N14535 X2.6911 Y1.0831
N14540 X2.6989 Y1.0742
N14545 X2.7078 Y1.0647
N14550 X2.7174 Y1.0546
N14555 X2.7277 Y1.0438
N14560 X2.7384 Y1.0325
N14565 X2.7604 Y1.0085
N14570 X2.7712 Y0.996
N14575 X2.7816 Y0.9833
N14580 X2.7914 Y0.9705
N14585 X2.8005 Y0.9577
N14590 X2.8086 Y0.945
N14595 X2.8155 Y0.9326
N14600 X2.8211 Y0.9204
N14605 X2.8233 Y0.9145
N14610 X2.8252 Y0.9088
N14615 X2.8267 Y0.9031
N14620 X2.8278 Y0.8977
N14625 X2.8284 Y0.8924
N14630 X2.8286 Y0.8872
N14635 X2.8284 Y0.8823
N14640 X2.8278 Y0.8775
N14645 X2.8267 Y0.8729
N14650 X2.8251 Y0.8686
N14655 X2.8231 Y0.8644
N14660 X2.8207 Y0.8605
N14665 X2.8178 Y0.8568
N14670 X2.8145 Y0.8534
N14675 X2.8107 Y0.8501
N14680 X2.8066 Y0.8471
N14685 X2.802 Y0.8444
N14690 X2.7971 Y0.8419
N14695 X2.7917 Y0.8396
N14700 X2.786 Y0.8375
N14705 X2.7737 Y0.8341
N14710 X2.7601 Y0.8315
N14715 X2.7456 Y0.8298
N14720 X2.7304 Y0.8289
N14725 X2.7145 Y0.8286
N14730 X2.6983 Y0.829
N14735 X2.682 Y0.83
N14740 X2.6658 Y0.8314
N14745 X2.6498 Y0.8332
N14750 X2.6343 Y0.8353
N14755 X2.6194 Y0.8376
N14760 X2.6053 Y0.84
N14765 X2.592 Y0.8424
N14770 X2.5798 Y0.8447
N14775 X2.5686 Y0.8468
N14780 X2.5585 Y0.8487
N14785 X2.5495 Y0.8502
N14790 X2.5415 Y0.8513
N14795 X2.5345 Y0.8518
N14800 X2.5281 Y0.8519
N14805 X2.5222 Y0.8513
N14810 X2.5164 Y0.8502
N14815 X2.5106 Y0.8484
N14820 X2.5042 Y0.8459
N14825 X2.4972 Y0.8428
N14830 X2.4892 Y0.8391
N14835 X2.4698 Y0.8298
N14840 X2.4582 Y0.8244
N14845 X2.4454 Y0.8185
N14850 X2.4313 Y0.8121
N14855 X2.4161 Y0.8054
N14860 X2.3997 Y0.7984
N14865 X2.3824 Y0.7912
N14870 X2.3642 Y0.7839
N14875 X2.3454 Y0.7764
N14880 X2.326 Y0.769
N14885 X2.2866 Y0.7543
N14890 X2.2476 Y0.7404
N14895 X2.2288 Y0.7338
N14900 X2.2107 Y0.7276
N14905 X2.1935 Y0.7218
N14910 X2.1774 Y0.7164
N14915 X2.1625 Y0.7115
N14920 X2.149 Y0.707
N14925 X2.1428 Y0.7049
N14930 X2.137 Y0.7029
N14935 X2.1316 Y0.701
N14940 X2.1266 Y0.6992
N14945 X2.122 Y0.6976
N14950 X2.1178 Y0.696
N14955 X2.1141 Y0.6945
N14960 X2.1107 Y0.6931
N14965 X2.1078 Y0.6917
N14970 X2.1053 Y0.6904
N14975 X2.1014 Y0.688
N14980 X2.0991 Y0.6857
N14985 X2.0981 Y0.6834
N14990 X2.0984 Y0.681
N14995 X2.0998 Y0.6785
N15000 X2.1022 Y0.6756
N15005 X2.1056 Y0.6724
N15010 X2.1097 Y0.6687
N15015 X2.1202 Y0.6598
N15020 X2.1264 Y0.6544
N15025 X2.1331 Y0.6483
N15030 X2.1403 Y0.6415
N15035 X2.148 Y0.6339
N15040 X2.156 Y0.6254
N15045 X2.1644 Y0.616
N15050 X2.173 Y0.6057
N15055 X2.1819 Y0.5944
N15060 X2.1911 Y0.5821
N15065 X2.2004 Y0.5688
N15070 X2.2099 Y0.5545
N15075 X2.2196 Y0.539
N15080 X2.2295 Y0.5225
N15085 X2.2395 Y0.5049
N15090 X2.2496 Y0.4861
N15095 X2.2599 Y0.4663
N15100 X2.2703 Y0.4452
N15105 X2.2808 Y0.423
N15110 X2.2914 Y0.3997
N15115 X2.3021 Y0.3751
N15120 X2.3129 Y0.3494
N15125 X2.3239 Y0.3225
N15130 X2.3349 Y0.2945
N15135 X2.3461 Y0.2652
N15140 X2.3575 Y0.2348
N15145 X2.3689 Y0.2032
N15150 X2.3805 Y0.1704
N15155 Z0.2 F125.685
N15160 G0 Z0.6

N15165 M5
N15170 M9
N15175 G53 G0 Z0.
N15180 G53 G0 X-23.96 Y-3.37
N15185 M11
N15190 M13
N15195 G0 B0. C0.
N15200 M30

%
