%
O09876
(Using G0 which travels along dogleg path.)
(Machine)
(  vendor: Haas Automation)
(  model: UMC-500)
(T1 D=0.25 CR=0. TAPER=90deg - ZMIN=-0.01 - spot drill)
N10 G90 G94 G17
N15 G20
N20 M31
N25 G53 G0 Z0.

(Engrave2)
N30 T1 M6
N35 S10000 M3
N40 G17 G90 G94
N45 G54
N50 G53 G0 X-23.96 Y-3.37
N55 M11
N60 M13
N65 G0 B0. C0.
N70 M10
N75 M12
N80 M8
N85 G0 X0.8401 Y0.33
N90 G43 Z0.6 H1
N95 G0 Z0.2
N100 G1 Z0. F200.
N105 X0.8501 Y0.3399 Z-0.01 F600.
N110 X0.8547
N115 X0.8647 Y0.33 Z0.
N120 X0.8547 Y0.3399 Z-0.01
N125 Y0.4006
N130 G2 X0.8653 Y0.4106 I0.01 J0.
N135 G1 X0.865 Y0.4111
N140 X0.8596 Y0.4207
N145 X0.8592 Y0.4215
N150 X0.857 Y0.4264
N155 X0.8566 Y0.4274
N160 X0.855 Y0.4326
N165 X0.8547 Y0.4337
N170 X0.8536 Y0.439
N175 X0.8535 Y0.4398
N180 X0.8529 Y0.4452
N185 Y0.4459
N190 X0.8524 Y0.457
N195 Y0.4579
N200 X0.853 Y0.4693
N205 Y0.47
N210 X0.8537 Y0.4756
N215 X0.8539 Y0.4765
N220 X0.855 Y0.4819
N225 X0.8553 Y0.4831
N230 X0.8571 Y0.4883
N235 X0.8575 Y0.4893
N240 X0.8598 Y0.4944
N245 X0.8602 Y0.4952
N250 X0.8641 Y0.5021
N255 G2 X0.8525 Y0.512 I-0.0016 J0.0099
N260 G1 Y0.5209
N265 X0.8501
N270 Y0.3399
N275 Y0.5209
N280 X0.8525
N285 X0.8625 Y0.5308 Z0.
N290 X0.8525 Y0.5209 Z-0.01
N295 Y0.512
N300 G3 X0.8641 Y0.5021 I0.01 J0.
N305 G1 X0.8656 Y0.5032 Z-0.0093
N310 X0.8669 Y0.5045 Z-0.0087
N315 X0.8679 Y0.5054 Z-0.0085
N320 X0.8691 Y0.5067 Z-0.0084
N325 X0.8741 Y0.5122 Z-0.0088
N330 X0.8767 Y0.5147 Z-0.009
N335 X0.8785 Y0.5162
N340 X0.8818 Y0.5185 Z-0.0091
N345 X0.883 Y0.5192 Z-0.0092
N350 X0.885 Y0.5203 Z-0.0094
N355 X0.8878 Y0.5214
N360 X0.8896 Y0.5221 Z-0.0096
N365 X0.8926 Y0.523
N370 X0.8944 Y0.5234 Z-0.0097
N375 X0.9007 Y0.5243 Z-0.0096
N380 X0.9028 Y0.5244
N385 X0.9045 Z-0.0097
N390 X0.9114 Y0.5236 Z-0.01
N395 X0.9121 Y0.5235
N400 X0.919 Y0.5222
N405 X0.9256 Y0.5196
N410 X0.9319 Y0.5162
N415 X0.9374 Y0.5116
N420 X0.9424 Y0.5064
N425 X0.9463 Y0.5004
N430 X0.9497 Y0.4937
N435 X0.9525 Y0.4854
N440 X0.9547 Y0.4769
N445 X0.9557 Y0.4682
N450 X0.9562 Y0.4593
N455 X0.9557 Y0.4499
N460 X0.9545 Y0.4408
N465 X0.9522 Y0.4319
N470 X0.9491 Y0.4233
N475 X0.9453 Y0.4164
N480 X0.941 Y0.4102
N485 X0.9356 Y0.405
N490 X0.9296 Y0.4003
N495 X0.9232 Y0.397
N500 X0.9167 Y0.3944
N505 X0.9099 Y0.393
N510 X0.9027 Y0.3923
N515 X0.8982 Y0.3926
N520 X0.8938 Y0.3933
N525 X0.8925 Y0.3937
N530 X0.8909 Y0.3941 Z-0.0099
N535 X0.8895 Y0.3945 Z-0.0098
N540 X0.886 Y0.3957 Z-0.0096
N545 X0.8854 Y0.396
N550 X0.8813 Y0.3982 Z-0.0092
N555 X0.8771 Y0.4009 Z-0.009
N560 X0.8735 Y0.4041 Z-0.0088
N565 X0.8707 Y0.4069 Z-0.0087
N570 X0.8699 Y0.4076
N575 X0.8692 Y0.4082 Z-0.0088
N580 X0.8683 Y0.4088 Z-0.0089
N585 X0.8666 Y0.4098 Z-0.0094
N590 X0.8653 Y0.4106 Z-0.01
N595 X0.8666 Y0.4098 Z-0.0094
N600 X0.8683 Y0.4088 Z-0.0089
N605 X0.8692 Y0.4082 Z-0.0088
N610 X0.8699 Y0.4076 Z-0.0087
N615 X0.8707 Y0.4069
N620 X0.8735 Y0.4041 Z-0.0088
N625 X0.8771 Y0.4009 Z-0.009
N630 X0.8813 Y0.3982 Z-0.0092
N635 X0.8854 Y0.396 Z-0.0096
N640 X0.886 Y0.3957
N645 X0.8895 Y0.3945 Z-0.0098
N650 X0.8909 Y0.3941 Z-0.0099
N655 X0.8925 Y0.3937 Z-0.01
N660 X0.8998 Y0.3927
N665 X0.9013 Y0.3926
N670 X0.9027 Y0.3927
N675 X0.9108 Y0.3939
N680 X0.9119 Y0.3941
N685 X0.9157 Y0.3951
N690 X0.917 Y0.3955
N695 X0.9206 Y0.397
N700 X0.9221 Y0.3977
N705 X0.9254 Y0.3997
N710 X0.9265 Y0.4004
N715 X0.9296 Y0.4029
N720 X0.9303 Y0.4035
N725 X0.9363 Y0.4092
N730 X0.9373 Y0.4103
N735 X0.9381 Y0.4116
N740 X0.9437 Y0.4215
N745 X0.9441 Y0.4223
N750 X0.9464 Y0.4275
N755 X0.9467 Y0.4285
N760 X0.9484 Y0.4338
N765 X0.9487 Y0.4349
N770 X0.9498 Y0.4404
N775 X0.9499 Y0.4413
N780 X0.9505 Y0.4469
N785 X0.9506 Y0.4476
N790 X0.951 Y0.4591
N795 Y0.4599
N800 X0.9506 Y0.471
N805 X0.9505 Y0.4717
N810 X0.9499 Y0.4771
N815 X0.9498 Y0.478
N820 X0.9487 Y0.4833
N825 X0.9484 Y0.4844
N830 X0.9468 Y0.4895
N835 X0.9464 Y0.4905
N840 X0.9442 Y0.4955
N845 X0.9438 Y0.4963
N850 X0.9384 Y0.5059
N855 X0.9376 Y0.5071
N860 X0.9366 Y0.5082
N865 X0.9309 Y0.5138
N870 X0.9302 Y0.5145
N875 X0.9271 Y0.5169
N880 X0.9261 Y0.5176
N885 X0.9229 Y0.5197
N890 X0.9214 Y0.5204
N895 X0.9179 Y0.5219
N900 X0.9166 Y0.5223
N905 X0.9128 Y0.5233
N910 X0.9118 Y0.5235
N915 X0.9114 Y0.5236
N920 G0 Z0.2
N925 X0.8401 Y0.5308
N930 G1 Z0. F200.
N935 X0.8501 Y0.5209 Z-0.01 F600.
N940 G0 Z0.2
N945 X1.0121 Y0.3842
N950 G1 Z0. F200.
N955 X1.0221 Y0.3941 Z-0.01 F600.
N960 G0 Z0.2
N965 X1.0121 Y0.5847
N970 G1 Z0. F200.
N975 X1.0221 Y0.5747 Z-0.01 F600.
N980 Y0.3942
N985 X1.0267
N990 X1.0367 Y0.3842 Z0.
N995 X1.0267 Y0.3942 Z-0.01
N1000 Y0.4636
N1005 Y0.4639
N1010 X1.0269 Y0.4707
N1015 Y0.4714
N1020 X1.0275 Y0.4781
N1025 X1.0277 Y0.4793
N1030 X1.0291 Y0.486
N1035 X1.0293 Y0.4867
N1040 X1.0312 Y0.4933
N1045 X1.0321 Y0.4953
N1050 X1.0346 Y0.4999
N1055 X1.0353 Y0.5009
N1060 X1.0366 Y0.5027
N1065 G2 X1.0267 Y0.5127 I0.0001 J0.01
N1070 G1 Y0.5747
N1075 X1.0221
N1080 X1.0267
N1085 X1.0367 Y0.5847 Z0.
N1090 X1.0267 Y0.5747 Z-0.01
N1095 Y0.5127
N1100 G3 X1.0366 Y0.5027 I0.01 J0.
N1105 G1 X1.038 Y0.5035 Z-0.0093
N1110 X1.0393 Y0.5044 Z-0.0087
N1115 X1.0408 Y0.5055 Z-0.0084
N1120 X1.0423 Y0.5066 Z-0.0082
N1125 X1.0455 Y0.5095 Z-0.0083
N1130 X1.0508 Y0.5137 Z-0.0087
N1135 X1.0517 Y0.5143 Z-0.0089
N1140 X1.0562 Y0.517 Z-0.0094
N1145 X1.0611 Y0.5192 Z-0.0097
N1150 X1.0627 Y0.5197 Z-0.0098
N1155 X1.0647 Y0.5202 Z-0.0099
N1160 X1.0673 Y0.5208 Z-0.01
N1165 X1.0679 Y0.5209
N1170 X1.0689 Y0.521
N1175 X1.0743 Y0.5215
N1180 X1.0759
N1185 X1.0822 Y0.521
N1190 X1.0836 Y0.5208
N1195 X1.0896 Y0.5194
N1200 X1.0908 Y0.5191
N1205 X1.092 Y0.5186
N1210 X1.0974 Y0.5157
N1215 X1.0988 Y0.5149
N1220 X1.1038 Y0.5111
N1225 X1.1052 Y0.5098
N1230 X1.1063 Y0.5084
N1235 X1.1101 Y0.5022
N1240 X1.1106 Y0.5014
N1245 X1.1121 Y0.4982
N1250 X1.1126 Y0.4971
N1255 X1.1138 Y0.4938
N1260 X1.1142 Y0.4921
N1265 X1.1154 Y0.4851
N1270 X1.1155 Y0.4839
N1275 X1.1158 Y0.4767
N1280 Y0.4762
N1285 Y0.3942
N1290 X1.1058 Y0.3842 Z0.
N1295 X1.1158 Y0.3942 Z-0.01
N1300 X1.1204
N1305 X1.1304 Y0.3842 Z0.
N1310 X1.1204 Y0.3942 Z-0.01
N1315 Y0.4761
N1320 X1.1202 Y0.484
N1325 X1.1196 Y0.4913
N1330 X1.1181 Y0.4983
N1335 X1.1161 Y0.5047
N1340 X1.1138 Y0.5085
N1345 X1.1111 Y0.512
N1350 X1.1076 Y0.5149
N1355 X1.1036 Y0.5175
N1360 X1.0981 Y0.5197
N1365 X1.0924 Y0.5215
N1370 X1.0865 Y0.5223
N1375 X1.0806 Y0.5227
N1380 X1.0695 Y0.5213
N1385 X1.0673 Y0.5208
N1390 G0 Z0.2
N1395 X1.1897 Y0.4853
N1400 G1 Z-0.01 F200.
N1405 X1.1923 Y0.4913 F600.
N1410 X1.196 Y0.4971
N1415 X1.2049 Y0.5085
N1420 X1.2136 Y0.5144
N1425 X1.2182 Y0.5169
N1430 X1.2227 Y0.5188
N1435 X1.2274 Y0.5201
N1440 X1.2326 Y0.521
N1445 X1.2437 Y0.522
N1450 X1.256 Y0.5208
N1455 X1.2615 Y0.5197
N1460 X1.2666 Y0.5181
N1465 X1.2714 Y0.5158
N1470 X1.2761 Y0.5128
N1475 X1.2854 Y0.5055
N1480 X1.2928 Y0.4949
N1485 X1.2958 Y0.4895
N1490 X1.2981 Y0.4841
N1495 X1.2997 Y0.4783
N1500 X1.3007 Y0.472
N1505 X1.3017 Y0.458
N1510 X1.3014 Y0.4476
N1515 X1.3002 Y0.4373
N1520 X1.2992 Y0.4327
N1525 X1.2978 Y0.428
N1530 X1.2943 Y0.4186
N1535 X1.2904 Y0.4125
N1540 X1.2858 Y0.4068
N1545 X1.2802 Y0.4021
N1550 X1.2739 Y0.3979
N1555 X1.2668 Y0.3947
N1560 X1.2594 Y0.3922
N1565 X1.2517 Y0.3909
N1570 X1.2439 Y0.3903
N1575 X1.2314 Y0.3915
N1580 X1.2257 Y0.3926
N1585 X1.2206 Y0.3942
N1590 X1.2158 Y0.3965
N1595 X1.2111 Y0.3995
N1600 X1.2018 Y0.4067
N1605 X1.1944 Y0.4177
N1610 X1.1913 Y0.4234
N1615 X1.1891 Y0.4291
N1620 X1.1875 Y0.4352
N1625 X1.1866 Y0.4418
N1630 X1.1856 Y0.4562
N1635 X1.1867 Y0.4718
N1640 X1.1879 Y0.4788
N1645 X1.1897 Y0.4853
N1650 G0 Z0.2
N1655 X1.1945 Y0.4836
N1660 G1 Z-0.01 F200.
N1665 X1.1956 Y0.4866 F600.
N1670 X1.196 Y0.4877
N1675 X1.1984 Y0.4926
N1680 X1.1988 Y0.4934
N1685 X1.2045 Y0.503
N1690 X1.2054 Y0.5043
N1695 X1.2065 Y0.5054
N1700 X1.2131 Y0.5112
N1705 X1.2138 Y0.5118
N1710 X1.2173 Y0.5143
N1715 X1.2184 Y0.515
N1720 X1.222 Y0.517
N1725 X1.2235 Y0.5177
N1730 X1.2274 Y0.5191
N1735 X1.2286 Y0.5195
N1740 X1.2328 Y0.5204
N1745 X1.2338 Y0.5206
N1750 X1.2425 Y0.5216
N1755 X1.245
N1760 X1.2537 Y0.5205
N1765 X1.2547 Y0.5204
N1770 X1.2588 Y0.5194
N1775 X1.26 Y0.519
N1780 X1.264 Y0.5176
N1785 X1.2654 Y0.517
N1790 X1.269 Y0.5149
N1795 X1.2701 Y0.5143
N1800 X1.2735 Y0.5117
N1805 X1.2743 Y0.5111
N1810 X1.2808 Y0.5053
N1815 X1.2819 Y0.5042
N1820 X1.2827 Y0.503
N1825 X1.2884 Y0.4937
N1830 X1.2888 Y0.4929
N1835 X1.2912 Y0.488
N1840 X1.2916 Y0.487
N1845 X1.2934 Y0.4819
N1850 X1.2938 Y0.4808
N1855 X1.2949 Y0.4756
N1860 X1.2951 Y0.4746
N1865 X1.2958 Y0.4693
N1870 Y0.4685
N1875 X1.2964 Y0.4575
N1880 Y0.4566
N1885 X1.2959 Y0.4451
N1890 X1.2958 Y0.4444
N1895 X1.2952 Y0.4388
N1900 X1.295 Y0.438
N1905 X1.2939 Y0.4325
N1910 X1.2936 Y0.4314
N1915 X1.2918 Y0.4261
N1920 X1.2914 Y0.4251
N1925 X1.289 Y0.42
N1930 X1.2886 Y0.4192
N1935 X1.2829 Y0.4094
N1940 X1.282 Y0.4081
N1945 X1.2809 Y0.407
N1950 X1.2744 Y0.4012
N1955 X1.2736 Y0.4005
N1960 X1.2702 Y0.398
N1965 X1.2691 Y0.3973
N1970 X1.2654 Y0.3953
N1975 X1.264 Y0.3946
N1980 X1.2601 Y0.3932
N1985 X1.2589 Y0.3928
N1990 X1.2547 Y0.3919
N1995 X1.2537 Y0.3917
N2000 X1.245 Y0.3906
N2005 X1.2425
N2010 X1.2338 Y0.3917
N2015 X1.2328 Y0.3918
N2020 X1.2286 Y0.3928
N2025 X1.2274 Y0.3931
N2030 X1.2234 Y0.3946
N2035 X1.222 Y0.3952
N2040 X1.2183 Y0.3973
N2045 X1.2173 Y0.3979
N2050 X1.2138 Y0.4004
N2055 X1.213 Y0.4011
N2060 X1.2064 Y0.4069
N2065 X1.2054 Y0.408
N2070 X1.2045 Y0.4093
N2075 X1.1988 Y0.4189
N2080 X1.1984 Y0.4197
N2085 X1.196 Y0.4247
N2090 X1.1956 Y0.4257
N2095 X1.1938 Y0.4309
N2100 X1.1935 Y0.432
N2105 X1.1923 Y0.4374
N2110 X1.1922 Y0.4383
N2115 X1.1915 Y0.4438
N2120 Y0.4445
N2125 X1.1909 Y0.4557
N2130 Y0.4567
N2135 X1.1915 Y0.4679
N2140 Y0.4686
N2145 X1.1922 Y0.4741
N2150 X1.1923 Y0.475
N2155 X1.1935 Y0.4803
N2160 X1.1938 Y0.4815
N2165 X1.1945 Y0.4836
N2170 G0 Z0.2
N2175 X1.3406 Y0.5117
N2180 G1 Z0. F200.
N2185 X1.3502 Y0.5212 Z-0.0096 F600.
N2190 X1.3406 Y0.5308 Z0.
N2195 X1.3502 Y0.5212 Z-0.0096
N2200 X1.3598
N2205 X1.3616 Z-0.01
N2210 G2 X1.3687 Y0.5116 I-0.0029 J-0.0096
N2215 G1 Y0.4282
N2220 X1.369 Y0.4142
N2225 X1.3699 Y0.408
N2230 X1.3711 Y0.4027
N2235 X1.372 Y0.4012
N2240 X1.3733 Y0.3994
N2245 X1.375 Y0.398
N2250 X1.3768 Y0.3967
N2255 X1.3803 Y0.3953
N2260 X1.3841 Y0.3943
N2265 X1.3882 Y0.3938
N2270 X1.3927 Y0.3936
N2275 X1.4 Y0.3941
N2280 X1.4114 Y0.3858 Z0.
N2285 X1.4 Y0.3941 Z-0.01
N2290 X1.3995 Y0.3968
N2295 X1.4079 Y0.4075 Z0.
N2300 X1.3995 Y0.3968 Z-0.01
N2305 X1.398 Y0.3966
N2310 X1.3963
N2315 X1.392 Y0.397
N2320 X1.3907 Y0.3971
N2325 X1.3894 Y0.3975
N2330 X1.3853 Y0.399
N2335 X1.3838 Y0.3997
N2340 X1.3823 Y0.4006
N2345 X1.3798 Y0.4027
N2350 X1.3787 Y0.4038
N2355 X1.3777 Y0.4051
N2360 X1.376 Y0.4078
N2365 X1.3751 Y0.4095
N2370 X1.3746 Y0.4114
N2375 X1.3734 Y0.4181
N2380 X1.3733 Y0.4197
N2385 X1.3731 Y0.4265
N2390 Y0.4267
N2395 Y0.5116
N2400 G2 X1.3803 Y0.5212 I0.01 J0.
N2405 G1 X1.382 Z-0.0096
N2410 X1.3983
N2415 X1.4079 Y0.5117 Z0.
N2420 X1.3983 Y0.5212 Z-0.0096
N2425 X1.4079 Y0.5308 Z0.
N2430 X1.3983 Y0.5212 Z-0.0096
N2435 X1.382
N2440 X1.3803 Z-0.01
N2445 G2 X1.3731 Y0.5308 I0.0029 J0.0096
N2450 G1 Y0.5638
N2455 X1.3831 Y0.5815 Z0.
N2460 X1.3731 Y0.5638 Z-0.01
N2465 X1.3687 Y0.5611
N2470 X1.3587 Y0.5667 Z0.
N2475 X1.3687 Y0.5611 Z-0.01
N2480 Y0.5308
N2485 G2 X1.3616 Y0.5212 I-0.01 J0.
N2490 G0 Z0.2
N2495 X1.4629 Y0.4854
N2500 G1 Z-0.01 F200.
N2505 X1.4655 Y0.4914 F600.
N2510 X1.4692 Y0.4972
N2515 X1.4781 Y0.5087
N2520 X1.4868 Y0.5145
N2525 X1.4914 Y0.517
N2530 X1.4959 Y0.5189
N2535 X1.5006 Y0.5202
N2540 X1.5058 Y0.5211
N2545 X1.5169 Y0.5222
N2550 X1.5292 Y0.5209
N2555 X1.5348 Y0.5198
N2560 X1.5398 Y0.5182
N2565 X1.5446 Y0.5159
N2570 X1.5493 Y0.5129
N2575 X1.5586 Y0.5056
N2580 X1.566 Y0.4951
N2585 X1.569 Y0.4897
N2590 X1.5713 Y0.4842
N2595 X1.5729 Y0.4784
N2600 X1.5739 Y0.4721
N2605 X1.5749 Y0.4581
N2610 X1.5746 Y0.4477
N2615 X1.5734 Y0.4374
N2620 X1.5724 Y0.4328
N2625 X1.571 Y0.4281
N2630 X1.5675 Y0.4187
N2635 X1.5636 Y0.4126
N2640 X1.559 Y0.407
N2645 X1.5534 Y0.4023
N2650 X1.5471 Y0.3981
N2655 X1.54 Y0.3948
N2660 X1.5326 Y0.3923
N2665 X1.5249 Y0.391
N2670 X1.5171 Y0.3904
N2675 X1.5046 Y0.3916
N2680 X1.499 Y0.3927
N2685 X1.4938 Y0.3943
N2690 X1.489 Y0.3966
N2695 X1.4843 Y0.3996
N2700 X1.475 Y0.4069
N2705 X1.4676 Y0.4179
N2710 X1.4645 Y0.4235
N2715 X1.4623 Y0.4293
N2720 X1.4607 Y0.4354
N2725 X1.4598 Y0.442
N2730 X1.4588 Y0.4563
N2735 X1.4599 Y0.4719
N2740 X1.4611 Y0.479
N2745 X1.4629 Y0.4854
N2750 G0 Z0.2
N2755 X1.4677 Y0.4837
N2760 G1 Z-0.01 F200.
N2765 X1.4688 Y0.4867 F600.
N2770 X1.4692 Y0.4878
N2775 X1.4716 Y0.4927
N2780 X1.472 Y0.4936
N2785 X1.4777 Y0.5031
N2790 X1.4786 Y0.5044
N2795 X1.4797 Y0.5055
N2800 X1.4863 Y0.5113
N2805 X1.487 Y0.512
N2810 X1.4905 Y0.5145
N2815 X1.4916 Y0.5151
N2820 X1.4953 Y0.5172
N2825 X1.4967 Y0.5178
N2830 X1.5006 Y0.5192
N2835 X1.5018 Y0.5196
N2840 X1.506 Y0.5205
N2845 X1.507 Y0.5207
N2850 X1.5157 Y0.5218
N2855 X1.5182
N2860 X1.5269 Y0.5206
N2865 X1.5279 Y0.5205
N2870 X1.532 Y0.5195
N2875 X1.5332 Y0.5192
N2880 X1.5372 Y0.5177
N2885 X1.5386 Y0.5171
N2890 X1.5422 Y0.515
N2895 X1.5433 Y0.5144
N2900 X1.5467 Y0.5119
N2905 X1.5475 Y0.5112
N2910 X1.554 Y0.5054
N2915 X1.5551 Y0.5043
N2920 X1.5559 Y0.5031
N2925 X1.5616 Y0.4938
N2930 X1.562 Y0.493
N2935 X1.5644 Y0.4881
N2940 X1.5648 Y0.4871
N2945 X1.5666 Y0.4821
N2950 X1.567 Y0.4809
N2955 X1.5681 Y0.4757
N2960 X1.5683 Y0.4748
N2965 X1.569 Y0.4694
N2970 Y0.4687
N2975 X1.5696 Y0.4576
N2980 Y0.4567
N2985 X1.5691 Y0.4453
N2990 X1.569 Y0.4445
N2995 X1.5684 Y0.439
N3000 X1.5682 Y0.4381
N3005 X1.5671 Y0.4326
N3010 X1.5668 Y0.4315
N3015 X1.565 Y0.4263
N3020 X1.5646 Y0.4252
N3025 X1.5622 Y0.4202
N3030 X1.5618 Y0.4193
N3035 X1.5561 Y0.4095
N3040 X1.5552 Y0.4083
N3045 X1.5541 Y0.4071
N3050 X1.5476 Y0.4013
N3055 X1.5468 Y0.4007
N3060 X1.5434 Y0.3981
N3065 X1.5423 Y0.3974
N3070 X1.5386 Y0.3954
N3075 X1.5372 Y0.3948
N3080 X1.5333 Y0.3933
N3085 X1.5321 Y0.3929
N3090 X1.5279 Y0.392
N3095 X1.5269 Y0.3918
N3100 X1.5182 Y0.3907
N3105 X1.5157
N3110 X1.507 Y0.3918
N3115 X1.506 Y0.392
N3120 X1.5018 Y0.3929
N3125 X1.5006 Y0.3933
N3130 X1.4966 Y0.3947
N3135 X1.4952 Y0.3953
N3140 X1.4915 Y0.3974
N3145 X1.4905 Y0.3981
N3150 X1.487 Y0.4006
N3155 X1.4862 Y0.4012
N3160 X1.4797 Y0.407
N3165 X1.4786 Y0.4082
N3170 X1.4777 Y0.4094
N3175 X1.472 Y0.419
N3180 X1.4716 Y0.4198
N3185 X1.4692 Y0.4248
N3190 X1.4688 Y0.4258
N3195 X1.467 Y0.431
N3200 X1.4667 Y0.4322
N3205 X1.4655 Y0.4375
N3210 X1.4654 Y0.4384
N3215 X1.4647 Y0.4439
N3220 Y0.4446
N3225 X1.4641 Y0.4558
N3230 Y0.4568
N3235 X1.4647 Y0.468
N3240 Y0.4687
N3245 X1.4654 Y0.4742
N3250 X1.4655 Y0.4751
N3255 X1.4667 Y0.4804
N3260 X1.467 Y0.4816
N3265 X1.4677 Y0.4837
N3270 G0 Z0.2
N3275 X1.6548 Y0.4484
N3280 G1 Z-0.01 F200.
N3285 X1.6559 Y0.4464 F600.
N3290 X1.6573 Y0.4473
N3295 X1.6559 Y0.4464
N3300 X1.6553 Y0.4447 Z-0.0089
N3305 X1.6545 Y0.4431 Z-0.0079
N3310 X1.6537 Y0.4417 Z-0.0072
N3315 X1.6532 Y0.441 Z-0.0069
N3320 X1.6522 Y0.4397 Z-0.0065
N3325 X1.6512 Y0.4385 Z-0.0062
N3330 X1.6482 Y0.4359 Z-0.0065
N3335 X1.6451 Y0.4328 Z-0.0073
N3340 X1.6442 Y0.4317 Z-0.0077
N3345 X1.6425 Y0.4291 Z-0.0083
N3350 X1.6404 Y0.4253 Z-0.0093
N3355 X1.6396 Y0.4233 Z-0.0096
N3360 X1.6389 Y0.4211 Z-0.0098
N3365 X1.6388 Y0.42
N3370 X1.6387 Y0.4189 Z-0.01
N3375 Y0.4187
N3380 Y0.4184
N3385 X1.6391 Y0.4156
N3390 X1.6395 Y0.4138
N3395 X1.6404 Y0.4112
N3400 X1.6411 Y0.4096
N3405 X1.6421 Y0.4082
N3410 X1.643 Y0.407
N3415 X1.6405 Y0.4097
N3420 X1.6397 Y0.4112
N3425 X1.6391 Y0.4125
N3430 X1.6385 Y0.4167
N3435 X1.6387 Y0.4187
N3440 X1.6385 Y0.4167
N3445 X1.6391 Y0.4125
N3450 X1.6397 Y0.4112
N3455 X1.6405 Y0.4097
N3460 X1.643 Y0.407
N3465 X1.6431 Y0.4069
N3470 X1.6446 Y0.4056 Z-0.0097
N3475 X1.647 Y0.4038 Z-0.0095
N3480 X1.6478 Y0.4032 Z-0.0094
N3485 X1.6494 Y0.4019 Z-0.0097
N3490 X1.6504 Y0.4011 Z-0.01
N3495 X1.6514 Y0.3989
N3500 X1.6519 Y0.3965
N3505 X1.6547 Y0.3971
N3510 X1.6559 Y0.3972
N3515 X1.6624 Y0.3976
N3520 X1.663
N3525 X1.6901
N3530 X1.6902
N3535 X1.6975
N3540 X1.6982 Y0.3975
N3545 X1.7054 Y0.3969
N3550 X1.7068 Y0.3967
N3555 X1.7138 Y0.3951
N3560 X1.7149 Y0.3948
N3565 X1.7217 Y0.3923
N3570 X1.7237 Y0.3914
N3575 X1.7254 Y0.39
N3580 X1.7289 Y0.3866
N3585 X1.7302 Y0.385
N3590 X1.7327 Y0.3811
N3595 X1.7335 Y0.3796
N3600 X1.7341 Y0.3781
N3605 X1.7352 Y0.3735
N3610 X1.7355 Y0.3718
N3615 X1.7358 Y0.3669
N3620 X1.7357 Y0.3645
N3625 X1.7345 Y0.3575
N3630 X1.7343 Y0.3563
N3635 X1.7333 Y0.353
N3640 X1.7327 Y0.3515
N3645 X1.7312 Y0.3485
N3650 X1.7303 Y0.3469
N3655 X1.7287 Y0.3448
N3660 X1.7288 Y0.3449
N3665 X1.7316 Y0.348
N3670 X1.7335 Y0.3511
N3675 X1.7349 Y0.3545
N3680 X1.736 Y0.3586
N3685 X1.7372 Y0.3682
N3690 X1.7365 Y0.3751
N3695 X1.7359 Y0.378
N3700 X1.7351 Y0.3804
N3705 X1.734 Y0.3826
N3710 X1.7323 Y0.3849
N3715 X1.7281 Y0.3895
N3720 X1.7213 Y0.3932
N3725 X1.7177 Y0.3948
N3730 X1.7142 Y0.3959
N3735 X1.7104 Y0.3967
N3740 X1.7063 Y0.3972
N3745 X1.6971 Y0.3976
N3750 X1.6709
N3755 X1.6704
N3760 X1.6616 Y0.3981
N3765 X1.6598 Y0.3983
N3770 X1.6555 Y0.3994
N3775 X1.6544 Y0.3997
N3780 X1.6504 Y0.4011
N3785 X1.6544 Y0.3997
N3790 X1.6555 Y0.3994
N3795 X1.6598 Y0.3983
N3800 X1.6616 Y0.3981
N3805 X1.6704 Y0.3976
N3810 X1.6709
N3815 X1.6971
N3820 X1.7063 Y0.3972
N3825 X1.7104 Y0.3967
N3830 X1.7142 Y0.3959
N3835 X1.7177 Y0.3948
N3840 X1.7213 Y0.3932
N3845 X1.7281 Y0.3895
N3850 X1.7323 Y0.3849
N3855 X1.734 Y0.3826
N3860 X1.7351 Y0.3804
N3865 X1.7359 Y0.378
N3870 X1.7365 Y0.3751
N3875 X1.7372 Y0.3682
N3880 X1.736 Y0.3586
N3885 X1.7349 Y0.3545
N3890 X1.7335 Y0.3511
N3895 X1.7316 Y0.348
N3900 X1.7288 Y0.3449
N3905 X1.7287 Y0.3448
N3910 X1.7272 Y0.3432 Z-0.0098
N3915 X1.7239 Y0.34 Z-0.0097
N3920 X1.722 Y0.3385 Z-0.0098
N3925 X1.7169 Y0.3355 Z-0.0091
N3930 X1.7156 Y0.3348
N3935 X1.7103 Y0.3325 Z-0.0092
N3940 X1.704 Y0.3302 Z-0.0091
N3945 X1.6977 Y0.3284 Z-0.009
N3950 X1.6927 Y0.3274 Z-0.0088
N3955 X1.6911 Y0.3272 Z-0.0089
N3960 X1.6819 Y0.3263 Z-0.0087
N3965 X1.6811
N3970 X1.6697 Y0.326 Z-0.0088
N3975 X1.6613 Y0.3263
N3980 X1.6585 Y0.3265 Z-0.0089
N3985 X1.6523 Y0.3273 Z-0.009
N3990 X1.6484 Y0.3282 Z-0.0092
N3995 X1.6438 Y0.3296
N4000 X1.6391 Y0.3315 Z-0.0093
N4005 X1.6366 Y0.3327 Z-0.0092
N4010 X1.6356 Y0.3332
N4015 X1.6346 Y0.3338 Z-0.0094
N4020 X1.6305 Y0.3364 Z-0.01
N4025 X1.6291 Y0.3377
N4030 X1.6279 Y0.3388
N4035 X1.6272 Y0.3396
N4040 X1.6262 Y0.3408
N4045 X1.6247 Y0.343
N4050 X1.6238 Y0.3447
N4055 X1.6227 Y0.3471
N4060 X1.6222 Y0.3485
N4065 X1.6215 Y0.3511
N4070 X1.6213 Y0.3523
N4075 X1.6205 Y0.3579
N4080 X1.6204 Y0.3602
N4085 X1.6209 Y0.3661
N4090 X1.6212 Y0.3676
N4095 X1.622 Y0.3709
N4100 X1.6206 Y0.368
N4105 X1.6195 Y0.3637
N4110 X1.619 Y0.3591
N4115 X1.62 Y0.3517
N4120 X1.6208 Y0.3486
N4125 X1.6218 Y0.346
N4130 X1.6232 Y0.3437
N4135 X1.6253 Y0.3413
N4140 X1.6279 Y0.3388
N4145 X1.6253 Y0.3413
N4150 X1.6232 Y0.3437
N4155 X1.6218 Y0.346
N4160 X1.6208 Y0.3486
N4165 X1.62 Y0.3517
N4170 X1.619 Y0.3591
N4175 X1.6195 Y0.3637
N4180 X1.6206 Y0.368
N4185 X1.622 Y0.3709
N4190 X1.6224 Y0.372 Z-0.0099
N4195 X1.6235 Y0.3743 Z-0.0095
N4200 X1.6246 Y0.3762 Z-0.0093
N4205 X1.6282 Y0.3805 Z-0.0084
N4210 X1.6288 Y0.3811 Z-0.0083
N4215 X1.6324 Y0.3843 Z-0.0076
N4220 X1.6343 Y0.3857 Z-0.0071
N4225 X1.6353 Y0.3863 Z-0.007
N4230 X1.6374 Y0.3873 Z-0.0068
N4235 X1.6421 Y0.3893 Z-0.0062
N4240 X1.6443 Y0.3902 Z-0.0061
N4245 X1.6452 Y0.3906
N4250 X1.6461 Y0.3911 Z-0.0063
N4255 X1.6469 Y0.3917 Z-0.0064
N4260 X1.6477 Y0.3923 Z-0.0067
N4265 X1.649 Y0.3934 Z-0.0074
N4270 X1.6505 Y0.3948 Z-0.0086
N4275 X1.6519 Y0.3965 Z-0.01
N4280 G0 Z0.2
N4285 X1.7496 Y0.5192
N4290 G1 Z0. F200.
N4295 X1.742 Y0.5259 Z-0.0076 F600.
N4300 X1.7496 Y0.5335 Z0.
N4305 X1.742 Y0.5259 Z-0.0076
N4310 X1.72 Y0.5246 Z-0.0089
N4315 X1.7182 Y0.5243 Z-0.0092
N4320 X1.7163 Y0.5238 Z-0.0097
N4325 X1.7154 Y0.5235 Z-0.01
N4330 X1.7009
N4335 X1.7012 Y0.5234
N4340 X1.7038 Y0.5218
N4345 X1.7051 Y0.5209
N4350 X1.7074 Y0.5189
N4355 X1.7086 Y0.5177
N4360 X1.7105 Y0.5154
N4365 X1.7115 Y0.5141
N4370 X1.713 Y0.5114
N4375 G2 X1.7154 Y0.5235 I0.0089 J0.0045
N4380 G3 X1.713 Y0.5114 I0.0065 J-0.0076
N4385 G1 X1.7133 Y0.5109
N4390 X1.7136 Y0.5105
N4395 X1.7171 Y0.5051
N4400 X1.7194 Y0.5
N4405 X1.7213 Y0.4932
N4410 X1.7218 Y0.4862
N4415 X1.7209 Y0.4777
N4420 X1.7202 Y0.474
N4425 X1.7191 Y0.4708
N4430 X1.7175 Y0.4678
N4435 X1.7154 Y0.4648
N4440 X1.7134 Y0.4624
N4445 X1.7136 Y0.4629
N4450 X1.7159 Y0.4688
N4455 X1.7163 Y0.4702
N4460 X1.7179 Y0.4768
N4465 X1.718 Y0.4774
N4470 X1.7191 Y0.4845
N4475 X1.7193 Y0.486
N4480 X1.7191 Y0.4876
N4485 X1.718 Y0.4949
N4490 X1.7179 Y0.4955
N4495 X1.7164 Y0.5024
N4500 X1.716 Y0.5038
N4505 X1.7138 Y0.5099
N4510 X1.7133 Y0.5109
N4515 X1.7138 Y0.5099
N4520 X1.716 Y0.5038
N4525 X1.7164 Y0.5024
N4530 X1.7179 Y0.4955
N4535 X1.718 Y0.4949
N4540 X1.7191 Y0.4876
N4545 X1.7193 Y0.486
N4550 X1.7191 Y0.4845
N4555 X1.718 Y0.4774
N4560 X1.7179 Y0.4768
N4565 X1.7163 Y0.4702
N4570 X1.7159 Y0.4688
N4575 X1.7136 Y0.4629
N4580 X1.7134 Y0.4624
N4585 X1.7127 Y0.4613 Z-0.0099
N4590 X1.7105 Y0.4584 Z-0.0096
N4595 X1.7076 Y0.4559 Z-0.009
N4600 X1.7064 Y0.4549 Z-0.0088
N4605 X1.7029 Y0.4525 Z-0.0086
N4610 X1.6989 Y0.4505
N4615 X1.6949 Y0.449
N4620 X1.6917 Y0.4481 Z-0.0084
N4625 X1.6906 Y0.4478 Z-0.0085
N4630 X1.6845 Y0.4468 Z-0.0082
N4635 X1.6767 Y0.446 Z-0.0079
N4640 X1.6755 Z-0.008
N4645 X1.6685 Y0.4465
N4650 X1.6641 Y0.4472 Z-0.0081
N4655 X1.6628 Y0.4473 Z-0.0082
N4660 X1.6607 Y0.4474 Z-0.0086
N4665 X1.6594 Z-0.0091
N4670 X1.6573 Y0.4473 Z-0.01
N4675 X1.6548 Y0.4484
N4680 X1.654 Y0.449 Z-0.0097
N4685 X1.6521 Y0.4504 Z-0.0094
N4690 X1.6463 Y0.4539 Z-0.0097
N4695 X1.6448 Y0.455 Z-0.0098
N4700 X1.6434 Y0.4563 Z-0.01
N4705 X1.6397 Y0.4611
N4710 X1.6391 Y0.462
N4715 X1.6374 Y0.4647
N4720 X1.6368 Y0.4659
N4725 X1.6355 Y0.4688
N4730 X1.6349 Y0.4707
N4735 X1.6335 Y0.4769
N4740 X1.6333 Y0.4784
N4745 X1.6328 Y0.485
N4750 Y0.4863
N4755 X1.6332 Y0.4933
N4760 X1.6334 Y0.4946
N4765 X1.6347 Y0.5013
N4770 X1.6352 Y0.5031
N4775 X1.6365 Y0.5062
N4780 X1.637 Y0.5073
N4785 X1.6386 Y0.5103
N4790 X1.6392 Y0.5111
N4795 X1.6424 Y0.5159
N4800 X1.6446 Y0.5178 Z-0.0095
N4805 X1.6459 Y0.5188 Z-0.0094
N4810 X1.6491 Y0.521 Z-0.0093
N4815 X1.6531 Y0.5233 Z-0.009
N4820 X1.6563 Y0.5248 Z-0.0088
N4825 X1.6571 Y0.5251
N4830 X1.6607 Y0.5262 Z-0.0085
N4835 X1.6615 Y0.5264
N4840 X1.6674 Y0.5274 Z-0.0083
N4845 X1.6685 Y0.5275 Z-0.0082
N4850 X1.6768 Y0.528 Z-0.0083
N4855 X1.6844 Y0.5271 Z-0.0086
N4860 X1.6863 Y0.5269 Z-0.0088
N4865 X1.6931 Y0.5254 Z-0.0089
N4870 X1.6969 Y0.5243 Z-0.0092
N4875 X1.6995 Y0.5238 Z-0.0097
N4880 X1.7009 Y0.5235 Z-0.01
N4885 X1.6995 Y0.5238 Z-0.0097
N4890 X1.6969 Y0.5243 Z-0.0092
N4895 X1.6931 Y0.5254 Z-0.0089
N4900 X1.6863 Y0.5269 Z-0.0088
N4905 X1.6844 Y0.5271 Z-0.0086
N4910 X1.6768 Y0.528 Z-0.0083
N4915 X1.6685 Y0.5275 Z-0.0082
N4920 X1.6674 Y0.5274 Z-0.0083
N4925 X1.6615 Y0.5264 Z-0.0085
N4930 X1.6607 Y0.5262
N4935 X1.6571 Y0.5251 Z-0.0088
N4940 X1.6563 Y0.5248
N4945 X1.6531 Y0.5233 Z-0.009
N4950 X1.6491 Y0.521 Z-0.0093
N4955 X1.6459 Y0.5188 Z-0.0094
N4960 X1.6446 Y0.5178 Z-0.0095
N4965 X1.6424 Y0.5159 Z-0.01
N4970 X1.6417 Y0.5154
N4975 X1.6365 Y0.5089
N4980 X1.6343 Y0.5055
N4985 X1.6328 Y0.5022
N4990 X1.6317 Y0.4985
N4995 X1.631 Y0.4944
N5000 X1.6302 Y0.4851
N5005 X1.6306 Y0.4795
N5010 X1.6316 Y0.4742
N5015 X1.6335 Y0.4692
N5020 X1.636 Y0.4644
N5025 X1.639 Y0.4604
N5030 X1.6423 Y0.457
N5035 X1.6434 Y0.4563
N5040 G0 Z0.2
N5045 X1.7945 Y0.3803
N5050 G1 Z0. F200.
N5055 X1.8045 Y0.3902 Z-0.01 F600.
N5060 X1.8091
N5065 X1.8191 Y0.3803 Z0.
N5070 X1.8091 Y0.3902 Z-0.01
N5075 Y0.4563
N5080 Y0.4567
N5085 X1.8094 Y0.464
N5090 X1.8095 Y0.4645
N5095 X1.8101 Y0.4717
N5100 X1.8103 Y0.4727
N5105 X1.8116 Y0.4798
N5110 X1.8118 Y0.4804
N5115 X1.8135 Y0.4874
N5120 X1.814 Y0.4888
N5125 X1.8155 Y0.4926
N5130 X1.8159 Y0.4935
N5135 G2 X1.8067 Y0.5035 I0.0007 J0.01
N5140 G1 Y0.5155
N5145 X1.8045
N5150 Y0.3902
N5155 Y0.5155
N5160 X1.7945 Y0.5255 Z0.
N5165 X1.8045 Y0.5155 Z-0.01
N5170 X1.8067
N5175 X1.8166 Y0.5255 Z0.
N5180 X1.8067 Y0.5155 Z-0.01
N5185 Y0.5035
N5190 G3 X1.8159 Y0.4935 I0.01 J0.
N5195 G1 X1.8161 Y0.4936 Z-0.0099
N5200 X1.8181 Y0.4948 Z-0.0087
N5205 X1.819 Y0.4955 Z-0.0083
N5210 X1.8198 Y0.4962 Z-0.0079
N5215 X1.821 Y0.4973 Z-0.0075
N5220 X1.8217 Y0.498 Z-0.0074
N5225 X1.8224 Y0.4987
N5230 X1.8232 Y0.4998 Z-0.0075
N5235 X1.8241 Y0.5012 Z-0.0076
N5240 X1.827 Y0.5048 Z-0.0083
N5245 X1.8308 Y0.5086 Z-0.0094
N5250 X1.833 Y0.5102 Z-0.01
N5255 X1.8349 Y0.5125
N5260 X1.8383 Y0.5157
N5265 X1.8404 Y0.5169
N5270 X1.8428 Y0.5179
N5275 X1.8454 Y0.5185
N5280 X1.848 Y0.5187
N5285 X1.8532 Y0.5181
N5290 X1.8583 Y0.517
N5295 X1.8609 Y0.5159
N5300 X1.8643 Y0.5174 Z-0.0073
N5305 X1.8734 Y0.5208 Z0.
N5310 X1.8643 Y0.5174 Z-0.0073
N5315 X1.8609 Y0.5159 Z-0.01
N5320 X1.8593 Y0.5114
N5325 X1.8624 Y0.5045 Z-0.0047
N5330 X1.8649 Y0.498 Z0.
N5335 X1.8624 Y0.5045 Z-0.0047
N5340 X1.8593 Y0.5114 Z-0.01
N5345 X1.8583 Y0.5117
N5350 X1.8537 Y0.5126
N5355 X1.8527 Y0.5128
N5360 X1.8479 Y0.5133
N5365 X1.8459
N5370 X1.842 Y0.5129
N5375 X1.8408 Y0.5127
N5380 X1.8371 Y0.5119
N5385 X1.8351 Y0.5112
N5390 X1.833 Y0.5102
N5395 G0 Z0.2
N5400 X1.897 Y0.4904
N5405 G1 Z0. F200.
N5410 X1.9044 Y0.4953 Z-0.0059 F600.
N5415 X1.9099 Y0.4987 Z-0.01
N5420 X1.9101 Y0.4995
N5425 X1.9127 Y0.5045
N5430 X1.9156 Y0.509
N5435 X1.9192 Y0.5126
N5440 X1.9232 Y0.5158
N5445 X1.9278 Y0.5183
N5450 X1.9329 Y0.5205
N5455 X1.94 Y0.5225
N5460 X1.9417 Y0.5229
N5465 X1.9362 Y0.5211
N5470 X1.935 Y0.5206
N5475 X1.9289 Y0.5176
N5480 X1.9274 Y0.5167
N5485 X1.926 Y0.5155
N5490 X1.9217 Y0.5109
N5495 X1.9208 Y0.5098
N5500 X1.9172 Y0.5047
N5505 X1.9162 Y0.5029
N5510 X1.9141 Y0.4981
N5515 X1.9157 Y0.4954 Z-0.0075
N5520 X1.921 Y0.4871 Z0.
N5525 X1.9157 Y0.4954 Z-0.0075
N5530 X1.9141 Y0.4981 Z-0.01
N5535 X1.9099 Y0.4987
N5540 X1.9141 Y0.4981
N5545 X1.9162 Y0.5029
N5550 X1.9172 Y0.5047
N5555 X1.9208 Y0.5098
N5560 X1.9217 Y0.5109
N5565 X1.926 Y0.5155
N5570 X1.9274 Y0.5167
N5575 X1.9289 Y0.5176
N5580 X1.935 Y0.5206
N5585 X1.9362 Y0.5211
N5590 X1.9417 Y0.5229
N5595 X1.9436 Y0.5234 Z-0.0099
N5600 X1.9459 Y0.5238 Z-0.01
N5605 X1.9507 Y0.5244
N5610 X1.9473 Y0.5241
N5615 X1.9459 Y0.5238
N5620 X1.9473 Y0.5241
N5625 X1.9517 Y0.5245
N5630 X1.9519
N5635 X1.9586 Y0.5247
N5640 X1.9594
N5645 X1.967 Y0.5243
N5650 X1.9682 Y0.5242
N5655 X1.9754 Y0.523
N5660 X1.9771 Y0.5225
N5665 X1.9805 Y0.5213
N5670 X1.9816 Y0.5209
N5675 X1.9849 Y0.5193
N5680 X1.9857 Y0.5188
N5685 X1.9921 Y0.5149
N5690 X1.9938 Y0.5137
N5695 X1.9951 Y0.5122
N5700 X1.9985 Y0.5074
N5705 X1.9994 Y0.5059
N5710 X2.0017 Y0.5008
N5715 X2.0022 Y0.4996
N5720 X2.0025 Y0.4984
N5725 X2.0035 Y0.4928
N5730 X2.0037 Y0.4915
N5735 X2.0039 Y0.4856
N5740 Y0.485
N5745 X2.0038 Y0.4785
N5750 G2 X1.9965 Y0.4691 I-0.01 J0.0002
N5755 G1 X1.9947 Y0.469 Z-0.0096
N5760 X1.993 Y0.4688 Z-0.0094
N5765 X1.9914 Y0.4685 Z-0.0093
N5770 X1.9854 Y0.4667 Z-0.0095
N5775 X1.9812 Y0.4656 Z-0.0096
N5780 X1.9742 Y0.4639 Z-0.0098
N5785 X1.9735 Y0.4637
N5790 X1.9665 Y0.4625 Z-0.01
N5795 X1.9519 Y0.46
N5800 X1.941 Y0.4582
N5805 X1.9399 Y0.4579
N5810 X1.9293 Y0.4548
N5815 X1.9281 Y0.4544
N5820 X1.927 Y0.4538
N5825 X1.9215 Y0.4505
N5830 X1.9203 Y0.4497
N5835 X1.9192 Y0.4487
N5840 X1.915 Y0.4439
N5845 X1.9141 Y0.4427
N5850 X1.9133 Y0.4414
N5855 X1.9108 Y0.4358
N5860 X1.9102 Y0.4345
N5865 X1.9099 Y0.433
N5870 X1.9091 Y0.4269
N5875 X1.909 Y0.4256
N5880 X1.9091 Y0.4243
N5885 X1.9097 Y0.4196
N5890 X1.91 Y0.418
N5895 X1.9113 Y0.4137
N5900 X1.9118 Y0.4124
N5905 X1.9124 Y0.4111
N5910 X1.9149 Y0.4073
N5915 X1.9158 Y0.406
N5920 X1.919 Y0.4025
N5925 X1.92 Y0.4015
N5930 X1.9212 Y0.4006
N5935 X1.9262 Y0.3976
N5940 X1.9276 Y0.3969
N5945 X1.9328 Y0.3947
N5950 X1.935 Y0.394
N5955 X1.9374 Y0.3936
N5960 X1.9334 Y0.3938
N5965 X1.9294 Y0.3944
N5970 X1.9258 Y0.3953
N5975 X1.9224 Y0.3965
N5980 X1.919 Y0.3983
N5985 X1.9122 Y0.4026
N5990 X1.908 Y0.4075
N5995 X1.9063 Y0.41
N6000 X1.9051 Y0.4124
N6005 X1.9042 Y0.415
N6010 X1.9036 Y0.418
N6015 X1.9028 Y0.4251
N6020 X1.903 Y0.4288
N6025 X1.9036 Y0.4325
N6030 X1.9048 Y0.4361
N6035 X1.9064 Y0.4396
N6040 X1.9084 Y0.4427
N6045 X1.9106 Y0.4455
N6050 X1.9131 Y0.448
N6055 X1.9159 Y0.4502
N6060 X1.923 Y0.4541
N6065 X1.9307 Y0.4569
N6070 X1.9406 Y0.4589
N6075 X1.9513 Y0.4604
N6080 X1.9665 Y0.4625
N6085 X1.9513 Y0.4604
N6090 X1.9406 Y0.4589
N6095 X1.9307 Y0.4569
N6100 X1.923 Y0.4541
N6105 X1.9159 Y0.4502
N6110 X1.9131 Y0.448
N6115 X1.9106 Y0.4455
N6120 X1.9084 Y0.4427
N6125 X1.9064 Y0.4396
N6130 X1.9048 Y0.4361
N6135 X1.9036 Y0.4325
N6140 X1.903 Y0.4288
N6145 X1.9028 Y0.4251
N6150 X1.9036 Y0.418
N6155 X1.9042 Y0.415
N6160 X1.9051 Y0.4124
N6165 X1.9063 Y0.41
N6170 X1.908 Y0.4075
N6175 X1.9122 Y0.4026
N6180 X1.919 Y0.3983
N6185 X1.9224 Y0.3965
N6190 X1.9258 Y0.3953
N6195 X1.9294 Y0.3944
N6200 X1.9334 Y0.3938
N6205 X1.9374 Y0.3936
N6210 X1.9407 Y0.3932 Z-0.0098
N6215 X1.9418 Y0.3931
N6220 X1.9478 Z-0.0095
N6225 X1.9546 Y0.3936 Z-0.0093
N6230 X1.9605 Y0.3947 Z-0.009
N6235 X1.9627 Y0.3953 Z-0.0089
N6240 X1.9663 Y0.3964
N6245 X1.9702 Y0.3979 Z-0.0086
N6250 X1.971 Y0.3983
N6255 X1.977 Y0.4012 Z-0.0084
N6260 X1.9783 Y0.4019
N6265 X1.9832 Y0.4053
N6270 X1.9886 Y0.4096 Z-0.0085
N6275 X1.9892 Y0.4101
N6280 X1.9917 Y0.4124 Z-0.009
N6285 X1.993 Y0.4135 Z-0.0094
N6290 X1.9945 Y0.4144 Z-0.01
N6295 X1.9946 Y0.4145
N6300 X1.9952 Y0.4155
N6305 X1.9984 Y0.4206
N6310 X1.9994 Y0.4228
N6315 X2.0013 Y0.4288
N6320 X2.0015 Y0.4296
N6325 X2.0029 Y0.4357
N6330 X2.0031 Y0.437
N6335 X2.0036 Y0.4432
N6340 X2.0037 Y0.4439
N6345 X2.0038 Y0.4502
N6350 Y0.4504
N6355 Y0.4595
N6360 G3 X1.9965 Y0.4691 I-0.01 J0.
N6365 G2 X2.0038 Y0.4595 I-0.0027 J-0.0096
N6370 G1 Y0.4504
N6375 Y0.4502
N6380 X2.0037 Y0.4439
N6385 X2.0036 Y0.4432
N6390 X2.0031 Y0.437
N6395 X2.0029 Y0.4357
N6400 X2.0015 Y0.4296
N6405 X2.0013 Y0.4288
N6410 X1.9994 Y0.4228
N6415 X1.9984 Y0.4206
N6420 X1.9952 Y0.4155
N6425 X1.9946 Y0.4145
N6430 X1.9945 Y0.4144
N6435 G2 X2.0057 Y0.4063 I0.0014 J-0.0099
N6440 G1 X2.0072 Y0.398
N6445 X2.0077 Y0.3966
N6450 X2.0008 Y0.3866 Z0.
N6455 X2.0077 Y0.3966 Z-0.01
N6460 X2.0119
N6465 X2.0172 Y0.3925 Z-0.006
N6470 X2.0265 Y0.3866 Z0.
N6475 X2.0172 Y0.3925 Z-0.006
N6480 X2.0119 Y0.3966 Z-0.01
N6485 X2.0106 Y0.4015
N6490 X2.0103 Y0.4033
N6495 X2.0088 Y0.425
N6500 Y0.4256
N6505 X2.0087 Y0.4474
N6510 Y0.4802
N6515 X2.0085 Y0.4911
N6520 X2.0076 Y0.5009
N6525 X2.0054 Y0.5078
N6530 X2.0039 Y0.5106
N6535 X2.0022 Y0.5132
N6540 X1.9996 Y0.5156
N6545 X1.9966 Y0.5179
N6550 X1.9932 Y0.5197
N6555 X1.9894 Y0.5213
N6560 X1.983 Y0.523
N6565 X1.9764 Y0.5243
N6570 X1.9696 Y0.5249
N6575 X1.9625 Y0.5251
N6580 X1.9548 Y0.5248
N6585 X1.9517 Y0.5245
N6590 G0 Z0.2
N6595 X2.0624 Y0.3282
N6600 G1 Z0. F200.
N6605 X2.0724 Y0.3382 Z-0.01 F600.
N6610 Y0.5191
N6615 X2.0624 Y0.5291 Z0.
N6620 X2.0724 Y0.5191 Z-0.01
N6625 X2.0748
N6630 X2.0848 Y0.5291 Z0.
N6635 X2.0748 Y0.5191 Z-0.01
N6640 Y0.5102
N6645 G3 X2.0864 Y0.5004 I0.01 J0.
N6650 G1 X2.0879 Y0.5015 Z-0.0093
N6655 X2.0892 Y0.5027 Z-0.0087
N6660 X2.0902 Y0.5037 Z-0.0085
N6665 X2.0908 Y0.5043 Z-0.0084
N6670 X2.0953 Y0.5094 Z-0.0087
N6675 X2.0964 Y0.5105 Z-0.0088
N6680 X2.099 Y0.513 Z-0.009
N6685 X2.1 Y0.5138
N6690 X2.1031 Y0.5161 Z-0.0091
N6695 X2.1041 Y0.5167
N6700 X2.1073 Y0.5186 Z-0.0094
N6705 X2.1089 Y0.5192
N6710 X2.1119 Y0.5203 Z-0.0096
N6715 X2.1139 Y0.5209
N6720 X2.1167 Y0.5216 Z-0.0097
N6725 X2.1216 Y0.5224
N6730 X2.1241 Y0.5227 Z-0.0096
N6735 X2.1261 Z-0.0097
N6740 X2.1336 Y0.5218 Z-0.01
N6745 X2.1341
N6750 X2.1351 Y0.5216
N6755 X2.1389 Y0.5206
N6760 X2.1402 Y0.5201
N6765 X2.1437 Y0.5187
N6770 X2.1451 Y0.5179
N6775 X2.1484 Y0.5159
N6780 X2.1494 Y0.5152
N6785 X2.1525 Y0.5127
N6790 X2.1532 Y0.5121
N6795 X2.1589 Y0.5064
N6800 X2.1599 Y0.5054
N6805 X2.1607 Y0.5042
N6810 X2.166 Y0.4945
N6815 X2.1664 Y0.4937
N6820 X2.1687 Y0.4888
N6825 X2.1691 Y0.4878
N6830 X2.1707 Y0.4826
N6835 X2.171 Y0.4815
N6840 X2.1721 Y0.4762
N6845 X2.1722 Y0.4754
N6850 X2.1728 Y0.4699
N6855 X2.1729 Y0.4693
N6860 X2.1733 Y0.4582
N6865 Y0.4573
N6870 X2.1729 Y0.4458
N6875 X2.1728 Y0.4451
N6880 X2.1722 Y0.4395
N6885 X2.1721 Y0.4387
N6890 X2.171 Y0.4332
N6895 X2.1707 Y0.4321
N6900 X2.169 Y0.4268
N6905 X2.1686 Y0.4258
N6910 X2.1664 Y0.4206
N6915 X2.166 Y0.4198
N6920 X2.1604 Y0.4098
N6925 X2.1596 Y0.4086
N6930 X2.1586 Y0.4075
N6935 X2.1526 Y0.4018
N6940 X2.1519 Y0.4011
N6945 X2.1487 Y0.3987
N6950 X2.1477 Y0.398
N6955 X2.1443 Y0.3959
N6960 X2.1429 Y0.3952
N6965 X2.1393 Y0.3938
N6970 X2.138 Y0.3933
N6975 X2.1342 Y0.3923
N6980 X2.1331 Y0.3921
N6985 X2.125 Y0.3909
N6990 X2.1236 Y0.3908
N6995 X2.1221 Y0.3909
N7000 X2.1148 Y0.392
N7005 X2.1161 Y0.3916
N7010 X2.1205 Y0.3909
N7015 X2.125 Y0.3906
N7020 X2.1322 Y0.3913
N7025 X2.139 Y0.3927
N7030 X2.1455 Y0.3952
N7035 X2.1518 Y0.3985
N7040 X2.1579 Y0.4033
N7045 X2.1633 Y0.4085
N7050 X2.1676 Y0.4147
N7055 X2.1714 Y0.4215
N7060 X2.1744 Y0.4302
N7065 X2.1768 Y0.439
N7070 X2.178 Y0.4482
N7075 X2.1785 Y0.4576
N7080 X2.178 Y0.4665
N7085 X2.1769 Y0.4752
N7090 X2.1748 Y0.4837
N7095 X2.172 Y0.4919
N7100 X2.1686 Y0.4987
N7105 X2.1647 Y0.5047
N7110 X2.1597 Y0.5099
N7115 X2.1542 Y0.5145
N7120 X2.1479 Y0.5179
N7125 X2.1413 Y0.5205
N7130 X2.1343 Y0.5218
N7135 X2.1336
N7140 X2.1343
N7145 X2.1413 Y0.5205
N7150 X2.1479 Y0.5179
N7155 X2.1542 Y0.5145
N7160 X2.1597 Y0.5099
N7165 X2.1647 Y0.5047
N7170 X2.1686 Y0.4987
N7175 X2.172 Y0.4919
N7180 X2.1748 Y0.4837
N7185 X2.1769 Y0.4752
N7190 X2.178 Y0.4665
N7195 X2.1785 Y0.4576
N7200 X2.178 Y0.4482
N7205 X2.1768 Y0.439
N7210 X2.1744 Y0.4302
N7215 X2.1714 Y0.4215
N7220 X2.1676 Y0.4147
N7225 X2.1633 Y0.4085
N7230 X2.1579 Y0.4033
N7235 X2.1518 Y0.3985
N7240 X2.1455 Y0.3952
N7245 X2.139 Y0.3927
N7250 X2.1322 Y0.3913
N7255 X2.125 Y0.3906
N7260 X2.1205 Y0.3909
N7265 X2.1161 Y0.3916
N7270 X2.1148 Y0.392
N7275 X2.1132 Y0.3924 Z-0.0099
N7280 X2.1118 Y0.3928 Z-0.0098
N7285 X2.1083 Y0.394 Z-0.0096
N7290 X2.1076 Y0.3943
N7295 X2.1036 Y0.3965 Z-0.0092
N7300 X2.0994 Y0.3992 Z-0.009
N7305 X2.0958 Y0.4023 Z-0.0088
N7310 X2.093 Y0.4052 Z-0.0087
N7315 X2.0922 Y0.4058
N7320 X2.0915 Y0.4065 Z-0.0088
N7325 X2.0906 Y0.4071 Z-0.0089
N7330 X2.0889 Y0.4081 Z-0.0094
N7335 X2.0876 Y0.4089 Z-0.01
N7340 X2.0873 Y0.4093
N7345 X2.0819 Y0.4189
N7350 X2.0815 Y0.4197
N7355 X2.0793 Y0.4247
N7360 X2.0789 Y0.4257
N7365 X2.0773 Y0.4308
N7370 X2.077 Y0.4319
N7375 X2.0759 Y0.4372
N7380 X2.0758 Y0.4381
N7385 X2.0752 Y0.4435
N7390 Y0.4442
N7395 X2.0747 Y0.4553
N7400 Y0.4562
N7405 X2.0753 Y0.4676
N7410 Y0.4683
N7415 X2.076 Y0.4739
N7420 X2.0761 Y0.4748
N7425 X2.0773 Y0.4802
N7430 X2.0776 Y0.4813
N7435 X2.0793 Y0.4866
N7440 X2.0797 Y0.4876
N7445 X2.0821 Y0.4927
N7450 X2.0825 Y0.4935
N7455 X2.0864 Y0.5004
N7460 X2.0825 Y0.4935
N7465 X2.0821 Y0.4927
N7470 X2.0797 Y0.4876
N7475 X2.0793 Y0.4866
N7480 X2.0776 Y0.4813
N7485 X2.0773 Y0.4802
N7490 X2.0761 Y0.4748
N7495 X2.076 Y0.4739
N7500 X2.0753 Y0.4683
N7505 Y0.4676
N7510 X2.0747 Y0.4562
N7515 Y0.4553
N7520 X2.0752 Y0.4442
N7525 Y0.4435
N7530 X2.0758 Y0.4381
N7535 X2.0759 Y0.4372
N7540 X2.077 Y0.4319
N7545 X2.0773 Y0.4308
N7550 X2.0789 Y0.4257
N7555 X2.0793 Y0.4247
N7560 X2.0815 Y0.4197
N7565 X2.0819 Y0.4189
N7570 X2.0873 Y0.4093
N7575 X2.0876 Y0.4089
N7580 G3 X2.077 Y0.3989 I-0.0006 J-0.01
N7585 G1 Y0.3382
N7590 X2.0724
N7595 X2.077
N7600 X2.087 Y0.3282 Z0.
N7605 G0 Z0.2
N7610 X2.2372 Y0.3824
N7615 G1 Z0. F200.
N7620 X2.2471 Y0.3923 Z-0.01 F600.
N7625 Y0.5729
N7630 X2.2372 Y0.5828 Z0.
N7635 X2.2471 Y0.5729 Z-0.01
N7640 X2.2517
N7645 X2.2617 Y0.5828 Z0.
N7650 X2.2517 Y0.5729 Z-0.01
N7655 Y0.5109
N7660 G3 X2.2616 Y0.5009 I0.01 J0.
N7665 G1 X2.2603 Y0.4991
N7670 X2.2597 Y0.4981
N7675 X2.2571 Y0.4934
N7680 X2.2563 Y0.4915
N7685 X2.2543 Y0.4849
N7690 X2.2541 Y0.4841
N7695 X2.2527 Y0.4775
N7700 X2.2526 Y0.4763
N7705 X2.252 Y0.4695
N7710 X2.2519 Y0.4689
N7715 X2.2518 Y0.462
N7720 X2.2517 Y0.4618
N7725 Y0.3923
N7730 X2.2471
N7735 X2.2517
N7740 X2.2617 Y0.3824 Z0.
N7745 X2.2517 Y0.3923 Z-0.01
N7750 Y0.4618
N7755 X2.2518 Y0.462
N7760 X2.2519 Y0.4689
N7765 X2.252 Y0.4695
N7770 X2.2526 Y0.4763
N7775 X2.2527 Y0.4775
N7780 X2.2541 Y0.4841
N7785 X2.2543 Y0.4849
N7790 X2.2563 Y0.4915
N7795 X2.2571 Y0.4934
N7800 X2.2597 Y0.4981
N7805 X2.2603 Y0.4991
N7810 X2.2616 Y0.5009
N7815 X2.263 Y0.5017 Z-0.0093
N7820 X2.2649 Y0.503 Z-0.0085
N7825 X2.2666 Y0.5042 Z-0.0082
N7830 X2.2673 Y0.5048
N7835 X2.2705 Y0.5077 Z-0.0083
N7840 X2.2758 Y0.5118 Z-0.0087
N7845 X2.2767 Y0.5124 Z-0.0089
N7850 X2.2812 Y0.5152 Z-0.0094
N7855 X2.2862 Y0.5173 Z-0.0097
N7860 X2.2877 Y0.5178 Z-0.0098
N7865 X2.2897 Y0.5184 Z-0.0099
N7870 X2.2924 Y0.5189 Z-0.01
N7875 X2.2945 Y0.5194
N7880 X2.3056 Y0.5208
N7885 X2.3115 Y0.5205
N7890 X2.3175 Y0.5197
N7895 X2.3232 Y0.5179
N7900 X2.3286 Y0.5156
N7905 X2.3326 Y0.513
N7910 X2.3361 Y0.5102
N7915 X2.3388 Y0.5066
N7920 X2.3411 Y0.5028
N7925 X2.3431 Y0.4965
N7930 X2.3446 Y0.4894
N7935 X2.3453 Y0.4822
N7940 X2.3454 Y0.4743
N7945 Y0.3923
N7950 X2.3554 Y0.3824 Z0.
N7955 X2.3454 Y0.3923 Z-0.01
N7960 X2.3408
N7965 X2.3308 Y0.3824 Z0.
N7970 X2.3408 Y0.3923 Z-0.01
N7975 Y0.4744
N7980 Y0.4748
N7985 X2.3405 Y0.4821
N7990 X2.3404 Y0.4833
N7995 X2.3392 Y0.4903
N8000 X2.3388 Y0.4919
N8005 X2.3376 Y0.4953
N8010 X2.3372 Y0.4964
N8015 X2.3356 Y0.4995
N8020 X2.3351 Y0.5004
N8025 X2.3313 Y0.5065
N8030 X2.3302 Y0.508
N8035 X2.3288 Y0.5093
N8040 X2.3238 Y0.513
N8045 X2.3224 Y0.5139
N8050 X2.3171 Y0.5167
N8055 X2.3159 Y0.5172
N8060 X2.3146 Y0.5176
N8065 X2.3086 Y0.5189
N8070 X2.3072 Y0.5192
N8075 X2.301 Y0.5196
N8080 X2.2993
N8085 X2.2939 Y0.5192
N8090 X2.2929 Y0.5191
N8095 X2.2924 Y0.5189
N8100 G0 Z0.2
N8105 X2.3901 Y0.527
N8110 G1 Z0. F200.
N8115 X2.4045 Y0.517 Z-0.01 F600.
N8120 X2.4095
N8125 X2.4165 Y0.527 Z0.
N8130 X2.4095 Y0.517 Z-0.01
N8135 X2.4373 Y0.4396
N8140 X2.4429 Y0.4232
N8145 X2.4477 Y0.4065
N8150 G3 X2.467 Y0.4066 I0.0096 J0.0028
N8155 G1 X2.4715 Y0.423
N8160 X2.4769 Y0.439
N8165 X2.5055 Y0.517
N8170 X2.4985 Y0.527 Z0.
N8175 X2.5055 Y0.517 Z-0.01
N8180 X2.5087
N8185 X2.5231 Y0.527 Z0.
N8190 X2.5087 Y0.517 Z-0.01
N8195 X2.4585 Y0.3828
N8200 X2.4522 Y0.3665
N8205 X2.4452 Y0.351
N8210 X2.4426 Y0.3467
N8215 X2.4399 Y0.3429
N8220 X2.4367 Y0.3396
N8225 X2.4334 Y0.3368
N8230 X2.4301 Y0.3351
N8235 X2.4266 Y0.3338
N8240 X2.4229 Y0.3331
N8245 X2.4189 Y0.3328
N8250 X2.4126 Y0.3335
N8255 X2.412 Y0.3337
N8260 X2.4029 Y0.3258 Z0.
N8265 X2.412 Y0.3337 Z-0.01
N8270 X2.4116 Y0.3369
N8275 X2.4066 Y0.3418 Z-0.0056
N8280 X2.4002 Y0.3489 Z0.
N8285 X2.4066 Y0.3418 Z-0.0056
N8290 X2.4116 Y0.3369 Z-0.01
N8295 X2.4133 Y0.3368
N8300 X2.415
N8305 X2.4218 Y0.3373
N8310 X2.4242 Y0.3378
N8315 X2.4306 Y0.34
N8320 X2.432 Y0.3406
N8325 X2.4333 Y0.3414
N8330 X2.4378 Y0.3447
N8335 X2.4388 Y0.3455
N8340 X2.4396 Y0.3465
N8345 X2.4432 Y0.3508
N8350 X2.4439 Y0.3518
N8355 X2.4445 Y0.353
N8360 X2.4486 Y0.362
N8365 X2.449 Y0.3627
N8370 X2.4523 Y0.372
N8375 X2.4524
N8380 X2.4545 Y0.3781
N8385 X2.4551 Y0.3804
N8390 Y0.3827
N8395 X2.4545 Y0.385
N8400 X2.4045 Y0.517
N8405 G0 Z0.2
N8410 X2.1556 Y1.0175
N8415 G1 Z0. F200.
N8420 X2.1647 Y1.0098 Z-0.0087 F600.
N8425 X2.1565 Y1.001 Z0.
N8430 X2.1647 Y1.0098 Z-0.0087
N8435 X2.1942 Y1.0116 Z-0.01
N8440 X2.2053 Y1.0117
N8445 G2 X2.2155 Y1.0017 I0.0002 J-0.01
N8450 G1 Y0.6471
N8455 G2 X2.2064 Y0.6371 I-0.01 J0.
N8460 G1 X2.1991 Y0.6364
N8465 X2.1815 Y0.6356 Z-0.0091
N8470 X2.1729 Y0.6433 Z-0.0006
N8475 X2.1724 Y0.6434 Z-0.0004
N8480 X2.1678 Z0.
N8485 X2.1724 Z-0.0004
N8490 X2.1729 Y0.6433 Z-0.0006
N8495 X2.1815 Y0.6356 Z-0.0091
N8500 X2.1724 Y0.6265 Z0.
N8505 X2.1815 Y0.6356 Z-0.0091
N8510 X2.1991 Y0.6364 Z-0.01
N8515 X2.3112
N8520 X2.3378 Y0.6351 Z-0.0087
N8525 X2.3465 Y0.643 Z0.
N8530 X2.3378 Y0.6351 Z-0.0087
N8535 X2.3465 Y0.6265 Z0.
N8540 X2.3378 Y0.6351 Z-0.0087
N8545 X2.3112 Y0.6364 Z-0.01
N8550 X2.3038 Y0.6371
N8555 G2 X2.2948 Y0.6471 I0.001 J0.01
N8560 G1 Y0.8887
N8565 Y0.8892
N8570 X2.2961 Y0.9123
N8575 Y0.9129
N8580 X2.2975 Y0.9242
N8585 X2.2976 Y0.925
N8590 X2.2999 Y0.9361
N8595 X2.3002 Y0.9371
N8600 X2.3036 Y0.9479
N8605 X2.3039 Y0.9488
N8610 X2.3083 Y0.9592
N8615 X2.3086 Y0.9599
N8620 X2.3142 Y0.9707
N8625 X2.3125 Y0.9686
N8630 X2.3109 Y0.9671
N8635 X2.309 Y0.9659
N8640 X2.307 Y0.9652
N8645 X2.3048 Y0.965
N8650 X2.3031
N8655 G2 X2.2932 Y0.9753 I0. J0.01
N8660 G1 X2.2947 Y1.027
N8665 X2.2929 Y1.0299
N8670 X2.2429 Y1.0168
N8675 X2.2414 Y1.0165
N8680 X2.1942 Y1.0116
N8685 X2.2414 Y1.0165
N8690 X2.2429 Y1.0168
N8695 X2.2929 Y1.0299
N8700 X2.2975 Y1.0414 Z0.
N8705 X2.2929 Y1.0299 Z-0.01
N8710 X2.2947 Y1.027
N8715 X2.3047 Y1.0297 Z0.
N8720 X2.2947 Y1.027 Z-0.01
N8725 X2.2932 Y0.9753
N8730 G3 X2.3031 Y0.965 I0.01 J-0.0003
N8735 G1 X2.3048
N8740 X2.307 Y0.9652
N8745 X2.309 Y0.9659
N8750 X2.3109 Y0.9671
N8755 X2.3125 Y0.9686
N8760 X2.3142 Y0.9707
N8765 X2.3202 Y0.9798 Z-0.0088
N8770 X2.3214 Y0.9814 Z-0.0087
N8775 X2.3274 Y0.9884 Z-0.0086
N8780 X2.3337 Y0.9953 Z-0.0087
N8785 X2.3361 Y0.9977 Z-0.0088
N8790 X2.3406 Y1.002 Z-0.009
N8795 X2.3415 Y1.0028
N8800 X2.3483 Y1.0081 Z-0.0096
N8805 X2.3494 Y1.0089 Z-0.0097
N8810 X2.3517 Y1.0103 Z-0.01
N8815 X2.3574 Y1.0128
N8820 X2.3588 Y1.0134
N8825 X2.3672 Y1.0157
N8830 X2.3681 Y1.016
N8835 X2.377 Y1.0176
N8840 X2.3774 Y1.0177
N8845 X2.3865 Y1.0189
N8850 X2.3889 Y1.019
N8855 X2.3912 Y1.0185
N8860 X2.4056 Y1.0133
N8865 X2.406 Y1.0132
N8870 X2.4129 Y1.0103
N8875 X2.4134 Y1.0101
N8880 X2.4199 Y1.0069
N8885 X2.4207 Y1.0065
N8890 X2.4266 Y1.003
N8895 X2.4275 Y1.0023
N8900 X2.4328 Y0.9982
N8905 X2.4339 Y0.9972
N8910 X2.4383 Y0.9925
N8915 X2.4393 Y0.9912
N8920 X2.4429 Y0.9859
N8925 X2.4436 Y0.9846
N8930 X2.4464 Y0.9787
N8935 X2.4469 Y0.9775
N8940 X2.449 Y0.9711
N8945 X2.4492 Y0.9702
N8950 X2.4508 Y0.9633
N8955 X2.4509 Y0.9625
N8960 X2.4519 Y0.9553
N8965 X2.452 Y0.9545
N8970 X2.4531 Y0.9393
N8975 Y0.9388
N8980 X2.4534 Y0.9229
N8985 Y0.9227
N8990 Y0.6471
N8995 G2 X2.4444 Y0.6371 I-0.01 J0.
N9000 G1 X2.4371 Y0.6364
N9005 X2.4108 Y0.6351 Z-0.0087
N9010 X2.4021 Y0.643 Z0.
N9015 X2.4108 Y0.6351 Z-0.0087
N9020 X2.4021 Y0.6265 Z0.
N9025 X2.4108 Y0.6351 Z-0.0087
N9030 X2.4371 Y0.6364 Z-0.01
N9035 X2.5494
N9040 X2.5757 Y0.6351 Z-0.0087
N9045 X2.5844 Y0.643 Z0.
N9050 X2.5757 Y0.6351 Z-0.0087
N9055 X2.5844 Y0.6265 Z0.
N9060 X2.5757 Y0.6351 Z-0.0087
N9065 X2.5494 Y0.6364 Z-0.01
N9070 X2.5421 Y0.6371
N9075 G2 X2.5331 Y0.6471 I0.001 J0.01
N9080 G1 Y0.9108
N9085 X2.5326 Y0.9255
N9090 X2.5314 Y0.9397
N9095 X2.5288 Y0.9538
N9100 X2.5254 Y0.9677
N9105 X2.522 Y0.9774
N9110 X2.518 Y0.9867
N9115 X2.513 Y0.9954
N9120 X2.5074 Y1.0035
N9125 X2.5019 Y1.0092
N9130 X2.496 Y1.0145
N9135 X2.4894 Y1.0191
N9140 X2.4824 Y1.0233
N9145 X2.4759 Y1.0265
N9150 X2.4693 Y1.0293
N9155 X2.4625 Y1.0315
N9160 X2.4557 Y1.0333
N9165 X2.4428 Y1.035
N9170 X2.4301 Y1.0355
N9175 X2.4122 Y1.033
N9180 X2.3942 Y1.0296
N9185 X2.3859 Y1.0274
N9190 X2.3778 Y1.0248
N9195 X2.3702 Y1.0217
N9200 X2.363 Y1.0181
N9205 X2.3562 Y1.0137
N9210 X2.3517 Y1.0103
N9215 G0 Z0.2
N9220 X1.9815 Y1.0009
N9225 G1 Z0. F200.
N9230 X1.9902 Y1.0096 Z-0.0087 F600.
N9235 X1.9815 Y1.0175 Z0.
N9240 X1.9902 Y1.0096 Z-0.0087
N9245 X2.0141 Y1.0109 Z-0.01
N9250 X2.0313
N9255 G2 X2.0413 Y1.0009 I0. J-0.01
N9260 G1 Y0.647
N9265 G2 X2.0323 Y0.6371 I-0.01 J0.
N9270 G1 X2.0249 Y0.6364
N9275 X2.0104 Y0.6357 Z-0.0093
N9280 X2.0025 Y0.6277 Z-0.0014
N9285 X2.002 Y0.6274 Z-0.001
N9290 X2.0016 Y0.6271 Z-0.0008
N9295 X1.9902 Z-0.0007
N9300 X1.9896 Y0.6264 Z0.
N9305 X1.9902 Y0.6271 Z-0.0007
N9310 X1.9896 Y0.6277 Z0.
N9315 X1.9902 Y0.6271 Z-0.0007
N9320 X2.0016 Z-0.0008
N9325 X2.002 Y0.6274 Z-0.001
N9330 X2.0025 Y0.6277 Z-0.0014
N9335 X2.0104 Y0.6357 Z-0.0093
N9340 X2.0011 Y0.6441 Z0.
N9345 X2.0104 Y0.6357 Z-0.0093
N9350 X2.0249 Y0.6364 Z-0.01
N9355 X2.137
N9360 X2.1546 Y0.6355 Z-0.0092
N9365 X2.1633 Y0.6433 Z-0.0005
N9370 X2.1637 Y0.6434 Z-0.0004
N9375 X2.1677 Z0.
N9380 X2.1637 Z-0.0004
N9385 X2.1633 Y0.6433 Z-0.0005
N9390 X2.1546 Y0.6355 Z-0.0092
N9395 X2.1637 Y0.6264 Z0.
N9400 X2.1723
N9405 X2.1637
N9410 X2.1546 Y0.6355 Z-0.0092
N9415 X2.137 Y0.6364 Z-0.01
N9420 X2.1296 Y0.6371
N9425 G2 X2.1206 Y0.647 I0.001 J0.01
N9430 G1 Y1.0268
N9435 X2.1306 Y1.0296 Z0.
N9440 X2.1206 Y1.0268 Z-0.01
N9445 X2.1187 Y1.0299
N9450 X2.1233 Y1.0414 Z0.
N9455 X2.1187 Y1.0299 Z-0.01
N9460 X2.0687 Y1.0167
N9465 X2.0672 Y1.0165
N9470 X2.0141 Y1.0109
N9475 G0 Z0.2
N9480 X1.8102 Y1.1741
N9485 G1 Z0. F200.
N9490 X1.8189 Y1.1828 Z-0.0087 F600.
N9495 X1.8102 Y1.1907 Z0.
N9500 X1.8189 Y1.1828 Z-0.0087
N9505 X1.8429 Y1.1841 Z-0.01
N9510 X1.896 Y1.1897
N9515 X1.8975 Y1.19
N9520 X1.9475 Y1.2031
N9525 X1.952 Y1.2146 Z0.
N9530 X1.9475 Y1.2031 Z-0.01
N9535 X1.9494 Y1.2
N9540 X1.9593 Y1.2029 Z0.
N9545 X1.9494 Y1.2 Z-0.01
N9550 Y0.6484
N9555 G3 X1.9584 Y0.6384 I0.01 J0.
N9560 G1 X1.9658 Y0.6377
N9565 X1.9803 Y0.637 Z-0.0093
N9570 X1.9868 Y0.643 Z-0.0027
N9575 X1.9877 Y0.6437 Z-0.002
N9580 X1.9886 Y0.6441 Z-0.0015
N9585 X1.989 Y0.6442 Z-0.0013
N9590 X2.001 Z-0.0001
N9595 X2.0011 Y0.6441 Z0.
N9600 X2.001 Y0.6442 Z-0.0001
N9605 X2.0011 Y0.6443 Z0.
N9610 X2.001 Y0.6442 Z-0.0001
N9615 X1.989 Z-0.0013
N9620 X1.9886 Y0.6441 Z-0.0015
N9625 X1.9877 Y0.6437 Z-0.002
N9630 X1.9868 Y0.643 Z-0.0027
N9635 X1.9803 Y0.637 Z-0.0093
N9640 X1.9895 Y0.6278 Z0.
N9645 X1.9803 Y0.637 Z-0.0093
N9650 X1.9658 Y0.6377 Z-0.01
N9655 X1.8536
N9660 X1.827 Y0.6364 Z-0.0087
N9665 X1.8183 Y0.6443 Z0.
N9670 X1.827 Y0.6364 Z-0.0087
N9675 X1.8183 Y0.6278 Z0.
N9680 X1.827 Y0.6364 Z-0.0087
N9685 X1.8536 Y0.6377 Z-0.01
N9690 X1.861 Y0.6384
N9695 G3 X1.8701 Y0.6484 I-0.001 J0.01
N9700 G1 Y1.1741
N9705 G3 X1.8601 Y1.1841 I-0.01 J0.
N9710 G1 X1.8429
N9715 G0 Z0.2
N9720 X1.5231 Y1.0011
N9725 G1 Z0. F200.
N9730 X1.5318 Y1.0098 Z-0.0087 F600.
N9735 X1.5231 Y1.0176 Z0.
N9740 X1.5318 Y1.0098 Z-0.0087
N9745 X1.5558 Y1.011 Z-0.01
N9750 X1.573
N9755 G2 X1.583 Y1.001 I0. J-0.01
N9760 G1 Y0.6472
N9765 G2 X1.5739 Y0.6372 I-0.01 J0.
N9770 G1 X1.5665 Y0.6365
N9775 X1.5399 Y0.6352 Z-0.0087
N9780 X1.5312 Y0.6431 Z0.
N9785 X1.5399 Y0.6352 Z-0.0087
N9790 X1.5312 Y0.6266 Z0.
N9795 X1.5399 Y0.6352 Z-0.0087
N9800 X1.5665 Y0.6365 Z-0.01
N9805 X1.6787
N9810 X1.7053 Y0.6352 Z-0.0087
N9815 X1.714 Y0.6431 Z0.
N9820 X1.7053 Y0.6352 Z-0.0087
N9825 X1.714 Y0.6266 Z0.
N9830 X1.7053 Y0.6352 Z-0.0087
N9835 X1.6787 Y0.6365 Z-0.01
N9840 X1.6713 Y0.6372
N9845 G2 X1.6623 Y0.6472 I0.001 J0.01
N9850 G1 Y0.849
N9855 Y0.8493
N9860 X1.6627 Y0.866
N9865 Y0.8664
N9870 X1.6638 Y0.8831
N9875 X1.6639 Y0.8838
N9880 X1.6662 Y0.9003
N9885 X1.6663 Y0.9007
N9890 X1.6693 Y0.9171
N9895 X1.6695 Y0.9179
N9900 X1.6729 Y0.9308
N9905 X1.673 Y0.9313
N9910 X1.6771 Y0.9441
N9915 X1.6773 Y0.9448
N9920 X1.6824 Y0.9572
N9925 X1.6826 Y0.9577
N9930 X1.6838 Y0.9602
N9935 X1.681 Y0.9552
N9940 G2 X1.6723 Y0.9501 I-0.0087 J0.0049
N9945 G1 X1.6706
N9950 G2 X1.6606 Y0.9601 I0. J0.01
N9955 G1 Y1.0275
N9960 X1.6595 Y1.0298
N9965 X1.6104 Y1.0169
N9970 X1.6089 Y1.0166
N9975 X1.5558 Y1.011
N9980 X1.6089 Y1.0166
N9985 X1.6104 Y1.0169
N9990 X1.6595 Y1.0298
N9995 X1.6649 Y1.0415 Z0.
N10000 X1.6595 Y1.0298 Z-0.01
N10005 X1.6606 Y1.0275
N10010 X1.6706 Y1.0298 Z0.
N10015 X1.6606 Y1.0275 Z-0.01
N10020 Y0.9601
N10025 G3 X1.6706 Y0.9501 I0.01 J0.
N10030 G1 X1.6723
N10035 G3 X1.681 Y0.9552 I0. J0.01
N10040 G1 X1.6838 Y0.9602
N10045 X1.6887 Y0.9697 Z-0.0096
N10050 X1.689 Y0.9703
N10055 X1.6948 Y0.9793 Z-0.0093
N10060 X1.6994 Y0.9861 Z-0.0092
N10065 X1.7011 Y0.9883 Z-0.0091
N10070 X1.7085 Y0.997
N10075 X1.711 Y0.9998 Z-0.0092
N10080 X1.7163 Y1.005 Z-0.0091
N10085 X1.7234 Y1.0112 Z-0.0095
N10090 X1.7306 Y1.0165 Z-0.01
N10095 X1.7313 Y1.0169
N10100 X1.732 Y1.0172
N10105 X1.7394 Y1.0206
N10110 X1.7403 Y1.0209
N10115 X1.7481 Y1.0235
N10120 G2 X1.7613 Y1.014 I0.0031 J-0.0095
N10125 G1 Y1.0116
N10130 X1.7611 Y1.0098
N10135 X1.7607 Y1.0081
N10140 X1.7599 Y1.0065
N10145 X1.7559 Y0.9997
N10150 X1.7546 Y0.9968
N10155 X1.7538 Y0.9943
N10160 X1.7527 Y0.9875
N10165 X1.7524 Y0.9802
N10170 X1.7531 Y0.9718
N10175 X1.7554 Y0.964
N10180 X1.7588 Y0.9572
N10185 X1.7635 Y0.9513
N10190 X1.7696 Y0.9463
N10195 X1.7767 Y0.9426
N10200 X1.7809 Y0.9412
N10205 X1.7853 Y0.9401
N10210 X1.7899 Y0.9395
N10215 X1.7946 Y0.9393
N10220 X1.7991 Y0.9396
N10225 X1.8033 Y0.9401
N10230 X1.8074 Y0.9413
N10235 X1.8113 Y0.9427
N10240 X1.8184 Y0.9467
N10245 X1.8243 Y0.9519
N10250 X1.8291 Y0.9584
N10255 X1.8326 Y0.9658
N10260 X1.835 Y0.9747
N10265 X1.8357 Y0.984
N10270 X1.8347 Y0.9951
N10275 X1.8338 Y1.0002
N10280 X1.8324 Y1.0047
N10285 X1.8304 Y1.009
N10290 X1.8278 Y1.0132
N10295 X1.8215 Y1.0215
N10300 X1.8122 Y1.0279
N10305 X1.8075 Y1.0306
N10310 X1.8027 Y1.0326
N10315 X1.7975 Y1.0339
N10320 X1.792 Y1.0347
N10325 X1.7797 Y1.0356
N10330 X1.7725 Y1.0351
N10335 X1.7655 Y1.034
N10340 X1.7587 Y1.0319
N10345 X1.7518 Y1.0292
N10350 X1.7446 Y1.0255
N10355 X1.7375 Y1.0213
N10360 X1.7313 Y1.0169
N10365 G0 Z0.2
N10370 X1.198 Y0.8613
N10375 G1 Z0. F200.
N10380 X1.2073 Y0.852 Z-0.01 F600.
N10385 X1.2069 Y0.8459
N10390 X1.2065 Y0.8309
N10395 X1.2074 Y0.8101
N10400 X1.2088 Y0.7895
N10405 X1.2114 Y0.7694
N10410 X1.2133 Y0.7598
N10415 X1.2156 Y0.7503
N10420 X1.2185 Y0.7411
N10425 X1.2219 Y0.732
N10430 X1.2259 Y0.7229
N10435 X1.2303 Y0.714
N10440 X1.2403 Y0.6959
N10445 X1.2503 Y0.6791
N10450 X1.2637 Y0.6669
N10455 X1.2784 Y0.6547
N10460 X1.2858 Y0.6494
N10465 X1.2932 Y0.6446
N10470 X1.3008 Y0.6404
N10475 X1.3087 Y0.6369
N10480 X1.3169 Y0.634
N10485 X1.3254 Y0.6317
N10490 X1.3343 Y0.6298
N10495 X1.3434 Y0.6284
N10500 X1.3626 Y0.6264
N10505 X1.3813 Y0.6252
N10510 X1.4033 Y0.6282
N10515 X1.4144 Y0.6301
N10520 X1.4252 Y0.6323
N10525 X1.4355 Y0.6349
N10530 X1.4454 Y0.6381
N10535 X1.4546 Y0.6419
N10540 X1.4633 Y0.6465
N10545 X1.4686 Y0.6501
N10550 X1.4716 Y0.6519 Z-0.0099
N10555 X1.4797 Y0.658 Z-0.0095
N10560 X1.4869 Y0.6644 Z-0.0092
N10565 X1.4934 Y0.671 Z-0.0091
N10570 X1.4996 Y0.678 Z-0.009
N10575 X1.5092 Y0.69 Z-0.0091
N10580 X1.5171 Y0.7006 Z-0.0092
N10585 X1.5146 Y0.7128 Z0.
N10590 X1.5171 Y0.7006 Z-0.0092
N10595 X1.5304 Y0.7031 Z0.
N10600 X1.5171 Y0.7006 Z-0.0092
N10605 X1.5092 Y0.69 Z-0.0091
N10610 X1.4996 Y0.678 Z-0.009
N10615 X1.4934 Y0.671 Z-0.0091
N10620 X1.4869 Y0.6644 Z-0.0092
N10625 X1.4797 Y0.658 Z-0.0095
N10630 X1.4716 Y0.6519 Z-0.0099
N10635 X1.4686 Y0.6501 Z-0.01
N10640 X1.4652 Y0.6481
N10645 X1.4643 Y0.6477
N10650 X1.4566 Y0.6442
N10655 X1.4559 Y0.6439
N10660 X1.4478 Y0.641
N10665 X1.4472 Y0.6408
N10670 X1.4388 Y0.6384
N10675 X1.4381 Y0.6383
N10680 X1.4207 Y0.6346
N10685 X1.4202 Y0.6345
N10690 X1.4023 Y0.6316
N10695 X1.4004 Y0.6315
N10700 X1.3986 Y0.6318
N10705 X1.3968 Y0.6323
N10710 X1.3695 Y0.644
N10715 X1.369 Y0.6443
N10720 X1.3561 Y0.6506
N10725 X1.3555 Y0.6509
N10730 X1.3434 Y0.6578
N10735 X1.3426 Y0.6583
N10740 X1.3316 Y0.6661
N10745 X1.3309 Y0.6666
N10750 X1.326 Y0.6708
N10755 X1.3254 Y0.6713
N10760 X1.3208 Y0.6758
N10765 X1.3203 Y0.6764
N10770 X1.3161 Y0.6812
N10775 X1.3156 Y0.6818
N10780 X1.3118 Y0.6869
N10785 X1.3114 Y0.6876
N10790 X1.308 Y0.693
N10795 X1.3077 Y0.6936
N10800 X1.3047 Y0.6993
N10805 X1.3044 Y0.6999
N10810 X1.3018 Y0.7058
N10815 X1.3016 Y0.7063
N10820 X1.2994 Y0.7125
N10825 X1.2991 Y0.7133
N10830 X1.2955 Y0.7262
N10835 X1.2953 Y0.7271
N10840 X1.2928 Y0.7408
N10845 X1.2927 Y0.7415
N10850 X1.2912 Y0.7559
N10855 X1.2911 Y0.7564
N10860 X1.2903 Y0.7713
N10865 X1.2902 Y0.7716
N10870 X1.2899 Y0.7869
N10875 Y0.7872
N10880 X1.2902 Y0.8183
N10885 Y0.843
N10890 G2 X1.2966 Y0.8523 I0.01 J0.
N10895 G1 X1.2979 Z-0.0096
N10900 X1.2988 Z-0.0094
N10905 X1.3002 Z-0.0093
N10910 X1.3342 Y0.853 Z-0.01
N10915 X1.5119
N10920 X1.5158 Y0.843 Z0.
N10925 X1.5119 Y0.853 Z-0.01
N10930 X1.5167 Y0.8574
N10935 X1.5268 Y0.8531 Z0.
N10940 X1.5167 Y0.8574 Z-0.01
N10945 X1.5165 Y0.8684
N10950 X1.5157 Y0.8837
N10955 X1.514 Y0.8989
N10960 X1.5119 Y0.9139
N10965 X1.509 Y0.927
N10970 X1.5056 Y0.9398
N10975 X1.5011 Y0.9523
N10980 X1.4959 Y0.9645
N10985 X1.4902 Y0.9751
N10990 X1.4839 Y0.9851
N10995 X1.4764 Y0.9944
N11000 X1.4685 Y1.003
N11005 X1.4591 Y1.0107
N11010 X1.4543 Y1.0142
N11015 X1.4495 Y1.0173
N11020 X1.4387 Y1.0228
N11025 X1.4275 Y1.0274
N11030 X1.4135 Y1.0314
N11035 X1.3994 Y1.0344
N11040 X1.385 Y1.0358
N11045 X1.3846
N11050 X1.3891 Y1.035
N11055 X1.3901 Y1.0347
N11060 X1.3971 Y1.0324
N11065 X1.3987 Y1.0318
N11070 X1.4049 Y1.0284
N11075 X1.4068 Y1.0272
N11080 X1.4121 Y1.0226
N11085 X1.4133 Y1.0214
N11090 X1.418 Y1.0157
N11095 X1.4186 Y1.0149
N11100 X1.4228 Y1.0085
N11105 X1.423 Y1.0081
N11110 X1.427 Y1.0014
N11115 X1.4279 Y0.9992
N11120 X1.4346 Y0.9773
N11125 X1.4348 Y0.9768
N11130 X1.4375 Y0.9657
N11135 X1.4377 Y0.9651
N11140 X1.4397 Y0.9539
N11145 X1.4398 Y0.9532
N11150 X1.4411 Y0.9419
N11155 Y0.9414
N11160 X1.4418 Y0.93
N11165 Y0.9296
N11170 X1.4424 Y0.9066
N11175 Y0.9062
N11180 X1.442 Y0.8864
N11185 Y0.8862
N11190 X1.4411 Y0.8664
N11195 G2 X1.4315 Y0.8569 I-0.01 J0.0005
N11200 G1 X1.3342 Y0.853
N11205 X1.4315 Y0.8569
N11210 G3 X1.4411 Y0.8664 I-0.0004 J0.01
N11215 G1 X1.442 Y0.8862
N11220 Y0.8864
N11225 X1.4424 Y0.9062
N11230 Y0.9066
N11235 X1.4418 Y0.9296
N11240 Y0.93
N11245 X1.4411 Y0.9414
N11250 Y0.9419
N11255 X1.4398 Y0.9532
N11260 X1.4397 Y0.9539
N11265 X1.4377 Y0.9651
N11270 X1.4375 Y0.9657
N11275 X1.4348 Y0.9768
N11280 X1.4346 Y0.9773
N11285 X1.4279 Y0.9992
N11290 X1.427 Y1.0014
N11295 X1.423 Y1.0081
N11300 X1.4228 Y1.0085
N11305 X1.4186 Y1.0149
N11310 X1.418 Y1.0157
N11315 X1.4133 Y1.0214
N11320 X1.4121 Y1.0226
N11325 X1.4068 Y1.0272
N11330 X1.4049 Y1.0284
N11335 X1.3987 Y1.0318
N11340 X1.3971 Y1.0324
N11345 X1.3901 Y1.0347
N11350 X1.3891 Y1.035
N11355 X1.3846 Y1.0358
N11360 X1.3816 Y1.0362 Z-0.0098
N11365 X1.3733 Y1.037 Z-0.0093
N11370 X1.371 Y1.0371
N11375 X1.3618 Y1.0364 Z-0.0096
N11380 X1.3564 Y1.0357 Z-0.0099
N11385 X1.3558 Y1.0356 Z-0.01
N11390 X1.3554 Y1.0355
N11395 X1.3511 Y1.0342
N11400 X1.3499 Y1.0338
N11405 X1.3458 Y1.0319
N11410 X1.3448 Y1.0314
N11415 X1.3409 Y1.0291
N11420 X1.3402 Y1.0286
N11425 X1.3327 Y1.0232
N11430 X1.331 Y1.0217
N11435 X1.3239 Y1.0136
N11440 X1.3235 Y1.013
N11445 X1.3203 Y1.0088
N11450 X1.3198 Y1.0082
N11455 X1.3169 Y1.0037
N11460 X1.3163 Y1.0026
N11465 X1.3117 Y0.993
N11470 X1.3113 Y0.9922
N11475 X1.3075 Y0.9821
N11480 X1.3072 Y0.9814
N11485 X1.3036 Y0.9686
N11490 X1.3035 Y0.9682
N11495 X1.3002 Y0.9554
N11500 X1.3001 Y0.9548
N11505 X1.2976 Y0.9418
N11510 X1.2975 Y0.9415
N11515 X1.2954 Y0.9283
N11520 X1.2953 Y0.9278
N11525 X1.292 Y0.8953
N11530 X1.2919 Y0.8948
N11535 X1.2902 Y0.8621
N11540 G3 X1.2966 Y0.8523 I0.01 J-0.0005
N11545 G2 X1.2902 Y0.8621 I0.0036 J0.0093
N11550 G1 X1.2919 Y0.8948
N11555 X1.292 Y0.8953
N11560 X1.2953 Y0.9278
N11565 X1.2954 Y0.9283
N11570 X1.2975 Y0.9415
N11575 X1.2976 Y0.9418
N11580 X1.3001 Y0.9548
N11585 X1.3002 Y0.9554
N11590 X1.3035 Y0.9682
N11595 X1.3036 Y0.9686
N11600 X1.3072 Y0.9814
N11605 X1.3075 Y0.9821
N11610 X1.3113 Y0.9922
N11615 X1.3117 Y0.993
N11620 X1.3163 Y1.0026
N11625 X1.3169 Y1.0037
N11630 X1.3198 Y1.0082
N11635 X1.3203 Y1.0088
N11640 X1.3235 Y1.013
N11645 X1.3239 Y1.0136
N11650 X1.331 Y1.0217
N11655 X1.3327 Y1.0232
N11660 X1.3402 Y1.0286
N11665 X1.3409 Y1.0291
N11670 X1.3448 Y1.0314
N11675 X1.3458 Y1.0319
N11680 X1.3499 Y1.0338
N11685 X1.3511 Y1.0342
N11690 X1.3554 Y1.0355
N11695 X1.3558 Y1.0356
N11700 X1.3544
N11705 X1.3466 Y1.0348
N11710 X1.3391 Y1.0336
N11715 X1.3316 Y1.0319
N11720 X1.3242 Y1.0297
N11725 X1.3092 Y1.0244
N11730 X1.2965 Y1.0181
N11735 X1.2904 Y1.0147
N11740 X1.2846 Y1.011
N11745 X1.2791 Y1.007
N11750 X1.2737 Y1.0025
N11755 X1.2633 Y0.9929
N11760 X1.2542 Y0.9822
N11765 X1.2457 Y0.9709
N11770 X1.2382 Y0.9589
N11775 X1.2314 Y0.9464
N11780 X1.2254 Y0.9329
N11785 X1.2201 Y0.9191
N11790 X1.2159 Y0.905
N11795 X1.2125 Y0.8911
N11800 X1.2119 Y0.8907 Z-0.0096
N11805 X1.2007 Y0.8812 Z0.
N11810 X1.2119 Y0.8907 Z-0.0096
N11815 X1.2125 Y0.8911 Z-0.01
N11820 X1.2145
N11825 G2 X1.2245 Y0.8811 I0. J-0.01
N11830 G1 X1.2244 Y0.8625
N11835 G2 X1.2151 Y0.8525 I-0.01 J0.
N11840 G1 X1.2073 Y0.852
N11845 G0 Z0.2
N11850 X1.0021 Y0.8632
N11855 G1 Z0. F200.
N11860 X1.0117 Y0.8721 Z-0.0097 F600.
N11865 X1.0021 Y0.8818 Z0.
N11870 X1.0117 Y0.8721 Z-0.0097
N11875 X1.0207 Y0.8718 Z-0.01
N11880 X1.1891 Y0.8712
N11885 X1.1967 Y0.8778 Z-0.0034
N11890 X1.2006 Y0.8812 Z0.
N11895 X1.1967 Y0.8778 Z-0.0034
N11900 X1.1891 Y0.8712 Z-0.01
N11905 X1.189 Y0.8707
N11910 X1.1979 Y0.8613 Z0.
N11915 X1.189 Y0.8707 Z-0.01
N11920 X1.1541 Y0.8682
N11925 G3 X1.1448 Y0.8583 I0.0007 J-0.01
N11930 G1 X1.1441 Y0.65
N11935 X1.1541 Y0.6438 Z0.
N11940 X1.1441 Y0.65 Z-0.01
N11945 X1.1294 Y0.6429
N11950 X1.1193 Y0.6385
N11955 X1.1092 Y0.6346
N11960 X1.0988 Y0.6313
N11965 X1.0882 Y0.6283
N11970 X1.0665 Y0.6231
N11975 X1.0409 Y0.6186
N11980 X1.0153 Y0.6152
N11985 X0.9894 Y0.6134
N11990 X0.9643 Y0.6127
N11995 X0.9355 Y0.6182
N12000 X0.9062 Y0.6241
N12005 X0.878 Y0.6309
N12010 X0.8645 Y0.6347
N12015 X0.8513 Y0.6388
N12020 X0.8387 Y0.6433
N12025 X0.8266 Y0.6482
N12030 X0.8151 Y0.6536
N12035 X0.8043 Y0.6594
N12040 X0.7942 Y0.6658
N12045 X0.7848 Y0.6728
N12050 X0.7762 Y0.6803
N12055 X0.7683 Y0.6886
N12060 X0.7612 Y0.6976
N12065 X0.7548 Y0.7073
N12070 X0.749 Y0.7177
N12075 X0.7437 Y0.7288
N12080 X0.739 Y0.7404
N12085 X0.7348 Y0.7527
N12090 X0.7311 Y0.7655
N12095 X0.7277 Y0.7787
N12100 X0.7248 Y0.7924
N12105 X0.7222 Y0.8064
N12110 X0.7178 Y0.8356
N12115 X0.7142 Y0.8656
N12120 X0.711 Y0.8953
N12125 X0.7118 Y0.916
N12130 X0.7135 Y0.937
N12135 X0.7166 Y0.9578
N12140 X0.7206 Y0.9784
N12145 X0.7263 Y0.9998
N12150 X0.7295 Y1.0103
N12155 X0.733 Y1.0205
N12160 X0.737 Y1.0307
N12165 X0.7414 Y1.0407
N12170 X0.7508 Y1.0607
N12175 X0.7616 Y1.0798
N12180 X0.7673 Y1.0891
N12185 X0.7733 Y1.0981
N12190 X0.7797 Y1.1067
N12195 X0.7866 Y1.1152
N12200 X0.8008 Y1.1317
N12205 X0.8172 Y1.1467
N12210 X0.8257 Y1.1536
N12215 X0.8344 Y1.16
N12220 X0.8436 Y1.1657
N12225 X0.8532 Y1.171
N12230 X0.8732 Y1.1809
N12235 X0.8966 Y1.189
N12240 X0.9084 Y1.1924
N12245 X0.9201 Y1.1951
N12250 X0.9321 Y1.197
N12255 X0.9442 Y1.1982
N12260 X0.9691 Y1.1994
N12265 X0.9864 Y1.1986
N12270 X1.0038 Y1.1973
N12275 X1.0207 Y1.1952
N12280 X1.0372 Y1.1919
N12285 X1.045 Y1.1897
N12290 X1.0528 Y1.1871
N12295 X1.0686 Y1.1807
N12300 X1.0843 Y1.1733
N12305 X1.0993 Y1.1656
N12310 X1.1091 Y1.1583
N12315 X1.1188 Y1.1506
N12320 X1.1274 Y1.1424
N12325 X1.1309 Y1.1384
N12330 X1.1341 Y1.1341
N12335 X1.1368 Y1.1297
N12340 X1.1391 Y1.1249
N12345 X1.1412 Y1.1198
N12350 X1.1429 Y1.1144
N12355 X1.1458 Y1.1025
N12360 X1.1479 Y1.0912
N12365 X1.1469 Y1.0812
N12370 X1.146 Y1.0764
N12375 X1.1446 Y1.072
N12380 X1.1427 Y1.0678
N12385 X1.1403 Y1.0636
N12390 X1.1343 Y1.0553
N12395 X1.126 Y1.0487
N12400 X1.1219 Y1.046
N12405 X1.1177 Y1.044
N12410 X1.1132 Y1.0426
N12415 X1.1082 Y1.0417
N12420 X1.0971 Y1.0407
N12425 X1.0865 Y1.0417
N12430 X1.0817 Y1.0426
N12435 X1.0774 Y1.044
N12440 X1.0734 Y1.0458
N12445 X1.0693 Y1.0483
N12450 X1.0612 Y1.0544
N12455 X1.0552 Y1.0622
N12460 X1.0527 Y1.0661
N12465 X1.0509 Y1.07
N12470 X1.0496 Y1.0741
N12475 X1.0487 Y1.0787
N12480 X1.0477 Y1.0889
N12485 X1.0487 Y1.0996
N12490 X1.0496 Y1.1044
N12495 X1.051 Y1.1087
N12500 X1.0529 Y1.1126
N12505 X1.0555 Y1.1166
N12510 X1.062 Y1.1245
N12515 X1.0705 Y1.1302
N12520 X1.0749 Y1.1326
N12525 X1.0793 Y1.1344
N12530 X1.0839 Y1.1357
N12535 X1.0889 Y1.1365
N12540 X1.1007 Y1.1374
N12545 G3 X1.1098 Y1.1474 I-0.0008 J0.01
N12550 G1 X1.1099 Y1.149
N12555 X1.1096 Y1.1512
N12560 X1.1089 Y1.1532
N12565 X1.1078 Y1.1551
N12570 X1.1063 Y1.1567
N12575 X1.0977 Y1.1639
N12580 X1.097 Y1.1644
N12585 X1.0878 Y1.1707
N12590 X1.0868 Y1.1714
N12595 X1.0769 Y1.1765
N12600 X1.0764 Y1.1768
N12605 X1.0661 Y1.1814
N12610 X1.0652 Y1.1817
N12615 X1.0485 Y1.1874
N12620 X1.0481 Y1.1875
N12625 X1.0396 Y1.1899
N12630 X1.039 Y1.1901
N12635 X1.0305 Y1.1919
N12640 X1.0298 Y1.1921
N12645 X1.0212 Y1.1933
N12650 X1.0206 Y1.1934
N12655 X1.0119 Y1.1942
N12660 X1.0115
N12665 X0.9938 Y1.195
N12670 X0.9926
N12675 X0.979 Y1.1939
N12680 X0.9787
N12685 X0.9653 Y1.1924
N12690 X0.9646 Y1.1923
N12695 X0.9515 Y1.19
N12700 X0.9505 Y1.1898
N12705 X0.9379 Y1.1862
N12710 X0.937 Y1.1859
N12715 X0.9309 Y1.1835
N12720 X0.9303 Y1.1832
N12725 X0.9243 Y1.1805
N12730 X0.9237 Y1.1802
N12735 X0.912 Y1.1737
N12740 X0.9115 Y1.1734
N12745 X0.9001 Y1.1661
N12750 X0.8998 Y1.1659
N12755 X0.8887 Y1.1581
N12760 X0.8871 Y1.1568
N12765 X0.8666 Y1.1355
N12770 X0.8662 Y1.135
N12775 X0.8568 Y1.1237
N12780 X0.8563 Y1.1231
N12785 X0.8478 Y1.1112
N12790 X0.8473 Y1.1105
N12795 X0.84 Y1.0978
N12800 X0.8397 Y1.0972
N12805 X0.8332 Y1.084
N12810 X0.833 Y1.0835
N12815 X0.8216 Y1.0561
N12820 X0.8212 Y1.0549
N12825 X0.8115 Y1.0195
N12830 X0.8114 Y1.0191
N12835 X0.8073 Y1.0013
N12840 X0.8072 Y1.0008
N12845 X0.804 Y0.9828
N12850 X0.8039 Y0.9823
N12855 X0.8017 Y0.9641
N12860 Y0.9637
N12865 X0.8003 Y0.9455
N12870 Y0.9451
N12875 X0.7989 Y0.9084
N12880 X0.7988 Y0.9079
N12885 X0.7992 Y0.8809
N12890 Y0.8806
N12895 X0.8005 Y0.8536
N12900 Y0.8531
N12905 X0.8032 Y0.8257
N12910 X0.8033 Y0.8251
N12915 X0.8075 Y0.7978
N12920 X0.8076 Y0.7973
N12925 X0.8133 Y0.7705
N12930 X0.8135 Y0.7697
N12935 X0.8212 Y0.7434
N12940 X0.8215 Y0.7427
N12945 X0.826 Y0.7305
N12950 X0.8262 Y0.7302
N12955 X0.8313 Y0.7183
N12960 X0.8316 Y0.7176
N12965 X0.8375 Y0.7061
N12970 X0.8377 Y0.7057
N12975 X0.844 Y0.6944
N12980 X0.8444 Y0.6938
N12985 X0.8514 Y0.6833
N12990 X0.8517 Y0.6829
N12995 X0.8592 Y0.6729
N13000 X0.8598 Y0.6722
N13005 X0.8683 Y0.6629
N13010 X0.8687 Y0.6625
N13015 X0.8777 Y0.6538
N13020 X0.8786 Y0.653
N13025 X0.8888 Y0.6452
N13030 X0.8894 Y0.6448
N13035 X0.9 Y0.6379
N13040 X0.901 Y0.6373
N13045 X0.9124 Y0.6316
N13050 X0.9131 Y0.6313
N13055 X0.9249 Y0.6264
N13060 X0.9259 Y0.6261
N13065 X0.9399 Y0.622
N13070 X0.9406 Y0.6218
N13075 X0.9547 Y0.6187
N13080 X0.9558 Y0.6185
N13085 X0.9702 Y0.6169
N13090 X0.9708 Y0.6168
N13095 X0.9854 Y0.6162
N13100 X0.9864
N13105 X1.0055 Y0.6172
N13110 X1.0059
N13115 X1.0154 Y0.6181
N13120 X1.0159
N13125 X1.0253 Y0.6194
N13130 X1.026 Y0.6195
N13135 X1.0447 Y0.6234
N13140 X1.0452 Y0.6235
N13145 X1.0638 Y0.6284
N13150 G3 X1.0713 Y0.638 I-0.0025 J0.0097
N13155 G1 X1.072 Y0.8585
N13160 G3 X1.0628 Y0.8685 I-0.01 J0.
N13165 G1 X1.0207 Y0.8718
N13170 G0 Z0.2
N13175 X2.0375 Y1.1722
N13180 G1 Z-0.01 F200.
N13185 X2.0365 Y1.1763 F600.
N13190 X2.0357 Y1.1855
N13195 X2.0359 Y1.1898
N13200 X2.0365 Y1.1941
N13205 X2.0376 Y1.1983
N13210 X2.039 Y1.2023
N13215 X2.0432 Y1.2098
N13220 X2.0485 Y1.2163
N13225 X2.055 Y1.2216
N13230 X2.0623 Y1.2255
N13235 X2.0705 Y1.2279
N13240 X2.0793 Y1.2288
N13245 X2.0835 Y1.2285
N13250 X2.0877 Y1.2279
N13255 X2.0918 Y1.2268
N13260 X2.0957 Y1.2254
N13265 X2.1033 Y1.2212
N13270 X2.11 Y1.2158
N13275 X2.1155 Y1.2094
N13280 X2.1197 Y1.2018
N13285 X2.1211 Y1.1979
N13290 X2.1222 Y1.1938
N13295 X2.1228 Y1.1896
N13300 X2.123 Y1.1853
N13305 X2.1228 Y1.181
N13310 X2.1222 Y1.1768
N13315 X2.1211 Y1.1727
N13320 X2.1196 Y1.1688
N13325 X2.1155 Y1.1611
N13330 X2.1101 Y1.1544
N13335 X2.1036 Y1.149
N13340 X2.0961 Y1.1448
N13345 X2.0921 Y1.1434
N13350 X2.0879 Y1.1422
N13355 X2.0836 Y1.1417
N13360 X2.0791 Y1.1414
N13365 X2.0747 Y1.1417
N13370 X2.0703 Y1.1422
N13375 X2.0662 Y1.1434
N13380 X2.0622 Y1.1448
N13385 X2.0546 Y1.1489
N13390 X2.0482 Y1.1543
N13395 X2.0429 Y1.1607
N13400 X2.0389 Y1.1682
N13405 X2.0375 Y1.1722
N13410 G0 Z0.2
N13415 X2.909 Y1.0456
N13420 G1 Z-0.01 F200.
N13425 X2.9103 Y1.0466 F600.
N13430 X2.9149 Y1.0494
N13435 X2.9199 Y1.0518
N13440 X2.9252 Y1.0539
N13445 X2.9372 Y1.0576
N13450 X2.9485 Y1.0604
N13455 X2.9566 Y1.0598
N13460 X2.9606 Y1.0591
N13465 X2.9641 Y1.0581
N13470 X2.9674 Y1.0567
N13475 X2.9707 Y1.0547
N13480 X2.9772 Y1.0499
N13485 X2.9818 Y1.0439
N13490 X2.9837 Y1.0408
N13495 X2.985 Y1.0379
N13500 X2.986 Y1.0347
N13505 X2.9867 Y1.0311
N13510 X2.9875 Y1.023
N13515 X2.9869 Y1.016
N13520 X2.9863 Y1.0128
N13525 X2.9855 Y1.01
N13530 X2.9844 Y1.0074
N13535 X2.9829 Y1.0046
N13540 X2.9792 Y0.9991
N13545 X2.9746 Y0.995
N13550 X2.9724 Y0.9934
N13555 X2.9704 Y0.9923
N13560 X2.9682 Y0.9915
N13565 X2.9655 Y0.9909
N13570 X2.9592 Y0.9901
N13575 X2.9524 Y0.9907
N13580 X2.9493 Y0.9912
N13585 X2.9465 Y0.9919
N13590 X2.9439 Y0.993
N13595 X2.9413 Y0.9944
N13600 X2.936 Y0.9979
N13605 X2.9322 Y1.0026
N13610 X2.9307 Y1.0049
N13615 X2.9296 Y1.0071
N13620 X2.9289 Y1.0095
N13625 X2.9283 Y1.0124
N13630 X2.9277 Y1.0193
N13635 X2.9279 Y1.0233
N13640 X2.9284 Y1.0271
N13645 X2.9295 Y1.0306
N13650 X2.9313 Y1.0349
N13655 X2.9319 Y1.0368
N13660 X2.9321 Y1.0389
N13665 Y1.0405
N13670 G3 X2.9185 Y1.0498 I-0.01 J0.
N13675 G1 X2.9124 Y1.0474
N13680 X2.9111 Y1.0468
N13685 X2.909 Y1.0456
N13690 X2.9059 Y1.0436 Z-0.0098
N13695 X2.9048 Y1.0427 Z-0.0096
N13700 X2.9018 Y1.0401
N13705 X2.8993 Y1.0376 Z-0.0094
N13710 X2.8987 Y1.037
N13715 X2.8944 Y1.0318 Z-0.0092
N13720 X2.8904 Y1.0264 Z-0.0093
N13725 X2.8886 Y1.0238 Z-0.0092
N13730 X2.8835 Y1.0158
N13735 X2.8788 Y1.0072 Z-0.0095
N13740 X2.877 Y1.0036 Z-0.0097
N13745 X2.8764 Y1.0025 Z-0.0098
N13750 X2.8756 Y1.0013 Z-0.01
N13755 G2 X2.8633 Y1. I-0.007 J0.0072
N13760 G1 X2.8507 Y1.0079
N13765 X2.8381 Y1.0152
N13770 X2.8254 Y1.0215
N13775 X2.8192 Y1.024
N13780 X2.813 Y1.0261
N13785 X2.7996 Y1.0294
N13790 X2.7857 Y1.0315
N13795 X2.7748 Y1.0325
N13800 X2.7662 Y1.0336 Z-0.0096
N13805 X2.7579 Y1.0343 Z-0.0093
N13810 X2.7568 Y1.0344
N13815 X2.7474 Y1.0334 Z-0.0096
N13820 X2.7414 Y1.0326 Z-0.01
N13825 X2.7413
N13830 X2.7257 Y1.031
N13835 X2.7106 Y1.0285
N13840 X2.7035 Y1.0268
N13845 X2.6965 Y1.0248
N13850 X2.6897 Y1.0222
N13855 X2.6831 Y1.0193
N13860 X2.6697 Y1.0121
N13865 X2.6564 Y1.0039
N13870 X2.6438 Y0.9955
N13875 X2.6343 Y0.9858
N13880 X2.6249 Y0.9754
N13885 X2.6167 Y0.9647
N13890 X2.6133 Y0.9595
N13895 X2.6104 Y0.954
N13900 X2.6079 Y0.9483
N13905 X2.6059 Y0.9425
N13910 X2.6027 Y0.9294
N13915 X2.6006 Y0.9156
N13920 X2.599 Y0.9021
N13925 X2.6003 Y0.8848
N13930 X2.6015 Y0.8764
N13935 X2.6032 Y0.8684
N13940 X2.6058 Y0.8605
N13945 X2.609 Y0.8527
N13950 X2.6166 Y0.8372
N13955 X2.6272 Y0.8232
N13960 X2.6328 Y0.8168
N13965 X2.6388 Y0.8111
N13970 X2.6454 Y0.806
N13975 X2.6526 Y0.8013
N13980 X2.6688 Y0.7923
N13985 G2 X2.6739 Y0.7835 I-0.0049 J-0.0087
N13990 G1 Y0.7827
N13995 Y0.782
N14000 X2.681 Y0.7847
N14005 X2.683 Y0.7853
N14010 X2.685 Y0.7854
N14015 X2.6871 Y0.7851
N14020 X2.7044 Y0.7807
N14025 X2.7129 Y0.7789
N14030 X2.7212 Y0.7775
N14035 X2.7385 Y0.7759
N14040 X2.7427 Y0.7758
N14045 X2.7538 Y0.7747 Z-0.0093
N14050 X2.7558 Y0.7746
N14055 X2.7574 Y0.7748 Z-0.0094
N14060 X2.7611 Y0.7756 Z-0.01
N14065 X2.7712 Y0.7763
N14070 X2.7866 Y0.7777
N14075 X2.8015 Y0.78
N14080 X2.8085 Y0.7816
N14085 X2.8154 Y0.7836
N14090 X2.8221 Y0.7859
N14095 X2.8287 Y0.7887
N14100 X2.842 Y0.7956
N14105 X2.8552 Y0.8035
N14110 X2.8675 Y0.8116
N14115 X2.8767 Y0.821
N14120 X2.8859 Y0.8312
N14125 X2.8938 Y0.8417
N14130 X2.897 Y0.8468
N14135 X2.8998 Y0.8522
N14140 X2.9022 Y0.8578
N14145 X2.9041 Y0.8635
N14150 X2.9071 Y0.8764
N14155 X2.909 Y0.8899
N14160 X2.9105 Y0.9031
N14165 X2.9093 Y0.9147
N14170 X2.9077 Y0.9268
N14175 X2.9053 Y0.9383
N14180 X2.9037 Y0.9436
N14185 X2.9019 Y0.9486
N14190 X2.897 Y0.9588
N14195 X2.8908 Y0.9687
N14200 X2.8836 Y0.9785
N14205 X2.8758 Y0.9885
N14210 G2 X2.8745 Y0.9987 I0.0079 J0.0062
N14215 G1 X2.8756 Y1.0013
N14220 X2.8745 Y0.9987
N14225 G3 X2.8758 Y0.9885 I0.0091 J-0.004
N14230 G1 X2.8836 Y0.9785
N14235 X2.8908 Y0.9687
N14240 X2.897 Y0.9588
N14245 X2.9019 Y0.9486
N14250 X2.9037 Y0.9436
N14255 X2.9053 Y0.9383
N14260 X2.9077 Y0.9268
N14265 X2.9093 Y0.9147
N14270 X2.9105 Y0.9031
N14275 X2.909 Y0.8899
N14280 X2.9071 Y0.8764
N14285 X2.9041 Y0.8635
N14290 X2.9022 Y0.8578
N14295 X2.8998 Y0.8522
N14300 X2.897 Y0.8468
N14305 X2.8938 Y0.8417
N14310 X2.8859 Y0.8312
N14315 X2.8767 Y0.821
N14320 X2.8675 Y0.8116
N14325 X2.8552 Y0.8035
N14330 X2.842 Y0.7956
N14335 X2.8287 Y0.7887
N14340 X2.8221 Y0.7859
N14345 X2.8154 Y0.7836
N14350 X2.8085 Y0.7816
N14355 X2.8015 Y0.78
N14360 X2.7866 Y0.7777
N14365 X2.7712 Y0.7763
N14370 X2.7611 Y0.7756
N14375 X2.7772 Y0.7828
N14380 X2.7777 Y0.783
N14385 X2.7862 Y0.7873
N14390 X2.7868 Y0.7877
N14395 X2.7947 Y0.7924
N14400 X2.7955 Y0.7929
N14405 X2.8027 Y0.7981
N14410 X2.8037 Y0.7989
N14415 X2.81 Y0.8048
N14420 X2.811 Y0.806
N14425 X2.8162 Y0.8126
N14430 X2.8171 Y0.8139
N14435 X2.8212 Y0.8213
N14440 X2.8217 Y0.8225
N14445 X2.8249 Y0.8306
N14450 X2.8252 Y0.8317
N14455 X2.8275 Y0.8403
N14460 X2.8277 Y0.8412
N14465 X2.8293 Y0.8503
N14470 X2.8294 Y0.851
N14475 X2.8304 Y0.8605
N14480 Y0.8611
N14485 X2.8309 Y0.8709
N14490 Y0.8713
N14495 X2.8311 Y0.8814
N14500 Y0.8817
N14505 X2.8308 Y0.9024
N14510 X2.8304 Y0.9264
N14515 Y0.9268
N14520 X2.8297 Y0.9387
N14525 X2.8296 Y0.9392
N14530 X2.8283 Y0.951
N14535 X2.8282 Y0.9517
N14540 X2.826 Y0.9633
N14545 X2.8259 Y0.964
N14550 X2.8229 Y0.9755
N14555 X2.8227 Y0.976
N14560 X2.8153 Y0.9987
N14565 X2.8148 Y1.
N14570 X2.814 Y1.0013
N14575 X2.8096 Y1.0077
N14580 X2.8093 Y1.0081
N14585 X2.8046 Y1.0142
N14590 X2.8039 Y1.015
N14595 X2.7988 Y1.0204
N14600 X2.7976 Y1.0215
N14605 X2.7918 Y1.0258
N14610 X2.79 Y1.0269
N14615 X2.7835 Y1.0299
N14620 X2.782 Y1.0305
N14625 X2.7748 Y1.0325
N14630 X2.782 Y1.0305
N14635 X2.7835 Y1.0299
N14640 X2.79 Y1.0269
N14645 X2.7918 Y1.0258
N14650 X2.7976 Y1.0215
N14655 X2.7988 Y1.0204
N14660 X2.8039 Y1.015
N14665 X2.8046 Y1.0142
N14670 X2.8093 Y1.0081
N14675 X2.8096 Y1.0077
N14680 X2.814 Y1.0013
N14685 X2.8148 Y1.
N14690 X2.8153 Y0.9987
N14695 X2.8227 Y0.976
N14700 X2.8229 Y0.9755
N14705 X2.8259 Y0.964
N14710 X2.826 Y0.9633
N14715 X2.8282 Y0.9517
N14720 X2.8283 Y0.951
N14725 X2.8296 Y0.9392
N14730 X2.8297 Y0.9387
N14735 X2.8304 Y0.9268
N14740 Y0.9264
N14745 X2.8308 Y0.9024
N14750 X2.8311 Y0.8817
N14755 Y0.8814
N14760 X2.8309 Y0.8713
N14765 Y0.8709
N14770 X2.8304 Y0.8611
N14775 Y0.8605
N14780 X2.8294 Y0.851
N14785 X2.8293 Y0.8503
N14790 X2.8277 Y0.8412
N14795 X2.8275 Y0.8403
N14800 X2.8252 Y0.8317
N14805 X2.8249 Y0.8306
N14810 X2.8217 Y0.8225
N14815 X2.8212 Y0.8213
N14820 X2.8171 Y0.8139
N14825 X2.8162 Y0.8126
N14830 X2.811 Y0.806
N14835 X2.81 Y0.8048
N14840 X2.8037 Y0.7989
N14845 X2.8027 Y0.7981
N14850 X2.7955 Y0.7929
N14855 X2.7947 Y0.7924
N14860 X2.7868 Y0.7877
N14865 X2.7862 Y0.7873
N14870 X2.7777 Y0.783
N14875 X2.7772 Y0.7828
N14880 X2.7611 Y0.7756
N14885 X2.7574 Y0.7748 Z-0.0094
N14890 X2.7558 Y0.7746 Z-0.0093
N14895 X2.7538 Y0.7747
N14900 X2.7427 Y0.7758 Z-0.01
N14905 X2.7377 Y0.7768
N14910 X2.7366 Y0.777
N14915 X2.7294 Y0.7792
N14920 X2.7279 Y0.7798
N14925 X2.7213 Y0.7831
N14930 X2.7196 Y0.7842
N14935 X2.7138 Y0.7887
N14940 X2.7126 Y0.7898
N14945 X2.7074 Y0.7954
N14950 X2.7067 Y0.7963
N14955 X2.6974 Y0.8092
N14960 X2.6967 Y0.8103
N14965 X2.6961 Y0.8116
N14970 X2.6881 Y0.8332
N14975 X2.6879 Y0.8338
N14980 X2.6846 Y0.8448
N14985 X2.6844 Y0.8455
N14990 X2.682 Y0.8567
N14995 X2.6818 Y0.8574
N15000 X2.6803 Y0.8687
N15005 X2.6802 Y0.8693
N15010 X2.6793 Y0.8808
N15015 Y0.8813
N15020 X2.6787 Y0.9044
N15025 Y0.905
N15030 X2.6794 Y0.928
N15035 Y0.9285
N15040 X2.6804 Y0.9399
N15045 Y0.9405
N15050 X2.6821 Y0.9518
N15055 X2.6822 Y0.9526
N15060 X2.6848 Y0.9636
N15065 X2.685 Y0.9644
N15070 X2.6884 Y0.9752
N15075 X2.6887 Y0.9758
N15080 X2.697 Y0.9972
N15085 X2.6975 Y0.9984
N15090 X2.6982 Y0.9995
N15095 X2.7078 Y1.0124
N15100 X2.7085 Y1.0134
N15105 X2.7138 Y1.019
N15110 X2.7149 Y1.02
N15115 X2.7208 Y1.0246
N15120 X2.7225 Y1.0257
N15125 X2.7292 Y1.029
N15130 X2.7307 Y1.0296
N15135 X2.738 Y1.0319
N15140 X2.739 Y1.0322
N15145 X2.7414 Y1.0326
N15150 X2.739 Y1.0322
N15155 X2.738 Y1.0319
N15160 X2.7307 Y1.0296
N15165 X2.7292 Y1.029
N15170 X2.7225 Y1.0257
N15175 X2.7208 Y1.0246
N15180 X2.7149 Y1.02
N15185 X2.7138 Y1.019
N15190 X2.7085 Y1.0134
N15195 X2.7078 Y1.0124
N15200 X2.6982 Y0.9995
N15205 X2.6975 Y0.9984
N15210 X2.697 Y0.9972
N15215 X2.6887 Y0.9758
N15220 X2.6884 Y0.9752
N15225 X2.685 Y0.9644
N15230 X2.6848 Y0.9636
N15235 X2.6822 Y0.9526
N15240 X2.6821 Y0.9518
N15245 X2.6804 Y0.9405
N15250 Y0.9399
N15255 X2.6794 Y0.9285
N15260 Y0.928
N15265 X2.6787 Y0.905
N15270 Y0.9044
N15275 X2.6793 Y0.8813
N15280 Y0.8808
N15285 X2.6802 Y0.8693
N15290 X2.6803 Y0.8687
N15295 X2.6818 Y0.8574
N15300 X2.682 Y0.8567
N15305 X2.6844 Y0.8455
N15310 X2.6846 Y0.8448
N15315 X2.6879 Y0.8338
N15320 X2.6881 Y0.8332
N15325 X2.6961 Y0.8116
N15330 X2.6967 Y0.8103
N15335 X2.6974 Y0.8092
N15340 X2.7067 Y0.7963
N15345 X2.7074 Y0.7954
N15350 X2.7126 Y0.7898
N15355 X2.7138 Y0.7887
N15360 X2.7196 Y0.7842
N15365 X2.7213 Y0.7831
N15370 X2.7279 Y0.7798
N15375 X2.7294 Y0.7792
N15380 X2.7366 Y0.777
N15385 X2.7377 Y0.7768
N15390 X2.7427 Y0.7758
N15395 X2.7385 Y0.7759
N15400 X2.7212 Y0.7775
N15405 X2.7129 Y0.7789
N15410 X2.7044 Y0.7807
N15415 X2.6871 Y0.7851
N15420 X2.685 Y0.7854
N15425 X2.683 Y0.7853
N15430 X2.681 Y0.7847
N15435 X2.6739 Y0.782
N15440 X2.6727 Y0.7804 Z-0.009
N15445 X2.6713 Y0.7791 Z-0.0082
N15450 X2.6697 Y0.7777 Z-0.0077
N15455 X2.6684 Y0.7768 Z-0.0074
N15460 X2.6671 Y0.7761 Z-0.0073
N15465 X2.6612 Y0.7735 Z-0.0075
N15470 X2.6522 Y0.7689 Z-0.0085
N15475 X2.6506 Y0.768 Z-0.0086
N15480 X2.6457 Y0.7651 Z-0.0092
N15485 X2.6407 Y0.7617 Z-0.0096
N15490 X2.6397 Y0.761 Z-0.0097
N15495 X2.6373 Y0.759 Z-0.01
N15500 X2.6339 Y0.7553
N15505 X2.6333 Y0.7547
N15510 X2.6309 Y0.7517
N15515 X2.6303 Y0.7508
N15520 X2.6283 Y0.7476
N15525 X2.6276 Y0.7463
N15530 X2.6261 Y0.7429
N15535 X2.6257 Y0.7417
N15540 X2.6246 Y0.7381
N15545 X2.6243 Y0.7371
N15550 X2.6229 Y0.7294
N15555 X2.6228 Y0.727
N15560 X2.6232 Y0.7245
N15565 X2.6243 Y0.7223
N15570 X2.6258 Y0.7204
N15575 X2.6393 Y0.7075
N15580 X2.6397 Y0.7072
N15585 X2.6466 Y0.7012
N15590 X2.6471 Y0.7008
N15595 X2.6543 Y0.6955
N15600 X2.655 Y0.6949
N15605 X2.6625 Y0.6904
N15610 X2.6635 Y0.6898
N15615 X2.6713 Y0.6861
N15620 X2.6723 Y0.6857
N15625 X2.6805 Y0.6829
N15630 X2.6813 Y0.6826
N15635 X2.6898 Y0.6805
N15640 X2.6906 Y0.6803
N15645 X2.6994 Y0.6789
N15650 X2.7001 Y0.6788
N15655 X2.7091 Y0.6779
N15660 X2.7097
N15665 X2.7189 Y0.6775
N15670 X2.7193
N15675 X2.7287 Y0.6776
N15680 X2.7292
N15685 X2.7484 Y0.6786
N15690 X2.7487
N15695 X2.7677 Y0.6803
N15700 X2.7898 Y0.68
N15705 X2.8122 Y0.6792
N15710 X2.8344 Y0.6772
N15715 X2.8565 Y0.6745
N15720 X2.8711 Y0.6715
N15725 X2.8781 Y0.6698
N15730 X2.8848 Y0.6677
N15735 X2.8914 Y0.6652
N15740 X2.8979 Y0.6622
N15745 X2.9107 Y0.6557
N15750 X2.9198 Y0.6488
N15755 X2.9238 Y0.6452
N15760 X2.9274 Y0.6415
N15765 X2.9305 Y0.6374
N15770 X2.9333 Y0.6328
N15775 X2.9385 Y0.6229
N15780 X2.9424 Y0.6096
N15785 X2.944 Y0.6028
N15790 X2.9452 Y0.5962
N15795 X2.9466 Y0.582
N15800 X2.947 Y0.5676
N15805 X2.9465 Y0.5584
N15810 X2.9455 Y0.5494
N15815 X2.9436 Y0.5405
N15820 X2.9412 Y0.5318
N15825 X2.9374 Y0.5223
N15830 X2.9331 Y0.5132
N15835 X2.9277 Y0.5046
N15840 X2.9218 Y0.4963
N15845 X2.9141 Y0.4874
N15850 X2.9059 Y0.4792
N15855 X2.8969 Y0.4717
N15860 X2.8875 Y0.4649
N15865 X2.8818 Y0.4616
N15870 X2.8894 Y0.4678
N15875 X2.8898 Y0.4681
N15880 X2.897 Y0.4744
N15885 X2.8977 Y0.4751
N15890 X2.9041 Y0.4819
N15895 X2.905 Y0.483
N15900 X2.9104 Y0.4904
N15905 X2.9111 Y0.4916
N15910 X2.9132 Y0.4956
N15915 X2.9136 Y0.4964
N15920 X2.9154 Y0.5007
N15925 X2.9157 Y0.5017
N15930 X2.9184 Y0.5107
N15935 X2.9186 Y0.5116
N15940 X2.9204 Y0.5211
N15945 X2.9205 Y0.5215
N15950 X2.9219 Y0.5312
N15955 X2.922 Y0.5334
N15960 X2.9211 Y0.5443
N15965 X2.921 Y0.5451
N15970 X2.9202 Y0.5503
N15975 X2.9199 Y0.5514
N15980 X2.9185 Y0.5564
N15985 X2.9181 Y0.5578
N15990 X2.916 Y0.5626
N15995 X2.9155 Y0.5636
N16000 X2.9128 Y0.5682
N16005 X2.9123 Y0.569
N16010 X2.9059 Y0.5778
N16015 X2.905 Y0.5789
N16020 X2.9038 Y0.5799
N16025 X2.8947 Y0.5868
N16030 X2.8941 Y0.5873
N16035 X2.8893 Y0.5903
N16040 X2.8885 Y0.5908
N16045 X2.8835 Y0.5934
N16050 X2.8826 Y0.5938
N16055 X2.8773 Y0.5959
N16060 X2.8766 Y0.5961
N16065 X2.8712 Y0.5978
N16070 X2.8705 Y0.5979
N16075 X2.8593 Y0.6005
N16080 X2.8584 Y0.6007
N16085 X2.8317 Y0.6044
N16090 X2.831 Y0.6045
N16095 X2.804 Y0.6062
N16100 X2.8036 Y0.6063
N16105 X2.7388 Y0.6075
N16110 X2.7079 Y0.6088
N16115 X2.6928 Y0.6103
N16120 X2.6774 Y0.6123
N16125 X2.6751
N16130 X2.6729 Y0.6118
N16135 X2.6708 Y0.6108
N16140 X2.669 Y0.6094
N16145 X2.6681 Y0.6115
N16150 X2.6667 Y0.6133
N16155 X2.665 Y0.6147
N16160 X2.663 Y0.6158
N16165 X2.6483 Y0.6212
N16170 X2.6347 Y0.627
N16175 X2.6286 Y0.6301
N16180 X2.6231 Y0.6335
N16185 X2.6181 Y0.6371
N16190 X2.6137 Y0.641
N16195 X2.61 Y0.6453
N16200 X2.6068 Y0.6502
N16205 X2.604 Y0.6556
N16210 X2.6016 Y0.6616
N16215 X2.5974 Y0.6753
N16220 X2.5942 Y0.6885
N16225 X2.596 Y0.7032
N16230 X2.5975 Y0.7104
N16235 X2.5998 Y0.717
N16240 X2.6029 Y0.7232
N16245 X2.6069 Y0.7294
N16250 X2.6167 Y0.7418
N16255 X2.6281 Y0.7519
N16260 X2.6339 Y0.7566
N16265 X2.6373 Y0.759
N16270 X2.6339 Y0.7566
N16275 X2.6281 Y0.7519
N16280 X2.6167 Y0.7418
N16285 X2.6069 Y0.7294
N16290 X2.6029 Y0.7232
N16295 X2.5998 Y0.717
N16300 X2.5975 Y0.7104
N16305 X2.596 Y0.7032
N16310 X2.5942 Y0.6885
N16315 X2.5974 Y0.6753
N16320 X2.6016 Y0.6616
N16325 X2.604 Y0.6556
N16330 X2.6068 Y0.6502
N16335 X2.61 Y0.6453
N16340 X2.6137 Y0.641
N16345 X2.6181 Y0.6371
N16350 X2.6231 Y0.6335
N16355 X2.6286 Y0.6301
N16360 X2.6347 Y0.627
N16365 X2.6483 Y0.6212
N16370 X2.663 Y0.6158
N16375 X2.665 Y0.6147
N16380 X2.6667 Y0.6133
N16385 X2.6681 Y0.6115
N16390 X2.669 Y0.6094
N16395 X2.6685 Y0.6077 Z-0.0091
N16400 X2.6676 Y0.6056 Z-0.0081
N16405 X2.6671 Y0.6046 Z-0.0077
N16410 X2.6667 Y0.6037 Z-0.0074
N16415 X2.6661 Y0.6029 Z-0.0071
N16420 X2.6655 Y0.602 Z-0.007
N16425 X2.6648 Y0.6013 Z-0.0068
N16430 X2.6635 Y0.6001
N16435 X2.6625 Y0.5993 Z-0.007
N16440 X2.6618 Y0.5988 Z-0.0072
N16445 X2.6609 Y0.5983 Z-0.0074
N16450 X2.6601 Y0.5979 Z-0.0077
N16455 X2.6542 Y0.5952 Z-0.01
N16460 X2.654 Y0.5949
N16465 X2.6534 Y0.5943
N16470 X2.6471 Y0.5867
N16475 X2.6465 Y0.5859
N16480 X2.6438 Y0.5819
N16485 X2.6433 Y0.5812
N16490 X2.641 Y0.577
N16495 X2.6404 Y0.5758
N16500 X2.6369 Y0.5669
N16505 X2.6364 Y0.5655
N16510 X2.6341 Y0.556
N16515 X2.634 Y0.5551
N16520 X2.6325 Y0.5451
N16525 X2.6324 Y0.5447
N16530 X2.6313 Y0.5345
N16535 Y0.5327
N16540 X2.6321 Y0.5213
N16545 Y0.5207
N16550 X2.6329 Y0.5151
N16555 X2.633 Y0.5143
N16560 X2.6342 Y0.5088
N16565 X2.6345 Y0.5078
N16570 X2.6362 Y0.5025
N16575 X2.6366 Y0.5017
N16580 X2.6388 Y0.4965
N16585 X2.6391 Y0.4959
N16590 X2.6443 Y0.4857
N16595 X2.6454 Y0.484
N16600 X2.6522 Y0.4756
N16605 X2.6526 Y0.4751
N16610 X2.6562 Y0.4711
N16615 X2.6568 Y0.4706
N16620 X2.6606 Y0.467
N16625 X2.6614 Y0.4663
N16630 X2.6656 Y0.4631
N16635 X2.6663 Y0.4627
N16640 X2.6708 Y0.4598
N16645 X2.6713 Y0.4594
N16650 X2.6808 Y0.4542
N16655 X2.6818 Y0.4537
N16660 X2.6922 Y0.4494
N16665 X2.6927 Y0.4492
N16670 X2.7032 Y0.4454
N16675 X2.7039 Y0.4452
N16680 X2.7148 Y0.4422
N16685 X2.7152 Y0.4421
N16690 X2.7262 Y0.4396
N16695 X2.7269 Y0.4395
N16700 X2.7389 Y0.4376
N16705 X2.7392
N16710 X2.7512 Y0.4361
N16715 X2.7518
N16720 X2.7639 Y0.4354
N16725 X2.7643
N16730 X2.7764 Y0.4351
N16735 X2.7771
N16740 X2.7996 Y0.4361
N16745 X2.7986 Y0.436
N16750 X2.7802 Y0.4346
N16755 X2.7616 Y0.434
N16760 X2.7376 Y0.4345
N16765 X2.7137 Y0.436
N16770 X2.6888 Y0.4392
N16775 X2.6642 Y0.4443
N16780 X2.6526 Y0.4474
N16785 X2.6413 Y0.4509
N16790 X2.6304 Y0.4552
N16795 X2.6198 Y0.46
N16800 X2.6113 Y0.4652
N16805 X2.6036 Y0.4709
N16810 X2.5967 Y0.4777
N16815 X2.5905 Y0.4851
N16820 X2.5855 Y0.4937
N16825 X2.5834 Y0.4979
N16830 X2.5819 Y0.502
N16835 X2.5808 Y0.5063
N16840 X2.58 Y0.511
N16845 X2.5791 Y0.521
N16850 X2.5798 Y0.5301
N16855 X2.5813 Y0.5391
N16860 X2.5825 Y0.543
N16865 X2.5842 Y0.5472
N16870 X2.5881 Y0.5556
N16875 X2.5927 Y0.5624
N16880 X2.5978 Y0.5685
N16885 X2.6038 Y0.5738
N16890 X2.6105 Y0.5786
N16895 X2.6238 Y0.5857
N16900 X2.6378 Y0.5914
N16905 X2.6488 Y0.5944
N16910 X2.6542 Y0.5952
N16915 X2.6488 Y0.5944
N16920 X2.6378 Y0.5914
N16925 X2.6238 Y0.5857
N16930 X2.6105 Y0.5786
N16935 X2.6038 Y0.5738
N16940 X2.5978 Y0.5685
N16945 X2.5927 Y0.5624
N16950 X2.5881 Y0.5556
N16955 X2.5842 Y0.5472
N16960 X2.5825 Y0.543
N16965 X2.5813 Y0.5391
N16970 X2.5798 Y0.5301
N16975 X2.5791 Y0.521
N16980 X2.58 Y0.511
N16985 X2.5808 Y0.5063
N16990 X2.5819 Y0.502
N16995 X2.5834 Y0.4979
N17000 X2.5855 Y0.4937
N17005 X2.5905 Y0.4851
N17010 X2.5967 Y0.4777
N17015 X2.6036 Y0.4709
N17020 X2.6113 Y0.4652
N17025 X2.6198 Y0.46
N17030 X2.6304 Y0.4552
N17035 X2.6413 Y0.4509
N17040 X2.6526 Y0.4474
N17045 X2.6642 Y0.4443
N17050 X2.6888 Y0.4392
N17055 X2.7137 Y0.436
N17060 X2.7376 Y0.4345
N17065 X2.7616 Y0.434
N17070 X2.7802 Y0.4346
N17075 X2.7986 Y0.436
N17080 X2.7996 Y0.4361
N17085 X2.8031 Y0.4365 Z-0.0098
N17090 X2.8164 Y0.4383 Z-0.0095
N17095 X2.8297 Y0.4408 Z-0.0093
N17100 X2.8349 Y0.4421 Z-0.0095
N17105 X2.8428 Y0.4445
N17110 X2.8488 Y0.4465 Z-0.0097
N17115 X2.8557 Y0.4491 Z-0.0098
N17120 X2.8597 Y0.4508 Z-0.01
N17125 X2.8783 Y0.4596
N17130 X2.8804 Y0.4608 Z-0.0099
N17135 X2.8818 Y0.4616 Z-0.01
N17140 X2.8804 Y0.4608 Z-0.0099
N17145 X2.8783 Y0.4596 Z-0.01
N17150 X2.8751 Y0.4578
N17155 X2.8622 Y0.4516
N17160 X2.8597 Y0.4508
N17165 G0 Z0.6

(Engrave3)
N17170 G0 X1.14 Y2.05
N17175 Z0.6
N17180 Z0.2
N17185 G1 Z0. F200.
N17190 X1.1383 Y2.0484 Z-0.0021 F600.
N17195 X1.1405 Z0.
N17200 X1.1383 Z-0.0021
N17205 X1.1378 Y2.0481 Z-0.0025
N17210 X1.1365 Y2.0471 Z-0.0035
N17215 X1.1333 Y2.0448 Z-0.0054
N17220 X1.13 Y2.0425 Z-0.007
N17225 X1.1293 Y2.0413
N17230 X1.1258 Y2.0357
N17235 X1.1213 Y2.0291
N17240 X1.1161 Y2.0215
N17245 X1.1101 Y2.0131
N17250 X1.1035 Y2.0041
N17255 X1.0964 Y1.9945
N17260 X1.0888 Y1.9846
N17265 X1.0808 Y1.9744
N17270 X1.0638 Y1.9542
N17275 X1.0549 Y1.9445
N17280 X1.0459 Y1.9352
N17285 X1.0368 Y1.9265
N17290 X1.0276 Y1.9186
N17295 X1.0185 Y1.9114
N17300 X1.0095 Y1.9052
N17305 X1.0007 Y1.8999
N17310 X0.992 Y1.8955
N17315 X0.9837 Y1.8922
N17320 X0.9758 Y1.8898
N17325 X0.9682 Y1.8884
N17330 X0.9612 Y1.8879
N17335 X0.9547 Y1.8882
N17340 X0.9487 Y1.8894
N17345 X0.9433 Y1.8912
N17350 X0.9386 Y1.8937
N17355 X0.9345 Y1.8968
N17360 X0.931 Y1.9004
N17365 X0.9281 Y1.9044
N17370 X0.926 Y1.909
N17375 X0.9246 Y1.9139
N17380 X0.924 Y1.9193
N17385 X0.9243 Y1.925
N17390 X0.9254 Y1.931
N17395 X0.9275 Y1.9373
N17400 X0.9307 Y1.9438
N17405 X0.935 Y1.9504
N17410 X0.9404 Y1.9571
N17415 X0.9468 Y1.9638
N17420 X0.9544 Y1.9705
N17425 X0.963 Y1.977
N17430 X0.9726 Y1.9834
N17435 X0.9831 Y1.9895
N17440 X0.9943 Y1.9954
N17445 X1.0061 Y2.001
N17450 X1.0184 Y2.0063
N17455 X1.0437 Y2.0161
N17460 X1.0563 Y2.0205
N17465 X1.0686 Y2.0246
N17470 X1.0804 Y2.0284
N17475 X1.0916 Y2.0318
N17480 X1.102 Y2.0349
N17485 X1.1113 Y2.0376
N17490 X1.1196 Y2.0399
N17495 X1.1265 Y2.0417
N17500 X1.13 Y2.0425
N17505 G0 Z0.2
N17510 X1.1752 Y2.0396
N17515 G1 Z0. F200.
N17520 X1.1748 Y2.0377 Z-0.0018 F600.
N17525 X1.1763 Y2.0387 Z0.
N17530 X1.1748 Y2.0377 Z-0.0018
N17535 X1.1746 Y2.0373 Z-0.0021
N17540 X1.1742 Y2.0358 Z-0.003
N17545 X1.173 Y2.0323 Z-0.0047
N17550 X1.171 Y2.0267 Z-0.007
N17555 X1.1713 Y2.0211
N17560 X1.1715 Y2.0136
N17565 X1.1717 Y2.0048
N17570 Y1.9951
N17575 Y1.9844
N17580 X1.1715 Y1.9729
N17585 X1.1711 Y1.9608
N17590 X1.1704 Y1.9482
N17595 X1.1695 Y1.9353
N17600 X1.1681 Y1.9223
N17605 X1.1663 Y1.9092
N17610 X1.1641 Y1.8963
N17615 X1.1614 Y1.8837
N17620 X1.1582 Y1.8716
N17625 X1.1546 Y1.86
N17630 X1.1504 Y1.8491
N17635 X1.1458 Y1.8389
N17640 X1.1408 Y1.8296
N17645 X1.1355 Y1.8212
N17650 X1.13 Y1.8138
N17655 X1.1242 Y1.8075
N17660 X1.1184 Y1.8022
N17665 X1.1126 Y1.7981
N17670 X1.1069 Y1.7951
N17675 X1.1015 Y1.7931
N17680 X1.0963 Y1.7922
N17685 X1.0915
N17690 X1.0871 Y1.7931
N17695 X1.0831 Y1.7948
N17700 X1.0793 Y1.7975
N17705 X1.0758 Y1.801
N17710 X1.0728 Y1.8056
N17715 X1.0702 Y1.8111
N17720 X1.0682 Y1.8175
N17725 X1.0669 Y1.8249
N17730 X1.0663 Y1.8331
N17735 X1.0666 Y1.842
N17740 X1.0676 Y1.8516
N17745 X1.0696 Y1.8618
N17750 X1.0724 Y1.8723
N17755 X1.0761 Y1.8833
N17760 X1.0805 Y1.8945
N17765 X1.0858 Y1.9059
N17770 X1.0917 Y1.9173
N17775 X1.0981 Y1.9287
N17780 X1.1051 Y1.9399
N17785 X1.1199 Y1.9618
N17790 X1.1274 Y1.9721
N17795 X1.1348 Y1.982
N17800 X1.142 Y1.9913
N17805 X1.1489 Y1.9999
N17810 X1.1552 Y2.0078
N17815 X1.161 Y2.0148
N17820 X1.166 Y2.0209
N17825 X1.1703 Y2.0259
N17830 X1.171 Y2.0267
N17835 G0 Z0.2
N17840 X1.2018 Y2.0388
N17845 G1 Z0. F200.
N17850 X1.2032 Y2.0377 Z-0.0017 F600.
N17855 X1.2029 Y2.0396 Z0.
N17860 X1.2032 Y2.0377 Z-0.0017
N17865 X1.2033 Y2.0374 Z-0.002
N17870 X1.204 Y2.0349 Z-0.0033
N17875 X1.205 Y2.0309 Z-0.005
N17880 X1.2064 Y2.0258 Z-0.007
N17885 X1.2059 Y2.0203
N17890 X1.2053 Y2.0125
N17895 X1.2047 Y2.0034
N17900 X1.2041 Y1.9932
N17905 X1.2035 Y1.982
N17910 X1.2031 Y1.9701
N17915 X1.2027 Y1.9575
N17920 X1.2026 Y1.9444
N17925 X1.2031 Y1.9174
N17930 X1.2039 Y1.904
N17935 X1.2051 Y1.8906
N17940 X1.2067 Y1.8777
N17945 X1.2088 Y1.8652
N17950 X1.2113 Y1.8533
N17955 X1.2144 Y1.8422
N17960 X1.2179 Y1.8319
N17965 X1.2218 Y1.8225
N17970 X1.226 Y1.8141
N17975 X1.2306 Y1.8067
N17980 X1.2354 Y1.8005
N17985 X1.2403 Y1.7954
N17990 X1.2453 Y1.7914
N17995 X1.2502 Y1.7885
N18000 X1.255 Y1.7867
N18005 X1.2595 Y1.7858
N18010 X1.2639 Y1.7859
N18015 X1.2681 Y1.7868
N18020 X1.2721 Y1.7885
N18025 X1.276 Y1.7912
N18030 X1.2797 Y1.7948
N18035 X1.2831 Y1.7994
N18040 X1.2861 Y1.805
N18045 X1.2886 Y1.8115
N18050 X1.2905 Y1.8188
N18055 X1.2918 Y1.827
N18060 X1.2923 Y1.8359
N18065 X1.2921 Y1.8455
N18070 X1.2911 Y1.8556
N18075 X1.2894 Y1.8663
N18080 X1.2868 Y1.8773
N18085 X1.2834 Y1.8886
N18090 X1.2793 Y1.9002
N18095 X1.2746 Y1.9119
N18100 X1.2693 Y1.9236
N18105 X1.2635 Y1.9351
N18110 X1.251 Y1.9578
N18115 X1.2445 Y1.9686
N18120 X1.238 Y1.9789
N18125 X1.2317 Y1.9887
N18130 X1.2257 Y1.9978
N18135 X1.2201 Y2.0061
N18140 X1.215 Y2.0136
N18145 X1.2105 Y2.0201
N18150 X1.2066 Y2.0255
N18155 X1.2064 Y2.0258
N18160 G0 Z0.2
N18165 X1.234 Y2.0633
N18170 G1 Z0. F200.
N18175 X1.237 Y2.0625 Z-0.003 F600.
N18180 X1.235 Y2.065 Z0.
N18185 X1.237 Y2.0625 Z-0.003
N18190 X1.2372 Y2.0623 Z-0.0032
N18195 X1.237 Y2.0655 Z0.
N18200 X1.2372 Y2.0623 Z-0.0032
N18205 X1.2384 Y2.0609 Z-0.0044
N18210 X1.241 Y2.0581 Z-0.0064
N18215 X1.242 Y2.0571 Z-0.007
N18220 X1.2432 Y2.0534
N18225 X1.2456 Y2.0472
N18230 X1.2489 Y2.0398
N18235 X1.2528 Y2.0312
N18240 X1.2574 Y2.0216
N18245 X1.2626 Y2.0113
N18250 X1.2684 Y2.0002
N18255 X1.2746 Y1.9887
N18260 X1.2812 Y1.9768
N18265 X1.2955 Y1.9526
N18270 X1.3108 Y1.9292
N18275 X1.3187 Y1.9183
N18280 X1.3266 Y1.9079
N18285 X1.3346 Y1.8985
N18290 X1.3425 Y1.8899
N18295 X1.3503 Y1.8824
N18300 X1.358 Y1.8761
N18305 X1.3654 Y1.8709
N18310 X1.3726 Y1.867
N18315 X1.3793 Y1.8643
N18320 X1.3857 Y1.8627
N18325 X1.3915 Y1.8623
N18330 X1.3969 Y1.8628
N18335 X1.4019 Y1.8644
N18340 X1.4065 Y1.8668
N18345 X1.4107 Y1.87
N18350 X1.4143 Y1.8741
N18355 X1.4173 Y1.8789
N18360 X1.4197 Y1.8843
N18365 X1.4212 Y1.8902
N18370 X1.4219 Y1.8966
N18375 X1.4216 Y1.9033
N18380 X1.4204 Y1.9103
N18385 X1.4182 Y1.9176
N18390 X1.4149 Y1.9252
N18395 X1.4106 Y1.9329
N18400 X1.4054 Y1.9408
N18405 X1.3992 Y1.9487
N18410 X1.392 Y1.9566
N18415 X1.3841 Y1.9645
N18420 X1.3755 Y1.9724
N18425 X1.3662 Y1.9801
N18430 X1.3564 Y1.9877
N18435 X1.3358 Y2.0025
N18440 X1.3147 Y2.0163
N18445 X1.3043 Y2.0228
N18450 X1.2942 Y2.0289
N18455 X1.2844 Y2.0346
N18460 X1.2753 Y2.0399
N18465 X1.2667 Y2.0446
N18470 X1.259 Y2.0488
N18475 X1.2521 Y2.0524
N18480 X1.2463 Y2.0552
N18485 X1.242 Y2.0571
N18490 G0 Z0.2
N18495 X1.24 Y2.083
N18500 G1 Z0. F200.
N18505 X1.243 Z-0.0028 F600.
N18510 X1.2408 Y2.0847 Z0.
N18515 X1.243 Y2.083 Z-0.0028
N18520 X1.2433 Y2.0829 Z-0.003
N18525 X1.2408 Y2.0812 Z0.
N18530 X1.2433 Y2.0829 Z-0.003
N18535 X1.2453 Y2.0828 Z-0.0043
N18540 X1.2492 Y2.0825 Z-0.0063
N18545 X1.2509 Y2.0824 Z-0.007
N18550 X1.2543 Y2.0837
N18555 X1.2605 Y2.0858
N18560 X1.2681 Y2.0882
N18565 X1.2769 Y2.0907
N18570 X1.2868 Y2.0934
N18575 X1.2975 Y2.0962
N18580 X1.309 Y2.099
N18585 X1.3212 Y2.1018
N18590 X1.3337 Y2.1044
N18595 X1.3597 Y2.109
N18600 X1.3727 Y2.1108
N18605 X1.3856 Y2.1121
N18610 X1.3983 Y2.1129
N18615 X1.4105 Y2.1132
N18620 X1.4222 Y2.1129
N18625 X1.4333 Y2.112
N18630 X1.4437 Y2.1105
N18635 X1.4533 Y2.1084
N18640 X1.462 Y2.1058
N18645 X1.4698 Y2.1027
N18650 X1.4767 Y2.0991
N18655 X1.4826 Y2.0952
N18660 X1.4874 Y2.091
N18665 X1.4913 Y2.0866
N18670 X1.4942 Y2.0821
N18675 X1.4961 Y2.0775
N18680 X1.4972 Y2.0729
N18685 X1.4975 Y2.0683
N18690 X1.4969 Y2.0638
N18695 X1.4954 Y2.0592
N18700 X1.4931 Y2.0548
N18705 X1.4898 Y2.0504
N18710 X1.4856 Y2.0463
N18715 X1.4805 Y2.0425
N18720 X1.4744 Y2.039
N18725 X1.4673 Y2.036
N18730 X1.4593 Y2.0335
N18735 X1.4505 Y2.0317
N18740 X1.4408 Y2.0305
N18745 X1.4304 Y2.03
N18750 X1.4194 Y2.0302
N18755 X1.4077 Y2.0311
N18760 X1.3957 Y2.0327
N18765 X1.3832 Y2.035
N18770 X1.3706 Y2.0378
N18775 X1.3578 Y2.0411
N18780 X1.3324 Y2.0489
N18785 X1.3202 Y2.0531
N18790 X1.3084 Y2.0575
N18795 X1.2972 Y2.0618
N18800 X1.2867 Y2.0661
N18805 X1.2771 Y2.0701
N18810 X1.2685 Y2.0738
N18815 X1.2611 Y2.0773
N18820 X1.2549 Y2.0803
N18825 X1.2509 Y2.0824
N18830 G0 Z0.2
N18835 X1.2294 Y2.1118
N18840 G1 Z0. F200.
N18845 X1.2323 Y2.1121 Z-0.0029 F600.
N18850 X1.23 Y2.11 Z0.
N18855 X1.2323 Y2.1121 Z-0.0029
N18860 X1.2326 Y2.1122 Z-0.0032
N18865 X1.2318 Y2.1091 Z0.
N18870 X1.2326 Y2.1122 Z-0.0032
N18875 X1.234 Y2.1134 Z-0.0044
N18880 X1.2371 Y2.1158 Z-0.0064
N18885 X1.2382 Y2.1165 Z-0.007
N18890 X1.2399 Y2.1199
N18895 X1.243 Y2.1256
N18900 X1.2471 Y2.1323
N18905 X1.2519 Y2.14
N18910 X1.2574 Y2.1484
N18915 X1.2636 Y2.1575
N18920 X1.2704 Y2.1671
N18925 X1.2778 Y2.1771
N18930 X1.2856 Y2.1872
N18935 X1.2938 Y2.1974
N18940 X1.3024 Y2.2074
N18945 X1.3113 Y2.217
N18950 X1.3205 Y2.2263
N18955 X1.3298 Y2.2349
N18960 X1.3392 Y2.2428
N18965 X1.3487 Y2.2499
N18970 X1.3581 Y2.2561
N18975 X1.3674 Y2.2614
N18980 X1.3764 Y2.2657
N18985 X1.3852 Y2.269
N18990 X1.3937 Y2.2714
N18995 X1.4016 Y2.2728
N19000 X1.4091 Y2.2734
N19005 X1.4159 Y2.273
N19010 X1.422 Y2.2719
N19015 X1.4274 Y2.2701
N19020 X1.4321 Y2.2676
N19025 X1.436 Y2.2646
N19030 X1.4391 Y2.2612
N19035 X1.4415 Y2.2572
N19040 X1.4432 Y2.2528
N19045 X1.444 Y2.248
N19050 X1.4441 Y2.2426
N19055 X1.4433 Y2.2368
N19060 X1.4414 Y2.2307
N19065 X1.4386 Y2.2242
N19070 X1.4347 Y2.2175
N19075 X1.4298 Y2.2106
N19080 X1.4238 Y2.2036
N19085 X1.4169 Y2.1967
N19090 X1.4089 Y2.1898
N19095 X1.4 Y2.183
N19100 X1.3903 Y2.1765
N19105 X1.3799 Y2.1701
N19110 X1.3689 Y2.1641
N19115 X1.3573 Y2.1583
N19120 X1.3455 Y2.1528
N19125 X1.3212 Y2.1428
N19130 X1.3093 Y2.1383
N19135 X1.2977 Y2.1342
N19140 X1.2865 Y2.1304
N19145 X1.276 Y2.127
N19150 X1.2662 Y2.124
N19155 X1.2574 Y2.1214
N19160 X1.2497 Y2.1192
N19165 X1.2431 Y2.1176
N19170 X1.2382 Y2.1165
N19175 G0 Z0.2
N19180 X1.1912 Y2.1366
N19185 G1 Z0. F200.
N19190 X1.1938 Y2.138 Z-0.0029 F600.
N19195 X1.1937 Y2.1375 Z-0.0025
N19200 X1.1942 Y2.135 Z0.
N19205 X1.1937 Y2.1375 Z-0.0025
N19210 X1.1925 Y2.1351 Z0.
N19215 X1.1937 Y2.1375 Z-0.0025
N19220 X1.1938 Y2.138 Z-0.0029
N19225 X1.1944 Y2.1395 Z-0.0039
N19230 X1.1947 Y2.1405 Z-0.0044
N19235 X1.1957 Y2.143 Z-0.0057
N19240 X1.1968 Y2.1459 Z-0.007
N19245 X1.1966 Y2.1502
N19250 Y2.1573
N19255 X1.1968 Y2.1658
N19260 X1.1972 Y2.1755
N19265 X1.1978 Y2.1862
N19270 X1.1985 Y2.1978
N19275 X1.1995 Y2.2102
N19280 X1.2007 Y2.223
N19285 X1.2022 Y2.2361
N19290 X1.206 Y2.2627
N19295 X1.2084 Y2.2757
N19300 X1.2112 Y2.2882
N19305 X1.2143 Y2.3002
N19310 X1.2179 Y2.3115
N19315 X1.2218 Y2.322
N19320 X1.2262 Y2.3316
N19325 X1.2309 Y2.3402
N19330 X1.2359 Y2.3479
N19335 X1.2412 Y2.3545
N19340 X1.2468 Y2.3602
N19345 X1.2526 Y2.3649
N19350 X1.2585 Y2.3687
N19355 X1.2646 Y2.3716
N19360 X1.2707 Y2.3736
N19365 X1.2767 Y2.3748
N19370 X1.2826 Y2.3752
N19375 X1.2882 Y2.3748
N19380 X1.2933 Y2.3736
N19385 X1.298 Y2.3718
N19390 X1.3019 Y2.3692
N19395 X1.3053 Y2.3659
N19400 X1.308 Y2.3619
N19405 X1.3101 Y2.3569
N19410 X1.3115 Y2.351
N19415 X1.3121 Y2.3442
N19420 X1.3117 Y2.3364
N19425 X1.3105 Y2.3278
N19430 X1.3083 Y2.3185
N19435 X1.3052 Y2.3085
N19440 X1.3012 Y2.2981
N19445 X1.2964 Y2.2873
N19450 X1.2909 Y2.2762
N19455 X1.2847 Y2.2649
N19460 X1.2781 Y2.2536
N19465 X1.2635 Y2.2311
N19470 X1.2482 Y2.2095
N19475 X1.2407 Y2.1993
N19480 X1.2332 Y2.1896
N19485 X1.2261 Y2.1805
N19490 X1.2194 Y2.1721
N19495 X1.2131 Y2.1644
N19500 X1.2075 Y2.1577
N19505 X1.2025 Y2.152
N19510 X1.1982 Y2.1473
N19515 X1.1968 Y2.1459
N19520 G0 Z0.2
N19525 X1.1679 Y2.1388
N19530 G1 Z0. F200.
N19535 X1.1681 Y2.1401 Z-0.0012 F600.
N19540 X1.169 Y2.139 Z0.
N19545 X1.1681 Y2.1401 Z-0.0012
N19550 X1.1678 Y2.1408 Z-0.0018
N19555 X1.1674 Y2.1417 Z-0.0023
N19560 X1.166 Y2.1448 Z-0.0037
N19565 X1.1631 Y2.1517 Z-0.0063
N19570 X1.1623 Y2.1535 Z-0.007
N19575 X1.162 Y2.1578
N19580 X1.1616 Y2.1651
N19585 X1.1611 Y2.1733
N19590 X1.1606 Y2.1824
N19595 X1.1599 Y2.1923
N19600 X1.1591 Y2.203
N19605 X1.1581 Y2.2144
N19610 X1.1568 Y2.2262
N19615 X1.1553 Y2.2385
N19620 X1.1535 Y2.2511
N19625 X1.1512 Y2.2639
N19630 X1.1486 Y2.2767
N19635 X1.1454 Y2.2895
N19640 X1.1419 Y2.302
N19645 X1.1378 Y2.3141
N19650 X1.1334 Y2.3256
N19655 X1.1285 Y2.3364
N19660 X1.1233 Y2.3463
N19665 X1.1178 Y2.3551
N19670 X1.1121 Y2.3628
N19675 X1.1064 Y2.3692
N19680 X1.1007 Y2.3742
N19685 X1.0951 Y2.3778
N19690 X1.0898 Y2.38
N19695 X1.0849 Y2.381
N19700 X1.0803 Y2.3809
N19705 X1.0758 Y2.3797
N19710 X1.0715 Y2.3775
N19715 X1.0673 Y2.3743
N19720 X1.0633 Y2.3702
N19725 X1.0598 Y2.3653
N19730 X1.0569 Y2.3596
N19735 X1.0545 Y2.3534
N19740 X1.0528 Y2.3466
N19745 X1.0519 Y2.3392
N19750 X1.0517 Y2.3314
N19755 X1.0524 Y2.3231
N19760 X1.054 Y2.3144
N19765 X1.0565 Y2.3053
N19770 X1.0598 Y2.2958
N19775 X1.0641 Y2.2859
N19780 X1.0691 Y2.2757
N19785 X1.075 Y2.2653
N19790 X1.0816 Y2.2547
N19795 X1.0887 Y2.244
N19800 X1.0963 Y2.2333
N19805 X1.1124 Y2.2122
N19810 X1.1204 Y2.2022
N19815 X1.1284 Y2.1925
N19820 X1.136 Y2.1835
N19825 X1.1432 Y2.1751
N19830 X1.1498 Y2.1674
N19835 X1.1558 Y2.1607
N19840 X1.1609 Y2.1551
N19845 X1.1623 Y2.1535
N19850 G0 Z0.2
N19855 X1.1367 Y2.1131
N19860 G1 Z0. F200.
N19865 X1.1359 Y2.1151 Z-0.0021 F600.
N19870 X1.138 Y2.114 Z0.
N19875 X1.1359 Y2.1151 Z-0.0021
N19880 X1.1358 Y2.1152 Z-0.0023
N19885 X1.138 Y2.1157 Z0.
N19890 X1.1358 Y2.1152 Z-0.0023
N19895 X1.1341 Y2.1162 Z-0.0034
N19900 X1.1308 Y2.1182 Z-0.0052
N19905 X1.127 Y2.1206 Z-0.007
N19910 X1.1261 Y2.1207
N19915 X1.1197 Y2.1219
N19920 X1.112 Y2.1234
N19925 X1.1032 Y2.1253
N19930 X1.0933 Y2.1276
N19935 X1.0825 Y2.1303
N19940 X1.0711 Y2.1333
N19945 X1.0591 Y2.1366
N19950 X1.0468 Y2.1403
N19955 X1.0342 Y2.1444
N19960 X1.0217 Y2.1489
N19965 X1.0094 Y2.1538
N19970 X0.9975 Y2.1591
N19975 X0.9861 Y2.1647
N19980 X0.9753 Y2.1707
N19985 X0.9653 Y2.177
N19990 X0.9562 Y2.1836
N19995 X0.9481 Y2.1903
N20000 X0.9409 Y2.1973
N20005 X0.9348 Y2.2042
N20010 X0.9298 Y2.2112
N20015 X0.9259 Y2.218
N20020 X0.923 Y2.2246
N20025 X0.9212 Y2.2309
N20030 X0.9203 Y2.2368
N20035 X0.9204 Y2.2422
N20040 X0.9213 Y2.2471
N20045 X0.9229 Y2.2514
N20050 X0.9252 Y2.2553
N20055 X0.9282 Y2.2586
N20060 X0.932 Y2.2613
N20065 X0.9364 Y2.2635
N20070 X0.9417 Y2.2651
N20075 X0.9476 Y2.266
N20080 X0.9542 Y2.2661
N20085 X0.9615 Y2.2653
N20090 X0.9692 Y2.2637
N20095 X0.9775 Y2.2611
N20100 X0.9861 Y2.2576
N20105 X0.995 Y2.2532
N20110 X1.0042 Y2.248
N20115 X1.0135 Y2.2419
N20120 X1.0228 Y2.235
N20125 X1.0322 Y2.2275
N20130 X1.0414 Y2.2194
N20135 X1.0506 Y2.2107
N20140 X1.0595 Y2.2017
N20145 X1.0767 Y2.1831
N20150 X1.0847 Y2.1738
N20155 X1.0924 Y2.1647
N20160 X1.0995 Y2.156
N20165 X1.1062 Y2.1477
N20170 X1.1122 Y2.1401
N20175 X1.1176 Y2.1332
N20180 X1.1223 Y2.127
N20185 X1.1261 Y2.1219
N20190 X1.127 Y2.1206
N20195 G0 Z0.2
N20200 X1.1292 Y2.0823
N20205 G1 Z0. F200.
N20210 X1.1254 Y2.08 Z-0.0043 F600.
N20215 X1.1255
N20220 X1.1292 Y2.0777 Z0.
N20225 X1.1255 Y2.08 Z-0.0043
N20230 X1.13 Z0.
N20235 X1.1255 Z-0.0043
N20240 X1.1254
N20245 X1.1231 Z-0.006
N20250 X1.1212 Y2.0801 Z-0.007
N20255 X1.1193 Y2.0813
N20260 X1.1144 Y2.0839
N20265 X1.1078 Y2.0868
N20270 X1.0997 Y2.09
N20275 X1.0904 Y2.0934
N20280 X1.08 Y2.0969
N20285 X1.0686 Y2.1005
N20290 X1.0564 Y2.1041
N20295 X1.0436 Y2.1076
N20300 X1.0304 Y2.111
N20305 X1.0031 Y2.1168
N20310 X0.9895 Y2.1192
N20315 X0.9761 Y2.121
N20320 X0.963 Y2.1223
N20325 X0.9505 Y2.123
N20330 X0.9385
N20335 X0.9273 Y2.1224
N20340 X0.917 Y2.1212
N20345 X0.9075 Y2.1193
N20350 X0.899 Y2.1169
N20355 X0.8915 Y2.1139
N20360 X0.8851 Y2.1105
N20365 X0.8796 Y2.1068
N20370 X0.8752 Y2.1027
N20375 X0.8718 Y2.0985
N20380 X0.8693 Y2.0941
N20385 X0.8677 Y2.0897
N20390 X0.867 Y2.0852
N20395 Y2.0807
N20400 X0.8678 Y2.0762
N20405 X0.8695 Y2.0717
N20410 X0.872 Y2.0673
N20415 X0.8754 Y2.0629
N20420 X0.8798 Y2.0588
N20425 X0.885 Y2.0549
N20430 X0.8912 Y2.0513
N20435 X0.8984 Y2.0481
N20440 X0.9064 Y2.0454
N20445 X0.9153 Y2.0432
N20450 X0.925 Y2.0416
N20455 X0.9354 Y2.0405
N20460 X0.9465 Y2.04
N20465 X0.9582 Y2.0402
N20470 X0.9704 Y2.0409
N20475 X0.983 Y2.0421
N20480 X0.9958 Y2.0439
N20485 X1.0088 Y2.0461
N20490 X1.0348 Y2.0515
N20495 X1.0473 Y2.0546
N20500 X1.0595 Y2.0579
N20505 X1.071 Y2.0612
N20510 X1.0819 Y2.0645
N20515 X1.0918 Y2.0678
N20520 X1.1007 Y2.0709
N20525 X1.1084 Y2.0738
N20530 X1.1147 Y2.0765
N20535 X1.1195 Y2.0789
N20540 X1.1212 Y2.0801
N20545 G0 Z0.2
N20550 X1.4344 Y2.73
N20555 G1 Z0. F200.
N20560 X1.4332 Y2.7282 Z-0.0022 F600.
N20565 X1.432 Y2.7264 Z-0.0037
N20570 X1.431 Y2.7248 Z-0.0047
N20575 X1.4281 Y2.7206 Z-0.007
N20580 Y2.7202
N20585 X1.4275 Y2.717
N20590 X1.4268 Y2.7132
N20595 X1.4259 Y2.709
N20600 X1.4248 Y2.7044
N20605 X1.4236 Y2.6993
N20610 X1.4223 Y2.6938
N20615 X1.4193 Y2.6816
N20620 X1.4158 Y2.668
N20625 X1.4118 Y2.6532
N20630 X1.4073 Y2.6374
N20635 X1.4024 Y2.6209
N20640 X1.3969 Y2.6039
N20645 X1.3909 Y2.5865
N20650 X1.3844 Y2.5692
N20655 X1.3773 Y2.552
N20660 X1.3697 Y2.5352
N20665 X1.3616 Y2.5191
N20670 X1.353 Y2.5038
N20675 X1.344 Y2.4895
N20680 X1.3345 Y2.4763
N20685 X1.3247 Y2.4643
N20690 X1.3146 Y2.4536
N20695 X1.3044 Y2.4443
N20700 X1.2941 Y2.4365
N20705 X1.2838 Y2.4302
N20710 X1.2738 Y2.4254
N20715 X1.264 Y2.422
N20720 X1.2546 Y2.4201
N20725 X1.2502 Y2.4196
N20730 X1.2459
N20735 X1.2418 Y2.4198
N20740 X1.2378 Y2.4204
N20745 X1.2341 Y2.4212
N20750 X1.2306 Y2.4224
N20755 X1.2272 Y2.4239
N20760 X1.2241 Y2.4257
N20765 X1.2213 Y2.4277
N20770 X1.2186 Y2.43
N20775 X1.2162 Y2.4326
N20780 X1.2141 Y2.4355
N20785 X1.2121 Y2.4387
N20790 X1.2105 Y2.4422
N20795 X1.2091 Y2.4459
N20800 X1.2079 Y2.45
N20805 X1.2071 Y2.4544
N20810 X1.2066 Y2.459
N20815 X1.2065 Y2.4639
N20820 X1.2066 Y2.4691
N20825 X1.2071 Y2.4746
N20830 X1.208 Y2.4802
N20835 X1.2092 Y2.4861
N20840 X1.2108 Y2.4921
N20845 X1.215 Y2.5048
N20850 X1.2207 Y2.5179
N20855 X1.2277 Y2.5315
N20860 X1.236 Y2.5453
N20865 X1.2455 Y2.5592
N20870 X1.2561 Y2.5731
N20875 X1.2677 Y2.5869
N20880 X1.28 Y2.6005
N20885 X1.2931 Y2.6137
N20890 X1.3065 Y2.6265
N20895 X1.3202 Y2.6388
N20900 X1.334 Y2.6506
N20905 X1.3476 Y2.6617
N20910 X1.3608 Y2.6721
N20915 X1.3734 Y2.6818
N20920 X1.3853 Y2.6907
N20925 X1.3963 Y2.6987
N20930 X1.4061 Y2.7057
N20935 X1.4106 Y2.7089
N20940 X1.4148 Y2.7118
N20945 X1.4186 Y2.7144
N20950 X1.4221 Y2.7167
N20955 X1.4252 Y2.7188
N20960 X1.4279 Y2.7205
N20965 X1.4281 Y2.7206
N20970 G0 Z0.2
N20975 X1.3967 Y2.7584
N20980 G1 Z-0.0036 F200.
N20985 X1.3965 Y2.7583 Z-0.0038 F600.
N20990 X1.3957 Y2.758 Z-0.0046
N20995 X1.3934 Y2.7571 Z-0.0062
N21000 X1.3921 Y2.7566 Z-0.007
N21005 X1.3904 Y2.7569
N21010 X1.3877 Y2.7572
N21015 X1.3845 Y2.7575
N21020 X1.3808 Y2.7577
N21025 X1.3766 Y2.7578
N21030 X1.3721
N21035 X1.3616 Y2.7577
N21040 X1.3496 Y2.7573
N21045 X1.3363 Y2.7567
N21050 X1.3217 Y2.7559
N21055 X1.3061 Y2.755
N21060 X1.2897 Y2.7538
N21065 X1.2725 Y2.7525
N21070 X1.2548 Y2.7509
N21075 X1.2369 Y2.7491
N21080 X1.2007 Y2.7446
N21085 X1.183 Y2.7417
N21090 X1.1657 Y2.7385
N21095 X1.1492 Y2.7348
N21100 X1.1334 Y2.7306
N21105 X1.1188 Y2.7258
N21110 X1.1053 Y2.7204
N21115 X1.0932 Y2.7144
N21120 X1.0877 Y2.7112
N21125 X1.0827 Y2.7078
N21130 X1.078 Y2.7043
N21135 X1.0737 Y2.7007
N21140 X1.0699 Y2.697
N21145 X1.0664 Y2.6931
N21150 X1.0634 Y2.6892
N21155 X1.0608 Y2.6851
N21160 X1.0586 Y2.681
N21165 X1.0569 Y2.6767
N21170 X1.0555 Y2.6724
N21175 X1.0545 Y2.6681
N21180 X1.054 Y2.6636
N21185 X1.0538 Y2.6591
N21190 X1.054 Y2.6546
N21195 X1.0546 Y2.6501
N21200 X1.0556 Y2.6457
N21205 X1.057 Y2.6413
N21210 X1.0587 Y2.637
N21215 X1.0608 Y2.6328
N21220 X1.0632 Y2.6288
N21225 X1.0659 Y2.625
N21230 X1.0689 Y2.6214
N21235 X1.0722 Y2.6181
N21240 X1.0758 Y2.6151
N21245 X1.0797 Y2.6123
N21250 X1.0839 Y2.6098
N21255 X1.0883 Y2.6077
N21260 X1.093 Y2.6058
N21265 X1.098 Y2.6043
N21270 X1.1032 Y2.6031
N21275 X1.1086 Y2.6022
N21280 X1.1143 Y2.6017
N21285 X1.1203 Y2.6015
N21290 X1.1265 Y2.6017
N21295 X1.1328 Y2.6022
N21300 X1.1463 Y2.6043
N21305 X1.1603 Y2.6077
N21310 X1.175 Y2.6125
N21315 X1.1902 Y2.6184
N21320 X1.2057 Y2.6255
N21325 X1.2215 Y2.6334
N21330 X1.2374 Y2.6421
N21335 X1.2532 Y2.6515
N21340 X1.2689 Y2.6613
N21345 X1.2843 Y2.6714
N21350 X1.2993 Y2.6816
N21355 X1.3136 Y2.6917
N21360 X1.3273 Y2.7017
N21365 X1.34 Y2.7112
N21370 X1.3517 Y2.7203
N21375 X1.3623 Y2.7288
N21380 X1.3715 Y2.7365
N21385 X1.3756 Y2.74
N21390 X1.3794 Y2.7434
N21395 X1.3827 Y2.7464
N21400 X1.3856 Y2.7493
N21405 X1.3881 Y2.7518
N21410 X1.3901 Y2.7541
N21415 X1.3917 Y2.756
N21420 X1.3921 Y2.7566
N21425 G0 Z0.2
N21430 X1.3956 Y2.8086
N21435 G1 Z0. F200.
N21440 X1.3927 Y2.8089 Z-0.0028 F600.
N21445 X1.3926 Z-0.003
N21450 X1.3907 Y2.8092 Z-0.0044
N21455 X1.3889 Y2.8096 Z-0.0055
N21460 X1.3861 Y2.8101 Z-0.007
N21465 X1.3858 Y2.8104
N21470 X1.3837 Y2.8121
N21475 X1.381 Y2.8141
N21480 X1.3778 Y2.8163
N21485 X1.3743 Y2.8187
N21490 X1.3703 Y2.8213
N21495 X1.3612 Y2.8271
N21500 X1.3508 Y2.8336
N21505 X1.339 Y2.8407
