%
O98765
(Using G0 which travels along dogleg path.)
(Machine)
(  vendor: Haas Automation)
(  model: UMC-500)
(T1 D=0.25 CR=0. TAPER=90deg - ZMIN=-0.01 - spot drill)
N10 G90 G94 G17
N15 G20
N20 M31
N25 G53 G0 Z0.

(Engrave1)
N30 T1 M6
N35 S5000 M3
N40 G17 G90 G94
N45 G54
N50 G53 G0 X-23.96 Y-3.37
N55 M11
N60 M13
N65 G0 B0. C0.
N70 M10
N75 M12
N80 M8
N85 G0 X0.3116 Y0.0499
N90 G43 Z0.6 H1
N95 G0 Z0.2
N100 G1 Z0. F13.123
N105 X0.3216 Y0.0599 Z-0.01 F39.37
N110 Y3.4059
N115 X0.3116 Y3.4159 Z0.
N120 X0.3216 Y3.4059 Z-0.01
N125 X3.3021
N130 X3.3121 Y3.4159 Z0.
N135 X3.3021 Y3.4059 Z-0.01
N140 Y0.0599
N145 X3.3121 Y0.0499 Z0.
N150 X3.3021 Y0.0599 Z-0.01
N155 X0.3216
N160 G0 Z0.2
N165 X0.9579 Y2.615
N170 G1 Z0. F13.123
N175 X0.9713 Y2.6214 Z-0.01 F39.37
N180 X1.2289 Y2.5447
N185 G2 X1.233 Y2.528 I-0.0029 J-0.0096
N190 G1 X1.2142 Y2.5095
N195 X1.1961 Y2.4903
N200 X1.1784 Y2.4703
N205 X1.1612 Y2.4493
N210 X1.1445 Y2.4275
N215 X1.1282 Y2.4048
N220 X1.1125 Y2.3813
N225 X1.0972 Y2.3568
N230 X1.0825 Y2.3315
N235 X1.0683 Y2.3054
N240 X1.0546 Y2.2784
N245 X1.0414 Y2.2506
N250 X1.0289 Y2.2219
N255 X1.0169 Y2.1925
N260 X1.0055 Y2.1623
N265 X0.9948 Y2.1313
N270 X0.9847 Y2.0996
N275 X0.9753 Y2.0673
N280 X0.9667 Y2.0343
N285 X0.9589 Y2.0008
N290 X0.9519 Y1.9667
N295 X0.9458 Y1.9321
N300 X0.9407 Y1.8972
N305 X0.9365 Y1.8619
N310 X0.9334 Y1.8263
N315 X0.9315 Y1.7905
N320 X0.9307 Y1.7546
N325 X0.9311 Y1.7187
N330 X0.9328 Y1.6828
N335 X0.9359 Y1.647
N340 X0.9404 Y1.6114
N345 X0.9463 Y1.576
N350 X0.9537 Y1.5409
N355 X0.9579 Y1.5236
N360 X0.9626 Y1.5064
N365 X0.9676 Y1.4892
N370 X0.973 Y1.4722
N375 X0.9789 Y1.4553
N380 X0.9851 Y1.4386
N385 X0.9917 Y1.422
N390 X0.9988 Y1.4056
N395 X1.0062 Y1.3894
N400 X1.014 Y1.3733
N405 X1.0223 Y1.3574
N410 X1.0309 Y1.3417
N415 X1.04 Y1.3262
N420 X1.0494 Y1.3109
N425 X1.0593 Y1.2958
N430 X1.0695 Y1.2809
N435 X1.0802 Y1.2662
N440 X1.0912 Y1.2517
N445 X1.1027 Y1.2375
N450 X1.1145 Y1.2235
N455 X1.1267 Y1.2097
N460 X1.1392 Y1.1961
N465 X1.1522 Y1.1828
N470 X1.1654 Y1.1697
N475 X1.1791 Y1.1569
N480 X1.193 Y1.1443
N485 X1.2073 Y1.132
N490 X1.2219 Y1.12
N495 X1.2521 Y1.0966
N500 X1.2834 Y1.0742
N505 X1.3157 Y1.053
N510 X1.349 Y1.0328
N515 X1.3833 Y1.0138
N520 X1.4182 Y0.9959
N525 X1.4539 Y0.9792
N530 X1.4902 Y0.9637
N535 X1.5269 Y0.9495
N540 X1.564 Y0.9365
N545 X1.6014 Y0.925
N550 X1.639 Y0.9149
N555 X1.6767 Y0.9062
N560 X1.6955 Y0.9025
N565 X1.7144 Y0.8992
N570 X1.7332 Y0.8962
N575 X1.752 Y0.8938
N580 X1.7708 Y0.8917
N585 X1.7896 Y0.8901
N590 X1.8083 Y0.889
N595 X1.8271 Y0.8883
N600 G2 X1.8362 Y0.8753 I-0.0003 J-0.01
N605 G1 X1.8303 Y0.8567
N610 X1.8302 Y0.8565
N615 X1.8235 Y0.8376
N620 X1.8234 Y0.8374
N625 X1.8161 Y0.8182
N630 X1.816 Y0.818
N635 X1.8081 Y0.7985
N640 X1.808 Y0.7983
N645 X1.7993 Y0.7785
N650 X1.7992 Y0.7783
N655 X1.7898 Y0.7581
N660 X1.7897 Y0.7579
N665 X1.7797 Y0.7374
N670 X1.7796 Y0.7372
N675 X1.7687 Y0.7164
N680 Y0.7162
N685 X1.7571 Y0.695
N690 X1.757 Y0.6949
N695 X1.7447 Y0.6733
N700 X1.7446 Y0.6731
N705 X1.7316 Y0.6512
N710 X1.7315 Y0.6511
N715 X1.7176 Y0.6288
N720 X1.7175 Y0.6286
N725 X1.7029 Y0.606
N730 X1.7028 Y0.6058
N735 X1.6874 Y0.5828
N740 Y0.5827
N745 X1.6712 Y0.5592
N750 X1.6711 Y0.5591
N755 X1.6542 Y0.5353
N760 X1.6541 Y0.5352
N765 X1.6364 Y0.5111
N770 X1.6363 Y0.511
N775 X1.6179 Y0.4865
N780 X1.6178 Y0.4864
N785 X1.5987 Y0.4616
N790 X1.5986 Y0.4615
N795 X1.5788 Y0.4363
N800 X1.5787 Y0.4362
N805 X1.5582 Y0.4108
N810 Y0.4107
N815 X1.537 Y0.3849
N820 X1.5369 Y0.3848
N825 X1.5151 Y0.3587
N830 Y0.3586
N835 X1.4927 Y0.3322
N840 X1.4926
N845 X1.4696 Y0.3055
N850 Y0.3054
N855 X1.446 Y0.2785
N860 Y0.2784
N865 X1.4219 Y0.2512
N870 X1.4218
N875 X1.3971 Y0.2237
N880 Y0.2236
N885 X1.3719 Y0.1959
N890 Y0.1958
N895 X1.3461 Y0.1679
N900 Y0.1678
N905 X1.3199 Y0.1396
N910 X1.3198 Y0.1395
N915 X1.2931 Y0.111
N920 X1.2915 Y0.1097
N925 X1.2897 Y0.1087
N930 X1.2878 Y0.1081
N935 X1.2858 Y0.1079
N940 X0.3711
N945 G2 X0.3611 Y0.1179 I0. J0.01
N950 G1 Y3.3564
N955 G2 X0.3711 Y3.3664 I0.01 J0.
N960 G1 X3.2526
N965 G2 X3.2626 Y3.3564 I0. J-0.01
N970 G1 Y0.1179
N975 G2 X3.2526 Y0.1079 I-0.01 J0.
N980 G1 X2.3231
N985 G2 X2.3144 Y0.1131 I0. J0.01
N990 G1 X2.2644 Y0.204
N995 X2.2146 Y0.2962
N1000 Y0.2963
N1005 X2.1649 Y0.3898
N1010 Y0.3899
N1015 X2.1155 Y0.4849
N1020 X2.1154
N1025 X2.0662 Y0.5815
N1030 Y0.5816
N1035 X2.0171 Y0.6796
N1040 X1.9682 Y0.779
N1045 X1.9194 Y0.8796
N1050 G2 X1.9269 Y0.8938 I0.009 J0.0044
N1055 G1 X1.951 Y0.8976
N1060 X1.9748 Y0.9023
N1065 X1.9984 Y0.908
N1070 X2.0219 Y0.9147
N1075 X2.0452 Y0.9224
N1080 X2.0683 Y0.931
N1085 X2.0911 Y0.9406
N1090 X2.1138 Y0.9512
N1095 X2.1363 Y0.9627
N1100 X2.1585 Y0.9751
N1105 X2.1804 Y0.9885
N1110 X2.2021 Y1.0027
N1115 X2.2235 Y1.0177
N1120 X2.2446 Y1.0336
N1125 X2.2653 Y1.0502
N1130 X2.2858 Y1.0676
N1135 X2.3058 Y1.0858
N1140 X2.3256 Y1.1045
N1145 X2.3449 Y1.124
N1150 X2.3639 Y1.144
N1155 X2.3824 Y1.1645
N1160 X2.4005 Y1.1856
N1165 X2.4182 Y1.2071
N1170 X2.4355 Y1.2291
N1175 X2.4522 Y1.2514
N1180 X2.4685 Y1.2741
N1185 X2.4844 Y1.297
N1190 X2.4997 Y1.3202
N1195 X2.5145 Y1.3437
N1200 X2.5288 Y1.3672
N1205 X2.5425 Y1.391
N1210 X2.5557 Y1.4148
N1215 X2.5684 Y1.4387
N1220 X2.5805 Y1.4626
N1225 X2.5921 Y1.4865
N1230 X2.6031 Y1.5103
N1235 X2.6135 Y1.5342
N1240 X2.6233 Y1.5579
N1245 X2.6325 Y1.5815
N1250 X2.6412 Y1.605
N1255 X2.6492 Y1.6283
N1260 X2.6567 Y1.6515
N1265 X2.6635 Y1.6745
N1270 X2.6697 Y1.6973
N1275 X2.6754 Y1.7199
N1280 X2.6804 Y1.7423
N1285 X2.6848 Y1.7644
N1290 X2.6886 Y1.7863
N1295 X2.6918 Y1.808
N1300 X2.6944 Y1.8294
N1305 X2.6964 Y1.8505
N1310 X2.6977 Y1.8714
N1315 X2.6985 Y1.8919
N1320 X2.6986 Y1.9122
N1325 X2.6981 Y1.9322
N1330 X2.6971 Y1.952
N1335 X2.6954 Y1.9714
N1340 X2.6931 Y1.9906
N1345 X2.6902 Y2.0095
N1350 X2.6867 Y2.0281
N1355 X2.6825 Y2.0464
N1360 X2.6778 Y2.0644
N1365 X2.6725 Y2.0822
N1370 X2.6665 Y2.0998
N1375 G2 X2.6788 Y2.1126 I0.0095 J0.0032
N1380 G1 X2.893 Y2.0488
N1385 X2.9086 Y2.1002
N1390 X2.9211 Y2.1069 Z0.
N1395 X2.9086 Y2.1002 Z-0.01
N1400 X2.6526 Y2.1779
N1405 G2 X2.646 Y2.1904 I0.0029 J0.0096
N1410 G1 X2.7811 Y2.6357
N1415 X2.7936 Y2.6424 Z0.
N1420 X2.7811 Y2.6357 Z-0.01
N1425 X1.4605 Y3.0265
N1430 X1.3088 Y2.5957
N1435 G2 X1.2964 Y2.5894 I-0.0094 J0.0033
N1440 G1 X0.9955 Y2.6807
N1445 X0.9897 Y2.6929 Z0.
N1450 X0.9955 Y2.6807 Z-0.01
N1455 X0.9713 Y2.6214
N1460 G0 Z0.2
N1465 X1.2185 Y2.4097
N1470 G1 Z-0.01 F13.123
N1475 X1.2304 Y2.4236 F39.37
N1480 X1.2306 Y2.4238
N1485 X1.247 Y2.4421
N1490 X1.2472 Y2.4423
N1495 X1.2642 Y2.4602
N1500 X1.2644 Y2.4604
N1505 X1.2819 Y2.478
N1510 X1.2821 Y2.4782
N1515 X1.3002 Y2.4955
N1520 X1.3004 Y2.4957
N1525 X1.3191 Y2.5127
N1530 G2 X1.3287 Y2.5149 I0.0067 J-0.0074
N1535 G1 X2.5879 Y2.1397
N1540 X2.59 Y2.1388
N1545 X2.5919 Y2.1374
N1550 X2.5934 Y2.1357
N1555 X2.5944 Y2.1336
N1560 X2.6033 Y2.1103
N1565 X2.6034 Y2.1099
N1570 X2.6112 Y2.0863
N1575 X2.6113 Y2.0859
N1580 X2.6181 Y2.0619
N1585 X2.6182 Y2.0614
N1590 X2.624 Y2.0371
N1595 X2.6241 Y2.0367
N1600 X2.6289 Y2.012
N1605 Y2.0116
N1610 X2.6327 Y1.9865
N1615 Y1.9861
N1620 X2.6355 Y1.9607
N1625 Y1.9603
N1630 X2.6372 Y1.9346
N1635 Y1.9342
N1640 X2.6379 Y1.9082
N1645 Y1.9078
N1650 X2.6376 Y1.8814
N1655 Y1.881
N1660 X2.6362 Y1.8543
N1665 Y1.8539
N1670 X2.6338 Y1.8269
N1675 Y1.8265
N1680 X2.6304 Y1.7992
N1685 Y1.7989
N1690 X2.626 Y1.7713
N1695 X2.6259 Y1.7709
N1700 X2.6205 Y1.7431
N1705 X2.6204 Y1.7428
N1710 X2.614 Y1.7146
N1715 X2.6139 Y1.7143
N1720 X2.6065 Y1.686
N1725 X2.6064 Y1.6857
N1730 X2.598 Y1.6571
N1735 X2.5979 Y1.6568
N1740 X2.5884 Y1.6281
N1745 Y1.6278
N1750 X2.5779 Y1.599
N1755 X2.5778 Y1.5987
N1760 X2.5664 Y1.5697
N1765 X2.5663 Y1.5695
N1770 X2.5539 Y1.5404
N1775 X2.5538 Y1.5402
N1780 X2.5405 Y1.5111
N1785 X2.5403 Y1.5109
N1790 X2.526 Y1.4818
N1795 X2.5259 Y1.4816
N1800 X2.5107 Y1.4526
N1805 X2.5105 Y1.4524
N1810 X2.4943 Y1.4235
N1815 X2.4942 Y1.4233
N1820 X2.4771 Y1.3947
N1825 X2.477 Y1.3945
N1830 X2.459 Y1.3661
N1835 X2.4588 Y1.3659
N1840 X2.4399 Y1.3378
N1845 X2.4398 Y1.3376
N1850 X2.42 Y1.31
N1855 X2.4199 Y1.3097
N1860 X2.3993 Y1.2826
N1865 X2.3991 Y1.2824
N1870 X2.3777 Y1.2558
N1875 X2.3775 Y1.2556
N1880 X2.3553 Y1.2296
N1885 X2.3551 Y1.2294
N1890 X2.3321 Y1.2042
N1895 X2.3319 Y1.2039
N1900 X2.3082 Y1.1795
N1905 X2.308 Y1.1793
N1910 X2.2835 Y1.1557
N1915 X2.2833 Y1.1555
N1920 X2.2582 Y1.1329
N1925 X2.2579 Y1.1327
N1930 X2.2321 Y1.1112
N1935 X2.2318 Y1.1109
N1940 X2.2055 Y1.0905
N1945 X2.2051 Y1.0903
N1950 X2.1782 Y1.0711
N1955 X2.1778 Y1.0708
N1960 X2.1503 Y1.0529
N1965 X2.1499 Y1.0526
N1970 X2.1219 Y1.036
N1975 X2.1215 Y1.0358
N1980 X2.093 Y1.0205
N1985 X2.0926 Y1.0203
N1990 X2.0636 Y1.0065
N1995 X2.0631 Y1.0063
N2000 X2.0338 Y0.994
N2005 X2.0333 Y0.9938
N2010 X2.0036 Y0.983
N2015 X2.0032 Y0.9829
N2020 X1.9882 Y0.9781
N2025 X1.988 Y0.978
N2030 X1.9729 Y0.9736
N2035 X1.9727 Y0.9735
N2040 X1.9575 Y0.9695
N2045 X1.9573 Y0.9694
N2050 X1.9421 Y0.9658
N2055 X1.9418
N2060 X1.9266 Y0.9626
N2065 X1.9263 Y0.9625
N2070 X1.911 Y0.9597
N2075 X1.9108
N2080 X1.8954 Y0.9573
N2085 X1.8952 Y0.9572
N2090 X1.8798 Y0.9552
N2095 X1.8795
N2100 X1.8641 Y0.9536
N2105 X1.8638
N2110 X1.8484 Y0.9524
N2115 X1.8481
N2120 X1.8326 Y0.9517
N2125 X1.8324 Y0.9516
N2130 X1.8169 Y0.9513
N2135 X1.8165
N2140 X1.7855 Y0.9517
N2145 X1.785 Y0.9518
N2150 X1.754 Y0.9538
N2155 X1.7535 Y0.9539
N2160 X1.7226 Y0.9574
N2165 X1.7222 Y0.9575
N2170 X1.6914 Y0.9625
N2175 X1.6909 Y0.9626
N2180 X1.6603 Y0.969
N2185 X1.6599 Y0.9691
N2190 X1.6296 Y0.9769
N2195 X1.6292 Y0.977
N2200 X1.5991 Y0.986
N2205 X1.5987 Y0.9861
N2210 X1.569 Y0.9963
N2215 X1.5687 Y0.9965
N2220 X1.5393 Y1.0077
N2225 X1.539 Y1.0078
N2230 X1.5102 Y1.0201
N2235 X1.5099 Y1.0202
N2240 X1.4815 Y1.0333
N2245 X1.4812 Y1.0334
N2250 X1.4535 Y1.0473
N2255 X1.4532 Y1.0474
N2260 X1.426 Y1.062
N2265 X1.4258 Y1.0621
N2270 X1.3993 Y1.0773
N2275 X1.3991 Y1.0774
N2280 X1.3733 Y1.0931
N2285 X1.373 Y1.0933
N2290 X1.348 Y1.1094
N2295 X1.3478 Y1.1095
N2300 X1.3236 Y1.126
N2305 X1.3233 Y1.1261
N2310 X1.2999 Y1.1429
N2315 X1.2997 Y1.1431
N2320 X1.2772 Y1.1601
N2325 X1.277 Y1.1603
N2330 X1.2553 Y1.1776
N2335 X1.2551 Y1.1778
N2340 X1.2344 Y1.1952
N2345 X1.2342 Y1.1954
N2350 X1.2144 Y1.2131
N2355 X1.2142 Y1.2133
N2360 X1.1954 Y1.2312
N2365 X1.1951 Y1.2314
N2370 X1.1773 Y1.2495
N2375 X1.1771 Y1.2498
N2380 X1.1602 Y1.2682
N2385 X1.16 Y1.2684
N2390 X1.1441 Y1.2872
N2395 X1.1438 Y1.2875
N2400 X1.1289 Y1.3068
N2405 X1.1286 Y1.3071
N2410 X1.1147 Y1.327
N2415 X1.1144 Y1.3274
N2420 X1.1014 Y1.3479
N2425 X1.1012 Y1.3484
N2430 X1.0891 Y1.3698
N2435 X1.0889 Y1.3702
N2440 X1.0777 Y1.3926
N2445 X1.0775 Y1.393
N2450 X1.0672 Y1.4164
N2455 X1.0671 Y1.4168
N2460 X1.0577 Y1.4412
N2465 X1.0575 Y1.4416
N2470 X1.049 Y1.467
N2475 X1.0488 Y1.4674
N2480 X1.0411 Y1.4938
N2485 X1.041 Y1.4942
N2490 X1.0341 Y1.5215
N2495 Y1.5219
N2500 X1.028 Y1.5501
N2505 X1.0279 Y1.5504
N2510 X1.0226 Y1.5794
N2515 Y1.5797
N2520 X1.0181 Y1.6093
N2525 X1.018 Y1.6096
N2530 X1.0143 Y1.6397
N2535 X1.0142 Y1.64
N2540 X1.0113 Y1.6706
N2545 X1.0112 Y1.6708
N2550 X1.009 Y1.7017
N2555 Y1.702
N2560 X1.0074 Y1.733
N2565 Y1.7332
N2570 X1.0066 Y1.7643
N2575 Y1.7645
N2580 X1.0065 Y1.7955
N2585 Y1.7957
N2590 X1.0072 Y1.8264
N2595 Y1.8267
N2600 X1.0085 Y1.857
N2605 Y1.8572
N2610 X1.0105 Y1.8871
N2615 Y1.8874
N2620 X1.0131 Y1.9167
N2625 X1.0132 Y1.917
N2630 X1.0165 Y1.9456
N2635 Y1.9459
N2640 X1.0205 Y1.9739
N2645 X1.0206 Y1.9741
N2650 X1.0252 Y2.0014
N2655 Y2.0017
N2660 X1.0305 Y2.0282
N2665 X1.0306 Y2.0285
N2670 X1.0365 Y2.0544
N2675 Y2.0547
N2680 X1.0431 Y2.0799
N2685 Y2.0801
N2690 X1.0503 Y2.1047
N2695 X1.0504 Y2.105
N2700 X1.0581 Y2.129
N2705 X1.0582 Y2.1293
N2710 X1.0666 Y2.1528
N2715 X1.0667 Y2.153
N2720 X1.0757 Y2.176
N2725 X1.0758 Y2.1763
N2730 X1.0854 Y2.1988
N2735 X1.0855 Y2.199
N2740 X1.0956 Y2.2211
N2745 X1.0958 Y2.2213
N2750 X1.1065 Y2.243
N2755 X1.1066 Y2.2432
N2760 X1.118 Y2.2645
N2765 X1.1181 Y2.2647
N2770 X1.13 Y2.2856
N2775 X1.1302 Y2.2858
N2780 X1.1426 Y2.3063
N2785 X1.1428 Y2.3065
N2790 X1.1558 Y2.3267
N2795 X1.156 Y2.3269
N2800 X1.1696 Y2.3467
N2805 X1.1698 Y2.347
N2810 X1.184 Y2.3664
N2815 X1.1841 Y2.3667
N2820 X1.1989 Y2.3858
N2825 X1.199 Y2.386
N2830 X1.2144 Y2.4049
N2835 X1.2145 Y2.4051
N2840 X1.2185 Y2.4097
N2845 G0 Z0.2
N2850 X2.893 Y2.0487
N2855 G1 Z-0.01 F13.123
N2860 X2.8997 Y2.0364 Z0. F39.37
N2865 G0 Z0.2
N2870 X1.4543 Y3.0388
N2875 G1 Z0. F13.123
N2880 X1.4605 Y3.0266 Z-0.01 F39.37
N2885 G0 Z0.2
N2890 X1.8243 Y0.696
N2895 G1 Z-0.01 F13.123
N2900 X1.8262 Y0.6961 F39.37
N2905 X1.8276 Y0.696
N2910 X1.8301 Y0.6956
N2915 X1.8323 Y0.6946
N2920 X1.8343 Y0.6931
N2925 X1.8353 Y0.6921
N2930 X1.8367 Y0.6903
N2935 X1.8377 Y0.6882
N2940 X1.8384 Y0.6863
N2945 X1.8388 Y0.6843
N2950 X1.8392 Y0.6814
N2955 X1.8393 Y0.6804
N2960 Y0.6767
N2965 Y0.6761
N2970 X1.8391 Y0.6715
N2975 Y0.6712
N2980 X1.8387 Y0.6658
N2985 Y0.6656
N2990 X1.8382 Y0.6594
N2995 X1.8381 Y0.6593
N3000 X1.8374 Y0.6524
N3005 Y0.6523
N3010 X1.8366 Y0.6447
N3015 Y0.6446
N3020 X1.8356 Y0.6364
N3025 Y0.6363
N3030 X1.8346 Y0.6274
N3035 X1.8335 Y0.6179
N3040 X1.8323 Y0.6079
N3045 X1.8311 Y0.5973
N3050 X1.8299 Y0.5863
N3055 X1.8287 Y0.5748
N3060 X1.8261 Y0.5508
N3065 X1.8236 Y0.5255
N3070 X1.821 Y0.4993
N3075 X1.8184 Y0.4726
N3080 X1.8133 Y0.4183
N3085 X1.8106 Y0.3915
N3090 Y0.3914
N3095 X1.8079 Y0.365
N3100 X1.805 Y0.3393
N3105 Y0.3392
N3110 X1.8021 Y0.3143
N3115 Y0.3142
N3120 X1.799 Y0.2904
N3125 Y0.2903
N3130 X1.7958 Y0.2676
N3135 X1.7957 Y0.2674
N3140 X1.7924 Y0.2459
N3145 X1.7923 Y0.2458
N3150 X1.7888 Y0.2256
N3155 X1.7887 Y0.2254
N3160 X1.785 Y0.2066
N3165 X1.7849 Y0.2063
N3170 X1.781 Y0.189
N3175 Y0.1887
N3180 X1.7769 Y0.1727
N3185 X1.7768 Y0.1724
N3190 X1.7725 Y0.1579
N3195 X1.7723 Y0.1575
N3200 X1.7679 Y0.1445
N3205 X1.7677 Y0.144
N3210 X1.763 Y0.1326
N3215 X1.7628 Y0.132
N3220 X1.7579 Y0.122
N3225 X1.7575 Y0.1213
N3230 X1.7525 Y0.1128
N3235 G2 X1.7439 Y0.1079 I-0.0086 J0.0051
N3240 G1 X1.37
N3245 G2 X1.3626 Y0.1246 I0. J0.01
N3250 G1 X1.3735 Y0.1367
N3255 X1.3841 Y0.1484
N3260 X1.3944 Y0.1597
N3265 X1.4042 Y0.1705
N3270 X1.4137 Y0.1809
N3275 X1.4229 Y0.1909
N3280 X1.4316 Y0.2005
N3285 X1.4317
N3290 X1.4401 Y0.2097
N3295 X1.4482 Y0.2185
N3300 X1.4559 Y0.2269
N3305 X1.4633 Y0.2349
N3310 X1.4703 Y0.2426
N3315 X1.4771 Y0.2498
N3320 X1.4835 Y0.2567
N3325 X1.4896 Y0.2632
N3330 X1.4954 Y0.2694
N3335 X1.5008 Y0.2752
N3340 X1.506 Y0.2807
N3345 X1.5109 Y0.2859
N3350 X1.5156 Y0.2908
N3355 X1.524 Y0.2996
N3360 X1.5315 Y0.3073
N3365 X1.538 Y0.314
N3370 X1.5437 Y0.3198
N3375 X1.5486 Y0.3247
N3380 X1.5528 Y0.3289
N3385 X1.5564 Y0.3325
N3390 X1.5594 Y0.3355
N3395 X1.562 Y0.338
N3400 X1.5642 Y0.3402
N3405 X1.5677 Y0.3439
N3410 X1.5707 Y0.3474
N3415 X1.5739 Y0.3516
N3420 X1.5758 Y0.3541
N3425 X1.5779 Y0.3571
N3430 X1.5804 Y0.3606
N3435 X1.5831 Y0.3646
N3440 X1.5863 Y0.3692
N3445 X1.5899 Y0.3745
N3450 X1.594 Y0.3803
N3455 X1.5985 Y0.3869
N3460 X1.6034 Y0.394
N3465 X1.6089 Y0.4019
N3470 X1.6148 Y0.4104
N3475 X1.6211 Y0.4195
N3480 X1.6278 Y0.4292
N3485 X1.6279
N3490 X1.635 Y0.4395
N3495 X1.6426 Y0.4503
N3500 X1.6504 Y0.4616
N3505 X1.6586 Y0.4733
N3510 X1.667 Y0.4853
N3515 X1.6844 Y0.5101
N3520 X1.7021 Y0.5355
N3525 X1.7031 Y0.5368
N3530 X1.7199 Y0.5608
N3535 X1.7371 Y0.5855
N3540 X1.7454 Y0.5973
N3545 X1.7455 Y0.5974
N3550 X1.7535 Y0.6088
N3555 X1.7612 Y0.6198
N3560 X1.7613
N3565 X1.7686 Y0.6302
N3570 X1.7756 Y0.64
N3575 X1.7821 Y0.6491
N3580 X1.7822 Y0.6492
N3585 X1.7882 Y0.6575
N3590 X1.7883 Y0.6576
N3595 X1.7938 Y0.6651
N3600 X1.7939 Y0.6652
N3605 X1.7989 Y0.6719
N3610 X1.799 Y0.672
N3615 X1.8035 Y0.6778
N3620 X1.8036 Y0.678
N3625 X1.8076 Y0.6828
N3630 X1.8078 Y0.6831
N3635 X1.8112 Y0.687
N3640 X1.8116 Y0.6874
N3645 X1.8145 Y0.6903
N3650 X1.8153 Y0.691
N3655 X1.8176 Y0.6929
N3660 X1.8195 Y0.6942
N3665 X1.8214 Y0.6951
N3670 X1.8228 Y0.6956
N3675 X1.8243 Y0.696
N3680 G0 Z0.2
N3685 X1.8787 Y0.6899
N3690 G1 Z-0.01 F13.123
N3695 X1.879 Y0.693 F39.37
N3700 Y0.6932
N3705 X1.8801 Y0.7017
N3710 X1.8802 Y0.7019
N3715 X1.8813 Y0.7094
N3720 X1.8814 Y0.7098
N3725 X1.8827 Y0.7162
N3730 X1.8828 Y0.7167
N3735 X1.8841 Y0.722
N3740 X1.8844 Y0.7228
N3745 X1.8858 Y0.7271
N3750 X1.8863 Y0.7283
N3755 X1.8879 Y0.7314
N3760 X1.8892 Y0.7334
N3765 X1.891 Y0.7354
N3770 X1.8924 Y0.7368
N3775 X1.8942 Y0.7379
N3780 X1.8961 Y0.7388
N3785 X1.8977 Y0.7394
N3790 X1.8994 Y0.7398
N3795 X1.9012
N3800 X1.9032 Y0.7396
N3805 X1.9052 Y0.7393
N3810 X1.9071 Y0.7385
N3815 X1.9094 Y0.7374
N3820 X1.9114 Y0.736
N3825 X1.9138 Y0.7338
N3830 X1.9148 Y0.7329
N3835 X1.9175 Y0.7297
N3840 X1.918 Y0.7291
N3845 X1.9209 Y0.725
N3850 X1.9212 Y0.7246
N3855 X1.9244 Y0.7197
N3860 X1.9246 Y0.7194
N3865 X1.9281 Y0.7137
N3870 X1.9282 Y0.7135
N3875 X1.9319 Y0.7069
N3880 X1.932 Y0.7068
N3885 X1.936 Y0.6996
N3890 Y0.6995
N3895 X1.9403 Y0.6915
N3900 X1.9448 Y0.6829
N3905 Y0.6828
N3910 X1.9496 Y0.6736
N3915 X1.9547 Y0.6639
N3920 Y0.6638
N3925 X1.96 Y0.6536
N3930 Y0.6535
N3935 X1.9656 Y0.6428
N3940 X1.9713 Y0.6315
N3945 X1.9774 Y0.6199
N3950 X1.9836 Y0.6079
N3955 X1.9966 Y0.5829
N3960 X2.0103 Y0.5569
N3965 X2.0245 Y0.5301
N3970 X2.0392 Y0.5029
N3975 X2.0692 Y0.4479
N3980 X2.0843 Y0.4207
N3985 X2.0991 Y0.3939
N3990 X2.1137 Y0.3677
N3995 X2.1278 Y0.3424
N4000 X2.1415 Y0.318
N4005 Y0.3179
N4010 X2.1545 Y0.2946
N4015 X2.1667 Y0.2725
N4020 Y0.2724
N4025 X2.1782 Y0.2516
N4030 X2.1837 Y0.2416
N4035 X2.1889 Y0.232
N4040 X2.1939 Y0.2228
N4045 X2.194 Y0.2227
N4050 X2.1987 Y0.2139
N4055 X2.1988 Y0.2138
N4060 X2.2033 Y0.2053
N4065 X2.2077 Y0.1971
N4070 X2.2118 Y0.1893
N4075 X2.2157 Y0.1819
N4080 Y0.1818
N4085 X2.2193 Y0.1748
N4090 X2.2227 Y0.1681
N4095 X2.2228 Y0.168
N4100 X2.2259 Y0.1618
N4105 Y0.1617
N4110 X2.2288 Y0.1558
N4115 X2.2289 Y0.1557
N4120 X2.2315 Y0.1502
N4125 X2.2316 Y0.1501
N4130 X2.234 Y0.145
N4135 X2.2341 Y0.1449
N4140 X2.2362 Y0.1401
N4145 X2.2363 Y0.14
N4150 X2.2382 Y0.1356
N4155 X2.2383 Y0.1355
N4160 X2.24 Y0.1315
N4165 X2.2401 Y0.1313
N4170 X2.2415 Y0.1277
N4175 X2.2416 Y0.1275
N4180 X2.2428 Y0.1243
N4185 X2.2429 Y0.124
N4190 X2.2439 Y0.1211
N4195 G2 X2.2345 Y0.1079 I-0.0095 J-0.0032
N4200 G1 X1.834
N4205 G2 X1.8241 Y0.1193 I0. J0.01
N4210 G1 X1.8258 Y0.1313
N4215 X1.8275 Y0.1428
N4220 X1.8291 Y0.1539
N4225 X1.8307 Y0.1646
N4230 X1.8322 Y0.1748
N4235 Y0.1749
N4240 X1.8337 Y0.1847
N4245 X1.8351 Y0.1941
N4250 X1.8365 Y0.2031
N4255 X1.8391 Y0.2199
N4260 Y0.22
N4265 X1.8415 Y0.2352
N4270 Y0.2353
N4275 X1.8438 Y0.2491
N4280 X1.8458 Y0.2615
N4285 X1.8477 Y0.2726
N4290 X1.8494 Y0.2825
N4295 X1.851 Y0.2913
N4300 X1.8524 Y0.299
N4305 Y0.2991
N4310 X1.8537 Y0.3059
N4315 X1.8548 Y0.312
N4320 X1.8558 Y0.3174
N4325 X1.8567 Y0.3223
N4330 X1.8582 Y0.3307
N4335 X1.8594 Y0.3383
N4340 X1.8603 Y0.3459
N4345 X1.8611 Y0.3547
N4350 X1.8615 Y0.3596
N4355 X1.8618 Y0.3651
N4360 X1.8622 Y0.3712
N4365 X1.8625 Y0.3779
N4370 X1.8628 Y0.3853
N4375 X1.8632 Y0.3933
N4380 X1.8636 Y0.4021
N4385 X1.8639 Y0.4117
N4390 X1.8643 Y0.4219
N4395 X1.8648 Y0.4328
N4400 X1.8652 Y0.4444
N4405 X1.8657 Y0.4566
N4410 X1.8662 Y0.4693
N4415 X1.8667 Y0.4825
N4420 X1.8679 Y0.5102
N4425 X1.8704 Y0.5679
N4430 Y0.568
N4435 X1.8719 Y0.5966
N4440 Y0.5967
N4445 X1.8734 Y0.6241
N4450 Y0.6242
N4455 X1.8742 Y0.6373
N4460 X1.8751 Y0.6498
N4465 Y0.6499
N4470 X1.876 Y0.6618
N4475 Y0.6619
N4480 X1.8769 Y0.673
N4485 X1.877 Y0.6731
N4490 X1.8779 Y0.6834
N4495 X1.878 Y0.6836
N4500 X1.8787 Y0.6899
N4505 G0 Z0.6

N4510 M5
N4515 M9
N4520 G53 G0 Z0.
N4525 G53 G0 X-23.96 Y-3.37
N4530 M11
N4535 M13
N4540 G0 B0. C0.
N4545 M30

%
