%
O07002
(Using high feed G1 F650. instead of G0.)
(Machine)
(  vendor: Haas Automation)
(  model: HAAS UMC-750)
(T1 D=0.25 CR=0. TAPER=90deg - ZMIN=-0.1587 - spot drill)
N10 G90 G94 G17
N15 G20
N20 G53 G0 Z0.

(Engrave1)
N25 T1 M6
N30 S5000 M3
N35 G17 G90
N40 G54
N45 G53 G0 X-29. Y-8.
N50 G0 B0. C0.
N55 M8
N60 G1 X-0.9503 Y-0.0421 F650.
N65 G0 G43 Z0.6 H1
N70 G0 Z0.16
N75 G1 Z-0.04 F13.123
N80 X-0.9339 Y-0.0391 Z-0.0565 F39.37
N85 X-0.9323 Y-0.0386 Z-0.0582
N90 X-0.927 Y-0.0377 Z-0.0633
N95 X-0.921 Y-0.0371 Z-0.0687
N100 X-0.9154 Y-0.037 Z-0.0736
N105 X-0.9106 Y-0.0372 Z-0.0776
N110 X-0.9068 Y-0.0377 Z-0.0807
N115 X-0.9037 Y-0.0383 Z-0.083
N120 X-0.9011 Y-0.0391 Z-0.0849
N125 X-0.8986 Y-0.04 Z-0.0866
N130 X-0.8984 Y-0.0401 Z-0.0867
N135 X-0.8971 Y-0.037 Z-0.084
N140 X-0.8952 Y-0.033 Z-0.0801
N145 X-0.8927 Y-0.0289 Z-0.0758
N150 X-0.89 Y-0.0251 Z-0.0714
N155 X-0.8839 Y-0.018 Z-0.0625
N160 X-0.8815 Y-0.0157 Z-0.0591
N165 X-0.8839 Y-0.018 Z-0.0625
N170 X-0.89 Y-0.0251 Z-0.0714
N175 X-0.8927 Y-0.0289 Z-0.0758
N180 X-0.8952 Y-0.033 Z-0.0801
N185 X-0.8971 Y-0.037 Z-0.084
N190 X-0.8984 Y-0.0401 Z-0.0867
N195 X-0.8183 Y-0.1682 Z-0.0918
N200 X-0.8167 Y-0.1705 Z-0.092
N205 X-0.815 Y-0.1728 Z-0.0923
N210 X-0.8133 Y-0.1751 Z-0.0927
N215 X-0.8115 Y-0.1773 Z-0.0931
N220 X-0.8096 Y-0.1796 Z-0.0936
N225 X-0.8077 Y-0.1817 Z-0.0942
N230 X-0.8057 Y-0.1838 Z-0.0949
N235 X-0.8036 Y-0.1859 Z-0.0956
N240 X-0.8015 Y-0.1879 Z-0.0965
N245 X-0.7992 Y-0.1899 Z-0.0974
N250 X-0.797 Y-0.1919 Z-0.0984
N255 X-0.7946 Y-0.1938 Z-0.0995
N260 X-0.7922 Y-0.1957 Z-0.1006
N265 X-0.7897 Y-0.1975 Z-0.1018
N270 X-0.7872 Y-0.1993 Z-0.1032
N275 X-0.7845 Y-0.2011 Z-0.1045
N280 X-0.7818 Y-0.2028 Z-0.106
N285 X-0.7791 Y-0.2045 Z-0.1075
N290 X-0.7763 Y-0.2062 Z-0.1092
N295 X-0.7768 Y-0.2106 Z-0.1065
N300 X-0.7775 Y-0.2142 Z-0.1041
N305 X-0.7787 Y-0.2197 Z-0.1003
N310 X-0.78 Y-0.2248 Z-0.0966
N315 X-0.7804 Y-0.2291 Z-0.093
N320 X-0.7807 Y-0.2333 Z-0.0893
N325 X-0.781 Y-0.2366 Z-0.0862
N330 X-0.7813 Y-0.2395 Z-0.0835
N335 X-0.7814 Y-0.2402 Z-0.0827
N340 X-0.7813 Y-0.2395 Z-0.0835
N345 X-0.781 Y-0.2366 Z-0.0862
N350 X-0.7807 Y-0.2333 Z-0.0893
N355 X-0.7804 Y-0.2291 Z-0.093
N360 X-0.78 Y-0.2248 Z-0.0966
N365 X-0.7787 Y-0.2197 Z-0.1003
N370 X-0.7775 Y-0.2142 Z-0.1041
N375 X-0.7768 Y-0.2106 Z-0.1065
N380 X-0.7763 Y-0.2062 Z-0.1092
N385 X-0.7733 Y-0.2048 Z-0.1079
N390 X-0.7703 Y-0.2035 Z-0.1068
N395 X-0.7675 Y-0.2021 Z-0.1057
N400 X-0.7646 Y-0.2006 Z-0.1048
N405 X-0.7619 Y-0.1991 Z-0.1039
N410 X-0.7591 Y-0.1975 Z-0.1031
N415 X-0.7565 Y-0.1958 Z-0.1023
N420 X-0.7539 Y-0.1942 Z-0.1017
N425 X-0.7513 Y-0.1924 Z-0.1011
N430 X-0.7488 Y-0.1906 Z-0.1006
N435 X-0.7464 Y-0.1888 Z-0.1001
N440 X-0.744 Y-0.1869 Z-0.0998
N445 X-0.7417 Y-0.1849 Z-0.0995
N450 X-0.7394 Y-0.1829 Z-0.0994
N455 X-0.7372 Y-0.1808 Z-0.0992
N460 X-0.6713 Y-0.114 Z-0.0996
N465 X-0.6691 Y-0.1119
N470 X-0.6669 Y-0.1098 Z-0.0998
N475 X-0.6645 Y-0.1078 Z-0.0999
N480 X-0.6622 Y-0.1057 Z-0.1002
N485 X-0.6598 Y-0.1038 Z-0.1006
N490 X-0.6574 Y-0.1019 Z-0.1011
N495 X-0.6548 Y-0.1001 Z-0.1015
N500 X-0.6523 Y-0.0983 Z-0.1022
N505 X-0.6496 Y-0.0967 Z-0.1028
N510 X-0.647 Y-0.095 Z-0.1036
N515 X-0.6442 Y-0.0934 Z-0.1044
N520 X-0.6414 Y-0.0918 Z-0.1054
N525 X-0.6386 Y-0.0903 Z-0.1063
N530 X-0.6357 Y-0.0889 Z-0.1075
N535 X-0.6327 Y-0.0875 Z-0.1086
N540 X-0.6297 Y-0.0862 Z-0.1098
N545 X-0.6266 Y-0.0849 Z-0.1111
N550 X-0.6235 Y-0.0837 Z-0.1125
N555 X-0.6203 Y-0.0825 Z-0.114
N560 X-0.6171 Y-0.0814 Z-0.1155
N565 X-0.6137 Y-0.0804 Z-0.1172
N570 X-0.6104 Y-0.0793 Z-0.1189
N575 X-0.6035 Y-0.0775 Z-0.1225
N580 X-0.5997 Y-0.0829 Z-0.1187
N585 X-0.5962 Y-0.0884 Z-0.1152
N590 X-0.5929 Y-0.0938 Z-0.1119
N595 X-0.5899 Y-0.0992 Z-0.1089
N600 X-0.5872 Y-0.1047 Z-0.1062
N605 X-0.5847 Y-0.1101 Z-0.1038
N610 X-0.5837 Y-0.1128 Z-0.1026
N615 X-0.5826 Y-0.1155 Z-0.1016
N620 X-0.5816 Y-0.1183 Z-0.1006
N625 X-0.5807 Y-0.121 Z-0.0997
N630 X-0.5437 Y-0.2351 Z-0.0627
N635 X-0.5433 Y-0.2368 Z-0.0623
N640 X-0.5429 Y-0.2385 Z-0.0618
N645 X-0.5426 Y-0.2402 Z-0.0616
N650 X-0.5424 Y-0.2419 Z-0.0613
N655 X-0.5422 Y-0.2436 Z-0.0612
N660 X-0.5421 Y-0.2453 Z-0.061
N665 X-0.542 Y-0.247
N670 X-0.5421 Y-0.4507
N675 X-0.5422 Y-0.4525 Z-0.0612
N680 X-0.5424 Y-0.4543 Z-0.0613
N685 X-0.5426 Y-0.4561 Z-0.0616
N690 X-0.543 Y-0.4579 Z-0.0619
N695 X-0.5434 Y-0.4596 Z-0.0624
N700 X-0.5439 Y-0.4614 Z-0.0629
N705 X-0.5445 Y-0.4632 Z-0.0635
N710 X-0.5451 Y-0.465 Z-0.0641
N715 X-0.5458 Y-0.4668 Z-0.0648
N720 X-0.5741 Y-0.5331 Z-0.0931
N725 X-0.5699 Y-0.5366 Z-0.0889
N730 X-0.5661 Y-0.54 Z-0.0851
N735 X-0.5625 Y-0.5435 Z-0.0815
N740 X-0.5592 Y-0.5469 Z-0.0782
N745 X-0.5563 Y-0.5504 Z-0.0753
N750 X-0.5536 Y-0.5539 Z-0.0726
N755 X-0.5511 Y-0.5573 Z-0.0701
N760 X-0.549 Y-0.5608 Z-0.068
N765 X-0.5471 Y-0.5642 Z-0.0661
N770 X-0.5456 Y-0.5677 Z-0.0646
N775 X-0.5449 Y-0.5694 Z-0.0639
N780 X-0.5443 Y-0.5712 Z-0.0633
N785 X-0.5438 Y-0.5729 Z-0.0627
N790 X-0.5433 Y-0.5746 Z-0.0623
N795 X-0.5429 Y-0.5764 Z-0.0619
N800 X-0.5426 Y-0.5781 Z-0.0616
N805 X-0.5424 Y-0.5798 Z-0.0613
N810 X-0.5422 Y-0.5815 Z-0.0612
N815 X-0.5421 Y-0.5833 Z-0.061
N820 X-0.542 Y-0.585
N825 Y-0.632
N830 X-0.563 Y-0.653 Z-0.04
N835 X-0.542 Y-0.632 Z-0.061
N840 X-0.521 Y-0.653 Z-0.04
N845 X-0.542 Y-0.632 Z-0.061
N850 Y-0.585
N855 X-0.5421 Y-0.5833
N860 X-0.5422 Y-0.5815 Z-0.0612
N865 X-0.5424 Y-0.5798 Z-0.0613
N870 X-0.5426 Y-0.5781 Z-0.0616
N875 X-0.5429 Y-0.5764 Z-0.0619
N880 X-0.5433 Y-0.5746 Z-0.0623
N885 X-0.5438 Y-0.5729 Z-0.0627
N890 X-0.5443 Y-0.5712 Z-0.0633
N895 X-0.5449 Y-0.5694 Z-0.0639
N900 X-0.5456 Y-0.5677 Z-0.0646
N905 X-0.5471 Y-0.5642 Z-0.0661
N910 X-0.549 Y-0.5608 Z-0.068
N915 X-0.5511 Y-0.5573 Z-0.0701
N920 X-0.5536 Y-0.5539 Z-0.0726
N925 X-0.5563 Y-0.5504 Z-0.0753
N930 X-0.5592 Y-0.5469 Z-0.0782
N935 X-0.5625 Y-0.5435 Z-0.0815
N940 X-0.5661 Y-0.54 Z-0.0851
N945 X-0.5699 Y-0.5366 Z-0.0889
N950 X-0.5741 Y-0.5331 Z-0.0931
N955 X-0.5764 Y-0.5344 Z-0.0923
N960 X-0.5787 Y-0.5357 Z-0.0917
N965 X-0.5809 Y-0.5371 Z-0.0911
N970 X-0.5831 Y-0.5385 Z-0.0907
N975 X-0.5853 Y-0.54 Z-0.0902
N980 X-0.5874 Y-0.5415 Z-0.0899
N985 X-0.5894 Y-0.5431 Z-0.0895
N990 X-0.5915 Y-0.5447 Z-0.0893
N995 X-0.5934 Y-0.5464 Z-0.0891
N1000 X-0.599 Y-0.5514 Z-0.089
N1005 X-0.5999 Y-0.5526 Z-0.0887
N1010 X-0.5998 Y-0.5536 Z-0.0878
N1015 X-0.5994 Y-0.5556 Z-0.0861
N1020 X-0.5984 Y-0.5595 Z-0.0826
N1025 X-0.5982 Y-0.5602 Z-0.082
N1030 X-0.5973 Y-0.5629 Z-0.0795
N1035 X-0.5961 Y-0.5658 Z-0.0766
N1040 X-0.5929 Y-0.5728 Z-0.0693
N1045 X-0.5911 Y-0.5762 Z-0.0656
N1050 X-0.589 Y-0.5797 Z-0.0615
N1055 X-0.5911 Y-0.5762 Z-0.0656
N1060 X-0.5929 Y-0.5728 Z-0.0693
N1065 X-0.5961 Y-0.5658 Z-0.0766
N1070 X-0.5973 Y-0.5629 Z-0.0795
N1075 X-0.5982 Y-0.5602 Z-0.082
N1080 X-0.5984 Y-0.5595 Z-0.0826
N1085 X-0.5994 Y-0.5556 Z-0.0861
N1090 X-0.5998 Y-0.5536 Z-0.0878
N1095 X-0.5999 Y-0.5526 Z-0.0887
N1100 X-0.602 Y-0.5533 Z-0.0869
N1105 X-0.6056 Y-0.5543 Z-0.0838
N1110 X-0.6095 Y-0.5553 Z-0.0802
N1115 X-0.611 Y-0.5556 Z-0.0787
N1120 X-0.6095 Y-0.5553 Z-0.0802
N1125 X-0.6056 Y-0.5543 Z-0.0838
N1130 X-0.602 Y-0.5533 Z-0.0869
N1135 X-0.5999 Y-0.5526 Z-0.0887
N1140 X-0.599 Y-0.5514 Z-0.089
N1145 X-0.5934 Y-0.5464 Z-0.0891
N1150 X-0.5915 Y-0.5447 Z-0.0893
N1155 X-0.5894 Y-0.5431 Z-0.0895
N1160 X-0.5874 Y-0.5415 Z-0.0899
N1165 X-0.5853 Y-0.54 Z-0.0902
N1170 X-0.5831 Y-0.5385 Z-0.0907
N1175 X-0.5809 Y-0.5371 Z-0.0911
N1180 X-0.5787 Y-0.5357 Z-0.0917
N1185 X-0.5764 Y-0.5344 Z-0.0923
N1190 X-0.5741 Y-0.5331 Z-0.0931
N1195 X-0.5458 Y-0.4668 Z-0.0648
N1200 X-0.5451 Y-0.465 Z-0.0641
N1205 X-0.5445 Y-0.4632 Z-0.0635
N1210 X-0.5439 Y-0.4614 Z-0.0629
N1215 X-0.5434 Y-0.4596 Z-0.0624
N1220 X-0.543 Y-0.4579 Z-0.0619
N1225 X-0.5426 Y-0.4561 Z-0.0616
N1230 X-0.5424 Y-0.4543 Z-0.0613
N1235 X-0.5422 Y-0.4525 Z-0.0612
N1240 X-0.5421 Y-0.4507 Z-0.061
N1245 X-0.542 Y-0.247
N1250 X-0.5421 Y-0.2453
N1255 X-0.5422 Y-0.2436 Z-0.0612
N1260 X-0.5424 Y-0.2419 Z-0.0613
N1265 X-0.5426 Y-0.2402 Z-0.0616
N1270 X-0.5429 Y-0.2385 Z-0.0618
N1275 X-0.5433 Y-0.2368 Z-0.0623
N1280 X-0.5437 Y-0.2351 Z-0.0627
N1285 X-0.5807 Y-0.121 Z-0.0997
N1290 X-0.5816 Y-0.1183 Z-0.1006
N1295 X-0.5826 Y-0.1155 Z-0.1016
N1300 X-0.5837 Y-0.1128 Z-0.1026
N1305 X-0.5847 Y-0.1101 Z-0.1038
N1310 X-0.5872 Y-0.1047 Z-0.1062
N1315 X-0.5899 Y-0.0992 Z-0.1089
N1320 X-0.5929 Y-0.0938 Z-0.1119
N1325 X-0.5962 Y-0.0884 Z-0.1152
N1330 X-0.5997 Y-0.0829 Z-0.1187
N1335 X-0.6035 Y-0.0775 Z-0.1225
N1340 X-0.5449 Y0.0666 Z-0.0638
N1345 X-0.5443 Y0.0683 Z-0.0633
N1350 X-0.5438 Y0.07 Z-0.0627
N1355 X-0.5433 Y0.0717 Z-0.0623
N1360 X-0.5429 Y0.0734 Z-0.0619
N1365 X-0.5426 Y0.0751 Z-0.0616
N1370 X-0.5424 Y0.0769 Z-0.0613
N1375 X-0.5422 Y0.0786 Z-0.0612
N1380 X-0.5421 Y0.0803 Z-0.061
N1385 X-0.542 Y0.082
N1390 X-0.5421 Y0.1779
N1395 Y0.1795 Z-0.0611
N1400 X-0.5423 Y0.1811 Z-0.0613
N1405 X-0.5425 Y0.1827 Z-0.0615
N1410 X-0.5428 Y0.1843 Z-0.0618
N1415 X-0.5431 Y0.1859 Z-0.0621
N1420 X-0.5435 Y0.1875 Z-0.0625
N1425 X-0.544 Y0.1891 Z-0.063
N1430 X-0.5451 Y0.1923 Z-0.0641
N1435 X-0.5464 Y0.1955 Z-0.0654
N1440 X-0.5731 Y0.2539 Z-0.0921
N1445 X-0.5753 Y0.2551 Z-0.0914
N1450 X-0.5775 Y0.2562 Z-0.0909
N1455 X-0.5796 Y0.2574 Z-0.0904
N1460 X-0.5818 Y0.2587 Z-0.09
N1465 X-0.5838 Y0.26 Z-0.0896
N1470 X-0.5859 Y0.2613 Z-0.0893
N1475 X-0.5879 Y0.2627 Z-0.089
N1480 X-0.5898 Y0.2642 Z-0.0888
N1485 X-0.5958 Y0.2686 Z-0.0884
N1490 X-0.5985 Y0.2704 Z-0.0883
N1495 X-0.6006 Y0.2717
N1500 X-0.6027 Y0.273 Z-0.0885
N1505 X-0.6048 Y0.2742 Z-0.0886
N1510 X-0.607 Y0.2754 Z-0.0889
N1515 X-0.6092 Y0.2765 Z-0.0891
N1520 X-0.6115 Y0.2776 Z-0.0895
N1525 X-0.6117 Y0.2851 Z-0.0834
N1530 X-0.6115 Y0.2866 Z-0.0819
N1535 X-0.6107 Y0.2902 Z-0.0785
N1540 X-0.6086 Y0.298 Z-0.0707
N1545 X-0.6107 Y0.2902 Z-0.0785
N1550 X-0.6115 Y0.2866 Z-0.0819
N1555 X-0.6117 Y0.2851 Z-0.0834
N1560 X-0.6115 Y0.2776 Z-0.0895
N1565 X-0.6141 Y0.2771 Z-0.0883
N1570 X-0.6167 Y0.2765 Z-0.0872
N1575 X-0.6192 Y0.2758 Z-0.0862
N1580 X-0.6218 Y0.2752 Z-0.0853
N1585 X-0.6242 Y0.2744 Z-0.0844
N1590 X-0.6267 Y0.2736 Z-0.0837
N1595 X-0.629 Y0.2727 Z-0.0829
N1600 X-0.6314 Y0.2718 Z-0.0823
N1605 X-0.6336 Y0.2708 Z-0.0817
N1610 X-0.6359 Y0.2698 Z-0.0812
N1615 X-0.6381 Y0.2686 Z-0.0808
N1620 X-0.6402 Y0.2675 Z-0.0805
N1625 X-0.6423 Y0.2663 Z-0.0802
N1630 X-0.6444 Y0.265 Z-0.08
N1635 X-0.6464 Y0.2636 Z-0.0799
N1640 X-0.7929 Y0.1564 Z-0.0791
N1645 X-0.7937 Y0.1563 Z-0.0787
N1650 X-0.7949 Y0.1562 Z-0.0779
N1655 X-0.7966 Y0.1561 Z-0.0766
N1660 X-0.7989 Z-0.0747
N1665 X-0.8012 Z-0.0727
N1670 X-0.8029 Y0.1563 Z-0.071
N1675 X-0.8012 Y0.1561 Z-0.0727
N1680 X-0.7989 Z-0.0747
N1685 X-0.7966 Z-0.0766
N1690 X-0.7949 Y0.1562 Z-0.0779
N1695 X-0.7937 Y0.1563 Z-0.0787
N1700 X-0.7929 Y0.1564 Z-0.0791
N1705 X-0.7928 Y0.1556 Z-0.0785
N1710 X-0.7923 Y0.1526 Z-0.0757
N1715 X-0.7912 Y0.1486 Z-0.0718
N1720 X-0.7897 Y0.1444 Z-0.0675
N1725 X-0.7912 Y0.1486 Z-0.0718
N1730 X-0.7923 Y0.1526 Z-0.0757
N1735 X-0.7928 Y0.1556 Z-0.0785
N1740 X-0.7929 Y0.1564 Z-0.0791
N1745 X-0.6464 Y0.2636 Z-0.0799
N1750 X-0.6444 Y0.265 Z-0.08
N1755 X-0.6423 Y0.2663 Z-0.0802
N1760 X-0.6402 Y0.2675 Z-0.0805
N1765 X-0.6381 Y0.2686 Z-0.0808
N1770 X-0.6359 Y0.2698 Z-0.0812
N1775 X-0.6336 Y0.2708 Z-0.0817
N1780 X-0.6314 Y0.2718 Z-0.0823
N1785 X-0.629 Y0.2727 Z-0.0829
N1790 X-0.6267 Y0.2736 Z-0.0837
N1795 X-0.6242 Y0.2744 Z-0.0844
N1800 X-0.6218 Y0.2752 Z-0.0853
N1805 X-0.6192 Y0.2758 Z-0.0862
N1810 X-0.6167 Y0.2765 Z-0.0872
N1815 X-0.6141 Y0.2771 Z-0.0883
N1820 X-0.6115 Y0.2776 Z-0.0895
N1825 X-0.6092 Y0.2765 Z-0.0891
N1830 X-0.607 Y0.2754 Z-0.0889
N1835 X-0.6048 Y0.2742 Z-0.0886
N1840 X-0.6027 Y0.273 Z-0.0885
N1845 X-0.6006 Y0.2717 Z-0.0883
N1850 X-0.5985 Y0.2704
N1855 X-0.5958 Y0.2686 Z-0.0884
N1860 X-0.5898 Y0.2642 Z-0.0888
N1865 X-0.5879 Y0.2627 Z-0.089
N1870 X-0.5859 Y0.2613 Z-0.0893
N1875 X-0.5838 Y0.26 Z-0.0896
N1880 X-0.5818 Y0.2587 Z-0.09
N1885 X-0.5796 Y0.2574 Z-0.0904
N1890 X-0.5775 Y0.2562 Z-0.0909
N1895 X-0.5753 Y0.2551 Z-0.0914
N1900 X-0.5731 Y0.2539 Z-0.0921
N1905 X-0.5688 Y0.2576 Z-0.0878
N1910 X-0.5648 Y0.2612 Z-0.0838
N1915 X-0.5612 Y0.2649 Z-0.0802
N1920 X-0.5579 Y0.2685 Z-0.0769
N1925 X-0.5549 Y0.2722 Z-0.0739
N1930 X-0.5522 Y0.2758 Z-0.0712
N1935 X-0.5498 Y0.2795 Z-0.0688
N1940 X-0.5488 Y0.2813 Z-0.0677
N1945 X-0.5477 Y0.2831 Z-0.0667
N1950 X-0.5468 Y0.2849 Z-0.0658
N1955 X-0.546 Y0.2868 Z-0.065
N1960 X-0.5453 Y0.2886 Z-0.0642
N1965 X-0.5446 Y0.2904 Z-0.0636
N1970 X-0.544 Y0.2922 Z-0.0629
N1975 X-0.5434 Y0.2941 Z-0.0624
N1980 X-0.543 Y0.2959 Z-0.062
N1985 X-0.5427 Y0.2977 Z-0.0617
N1990 X-0.5424 Y0.2995 Z-0.0613
N1995 X-0.5422 Y0.3014 Z-0.0612
N2000 X-0.5421 Y0.3032 Z-0.061
N2005 X-0.542 Y0.499
N2010 X-0.521 Y0.52 Z-0.04
N2015 X-0.542 Y0.499 Z-0.061
N2020 X-0.563 Y0.52 Z-0.04
N2025 G0 Z0.2
N2030 G1 X0.54 Y-0.653 F650.
N2035 G0 Z0.16
N2040 G1 Z-0.04 F13.123
N2045 X0.561 Y-0.632 Z-0.061 F39.37
N2050 X0.582 Y-0.653 Z-0.04
N2055 X0.561 Y-0.632 Z-0.061
N2060 Y-0.566
N2065 X0.5611 Y-0.5643
N2070 Y-0.5625 Z-0.0611
N2075 X0.5614 Y-0.5608 Z-0.0613
N2080 X0.5616 Y-0.5591 Z-0.0616
N2085 X0.5619 Y-0.5573 Z-0.0619
N2090 X0.5623 Y-0.5556 Z-0.0623
N2095 X0.5628 Y-0.5539 Z-0.0627
N2100 X0.5633 Y-0.5522 Z-0.0633
N2105 X0.5639 Y-0.5504 Z-0.0639
N2110 X0.591 Y-0.4845 Z-0.091
N2115 X0.585 Y-0.4814 Z-0.085
N2120 X0.5805 Y-0.4788 Z-0.0805
N2125 X0.5764 Y-0.4763 Z-0.0764
N2130 X0.5726 Y-0.4737 Z-0.0726
N2135 X0.569 Y-0.4712 Z-0.069
N2140 X0.5658 Y-0.4687 Z-0.0658
N2145 X0.5629 Y-0.4661 Z-0.0629
N2150 X0.5603 Y-0.4636 Z-0.0603
N2155 X0.558 Y-0.4611 Z-0.058
N2160 X0.556 Y-0.4585 Z-0.056
N2165 X0.5543 Y-0.456 Z-0.0543
N2170 X0.553 Y-0.4534 Z-0.053
N2175 X0.5524 Y-0.4522 Z-0.0524
N2180 X0.5519 Y-0.4509 Z-0.0519
N2185 X0.5515 Y-0.4496 Z-0.0514
N2190 X0.5511 Y-0.4484 Z-0.0511
N2195 X0.5509 Y-0.4471 Z-0.0508
N2200 X0.5507 Y-0.4458 Z-0.0507
N2205 X0.5506 Y-0.4446 Z-0.0505
N2210 X0.5505 Y-0.4433
N2215 X0.5506 Y-0.3087
N2220 X0.5507 Y-0.3075 Z-0.0507
N2225 X0.5509 Y-0.3062 Z-0.0508
N2230 X0.5511 Y-0.305 Z-0.0511
N2235 X0.5515 Y-0.3037 Z-0.0514
N2240 X0.5519 Y-0.3024 Z-0.0519
N2245 X0.5524 Y-0.3012 Z-0.0523
N2250 X0.5529 Y-0.2999 Z-0.0529
N2255 X0.5543 Y-0.2974 Z-0.0543
N2260 X0.556 Y-0.2949 Z-0.056
N2265 X0.5579 Y-0.2923 Z-0.0579
N2270 X0.5602 Y-0.2898 Z-0.0602
N2275 X0.5628 Y-0.2873 Z-0.0628
N2280 X0.5656 Y-0.2848 Z-0.0656
N2285 X0.5688 Y-0.2823 Z-0.0688
N2290 X0.5723 Y-0.2797 Z-0.0723
N2295 X0.5761 Y-0.2772 Z-0.0761
N2300 X0.5802 Y-0.2747 Z-0.0802
N2305 X0.5846 Y-0.2722 Z-0.0846
N2310 X0.5893 Y-0.2697 Z-0.0893
N2315 X0.5911 Y-0.2716 Z-0.0888
N2320 X0.593 Y-0.2736 Z-0.0885
N2325 X0.5947 Y-0.2756 Z-0.0882
N2330 X0.5964 Y-0.2776 Z-0.088
N2335 X0.5981 Y-0.2798 Z-0.0878
N2340 X0.6631 Y-0.3703 Z-0.0871
N2345 X0.6649 Y-0.3731
N2350 X0.6664 Y-0.3753 Z-0.0872
N2355 X0.6678 Y-0.3776 Z-0.0874
N2360 X0.6691 Y-0.38 Z-0.0877
N2365 X0.6703 Y-0.3824 Z-0.088
N2370 X0.6716 Y-0.3848 Z-0.0884
N2375 X0.6727 Y-0.3873 Z-0.0889
N2380 X0.6738 Y-0.3898 Z-0.0895
N2385 X0.6748 Y-0.3923 Z-0.0901
N2390 X0.6758 Y-0.3949 Z-0.0909
N2395 X0.6766 Y-0.3975 Z-0.0916
N2400 X0.6788 Y-0.3978 Z-0.0898
N2405 X0.6811 Y-0.3976 Z-0.0876
N2410 X0.6826 Y-0.3975 Z-0.0861
N2415 X0.6837 Y-0.3976 Z-0.0851
N2420 X0.6879 Y-0.398 Z-0.0808
N2425 X0.6837 Y-0.3976 Z-0.0851
N2430 X0.6826 Y-0.3975 Z-0.0861
N2435 X0.6811 Y-0.3976 Z-0.0876
N2440 X0.6788 Y-0.3978 Z-0.0898
N2445 X0.6766 Y-0.3975 Z-0.0916
N2450 X0.6755 Y-0.4001 Z-0.0905
N2455 X0.6743 Y-0.4026 Z-0.0895
N2460 X0.6731 Y-0.4051 Z-0.0886
N2465 X0.6719 Y-0.4076 Z-0.0878
N2470 X0.6705 Y-0.4099 Z-0.0871
N2475 X0.6692 Y-0.4123 Z-0.0864
N2480 X0.6677 Y-0.4145 Z-0.0858
N2485 X0.6662 Y-0.4168 Z-0.0853
N2490 X0.6647 Y-0.4189 Z-0.0849
N2495 X0.6631 Y-0.4211 Z-0.0845
N2500 X0.6614 Y-0.4231 Z-0.0842
N2505 X0.6598 Y-0.4251 Z-0.0841
N2510 X0.658 Y-0.427 Z-0.0839
N2515 X0.6562 Y-0.4289
N2520 X0.6548 Y-0.4303
N2525 X0.652 Y-0.4329 Z-0.0841
N2530 X0.591 Y-0.4845 Z-0.091
N2535 X0.652 Y-0.4329 Z-0.0841
N2540 X0.6548 Y-0.4303 Z-0.0839
N2545 X0.6562 Y-0.4289
N2550 X0.658 Y-0.427
N2555 X0.6598 Y-0.4251 Z-0.0841
N2560 X0.6614 Y-0.4231 Z-0.0842
N2565 X0.6631 Y-0.4211 Z-0.0845
N2570 X0.6647 Y-0.4189 Z-0.0849
N2575 X0.6662 Y-0.4168 Z-0.0853
N2580 X0.6677 Y-0.4145 Z-0.0858
N2585 X0.6692 Y-0.4123 Z-0.0864
N2590 X0.6705 Y-0.4099 Z-0.0871
N2595 X0.6719 Y-0.4076 Z-0.0878
N2600 X0.6731 Y-0.4051 Z-0.0886
N2605 X0.6743 Y-0.4026 Z-0.0895
N2610 X0.6755 Y-0.4001 Z-0.0905
N2615 X0.6766 Y-0.3975 Z-0.0916
N2620 X0.6758 Y-0.3949 Z-0.0909
N2625 X0.6748 Y-0.3923 Z-0.0901
N2630 X0.6738 Y-0.3898 Z-0.0895
N2635 X0.6727 Y-0.3873 Z-0.0889
N2640 X0.6716 Y-0.3848 Z-0.0884
N2645 X0.6703 Y-0.3824 Z-0.088
N2650 X0.6691 Y-0.38 Z-0.0877
N2655 X0.6678 Y-0.3776 Z-0.0874
N2660 X0.6664 Y-0.3753 Z-0.0872
N2665 X0.6649 Y-0.3731 Z-0.0871
N2670 X0.6631 Y-0.3703
N2675 X0.5981 Y-0.2798 Z-0.0878
N2680 X0.5964 Y-0.2776 Z-0.088
N2685 X0.5947 Y-0.2756 Z-0.0882
N2690 X0.593 Y-0.2736 Z-0.0885
N2695 X0.5911 Y-0.2716 Z-0.0888
N2700 X0.5893 Y-0.2697 Z-0.0893
N2705 X0.5627 Y-0.1857 Z-0.0626
N2710 X0.5622 Y-0.184 Z-0.0622
N2715 X0.5619 Y-0.1823 Z-0.0618
N2720 X0.5615 Y-0.1807 Z-0.0615
N2725 X0.5613 Y-0.179 Z-0.0613
N2730 X0.5611 Y-0.1773 Z-0.0611
N2735 Y-0.1757 Z-0.061
N2740 X0.561 Y-0.174
N2745 X0.5611 Y-0.1625
N2750 Y-0.1609 Z-0.0611
N2755 X0.5613 Y-0.1594 Z-0.0612
N2760 X0.5615 Y-0.1578 Z-0.0615
N2765 X0.5617 Y-0.1563 Z-0.0617
N2770 X0.562 Y-0.1547 Z-0.062
N2775 X0.5628 Y-0.1516 Z-0.0628
N2780 X0.5638 Y-0.1485 Z-0.0638
N2785 X0.6445 Y0.0705 Z-0.1445
N2790 X0.5654 Y0.2299 Z-0.0653
N2795 X0.5646 Y0.2316 Z-0.0646
N2800 X0.564 Y0.2333 Z-0.0639
N2805 X0.5633 Y0.2351 Z-0.0633
N2810 X0.5628 Y0.2368 Z-0.0627
N2815 X0.5623 Y0.2386 Z-0.0623
N2820 X0.5619 Y0.2403 Z-0.0619
N2825 X0.5616 Y0.242 Z-0.0616
N2830 X0.5614 Y0.2438 Z-0.0613
N2835 X0.5611 Y0.2455 Z-0.0611
N2840 Y0.2473 Z-0.061
N2845 X0.561 Y0.249
N2850 Y0.498
N2855 X0.54 Y0.519 Z-0.04
N2860 X0.561 Y0.498 Z-0.061
N2865 X0.582 Y0.519 Z-0.04
N2870 X0.561 Y0.498 Z-0.061
N2875 Y0.249
N2880 X0.5611 Y0.2473
N2885 Y0.2455 Z-0.0611
N2890 X0.5614 Y0.2438 Z-0.0613
N2895 X0.5616 Y0.242 Z-0.0616
N2900 X0.5619 Y0.2403 Z-0.0619
N2905 X0.5623 Y0.2386 Z-0.0623
N2910 X0.5628 Y0.2368 Z-0.0627
N2915 X0.5633 Y0.2351 Z-0.0633
N2920 X0.564 Y0.2333 Z-0.0639
N2925 X0.5646 Y0.2316 Z-0.0646
N2930 X0.5654 Y0.2299 Z-0.0653
N2935 X0.6445 Y0.0705 Z-0.1445
N2940 X0.6612 Y0.0723 Z-0.133
N2945 X0.6685 Y0.073 Z-0.128
N2950 X0.6757 Y0.0735 Z-0.1234
N2955 X0.6827 Y0.0737 Z-0.119
N2960 X0.6895 Z-0.1149
N2965 X0.6961 Y0.0734 Z-0.1111
N2970 X0.7025 Y0.0729 Z-0.1076
N2975 X0.7088 Y0.0721 Z-0.1045
N2980 X0.7148 Y0.0711 Z-0.1016
N2985 X0.7178 Y0.0705 Z-0.1002
N2990 X0.7207 Y0.0699 Z-0.099
N2995 X0.7236 Y0.0692 Z-0.0978
N3000 X0.7264 Y0.0685 Z-0.0967
N3005 X0.7292 Y0.0676 Z-0.0957
N3010 X0.732 Y0.0668 Z-0.0948
N3015 X0.7346 Y0.0658 Z-0.0938
N3020 X0.7373 Y0.0648 Z-0.0931
N3025 X0.7399 Y0.0637 Z-0.0923
N3030 X0.7425 Y0.0626 Z-0.0917
N3035 X0.788 Y0.093 Z-0.04
N3040 X0.7425 Y0.0626 Z-0.0917
N3045 X0.7463 Y0.0588 Z-0.089
N3050 X0.7498 Y0.055 Z-0.0865
N3055 X0.7515 Y0.053 Z-0.0854
N3060 X0.7531 Y0.051 Z-0.0843
N3065 X0.7546 Y0.049 Z-0.0833
N3070 X0.7561 Y0.047 Z-0.0825
N3075 X0.7574 Y0.0449 Z-0.0816
N3080 X0.7588 Y0.0429 Z-0.0809
N3085 X0.76 Y0.0408 Z-0.0802
N3090 X0.7612 Y0.0387 Z-0.0796
N3095 X0.7623 Y0.0366 Z-0.079
N3100 X0.7633 Y0.0345 Z-0.0786
N3105 X0.7643 Y0.0323 Z-0.0781
N3110 X0.7652 Y0.0302 Z-0.0778
N3115 X0.766 Y0.028 Z-0.0776
N3120 X0.7668 Y0.0258 Z-0.0774
N3125 X0.7674 Y0.0236 Z-0.0773
N3130 X0.7937 Y-0.0797 Z-0.0778
N3135 X0.7948 Y-0.0835 Z-0.078
N3140 X0.7961 Y-0.0873 Z-0.0783
N3145 X0.7975 Y-0.091 Z-0.0788
N3150 X0.7995 Y-0.0942 Z-0.0791
N3155 X0.8016 Y-0.0972 Z-0.0795
N3160 X0.8038 Y-0.1002 Z-0.0801
N3165 X0.8057 Y-0.1023 Z-0.0804
N3170 X0.9302 Y-0.1973
N3175 X0.9324 Y-0.1964 Z-0.0784
N3180 X0.9361 Y-0.1947 Z-0.0748
N3185 X0.9403 Y-0.1924 Z-0.0704
N3190 X0.9468 Y-0.1879 Z-0.0629
N3195 X0.965 Y-0.173 Z-0.04
N3200 X0.9468 Y-0.1879 Z-0.0629
N3205 X0.9403 Y-0.1924 Z-0.0704
N3210 X0.9361 Y-0.1947 Z-0.0748
N3215 X0.9324 Y-0.1964 Z-0.0784
N3220 X0.9302 Y-0.1973 Z-0.0804
N3225 X0.9303 Y-0.1975 Z-0.0803
N3230 X0.9315 Y-0.199 Z-0.0788
N3235 X0.9339 Y-0.2015 Z-0.0757
N3240 X0.9356 Y-0.2029 Z-0.0735
N3245 X0.9339 Y-0.2015 Z-0.0757
N3250 X0.9315 Y-0.199 Z-0.0788
N3255 X0.9303 Y-0.1975 Z-0.0803
N3260 X0.9302 Y-0.1978 Z-0.08
N3265 X0.9279 Y-0.2035 Z-0.0741
N3270 X0.9229 Y-0.2147 Z-0.0621
N3275 X0.913 Y-0.235 Z-0.04
N3280 G0 Z0.2
N3285 G1 X0.7804 Y0.2734 F650.
N3290 G0 Z0.16
N3295 G1 Z-0.1587 F13.123
N3300 G2 X0.7796 Y0.2766 I-0.0004 J0.0016 F39.37
N3305 X0.7804 Y0.2734 I0.0004 J-0.0016
N3310 G0 Z0.6

N3315 M5
N3320 M9
N3325 G53 G0 Z0.
N3330 G53 G0 X-29. Y-8.
N3335 G0 B0. C0.
N3340 M30

%
