%
O07001
(Using high feed G1 F650. instead of G0.)
(Machine)
(  vendor: Haas Automation)
(  model: HAAS UMC-750)
(T1 D=0.25 CR=0. TAPER=90deg - ZMIN=-0.1346 - spot drill)
N10 G90 G94 G17
N15 G20
N20 G53 G0 Z0.

(Engrave2)
N25 T1 M6
N30 S5000 M3
N35 G17 G90
N40 G54
N45 G53 G0 X-29. Y-8.
N50 G0 B0. C0.
N55 M8
N60 G1 X-0.51 Y-0.0799 F650.
N65 G0 G43 Z0.6 H1
N70 G0 Z0.16
N75 G1 Z-0.04 F13.123
N80 X-0.5059 Y-0.0671 Z-0.0462 F39.37
N85 X-0.5018 Y-0.0547 Z-0.0521
N90 X-0.4975 Y-0.0426 Z-0.0576
N95 X-0.4931 Y-0.0311 Z-0.0627
N100 X-0.4838 Y-0.0081 Z-0.0724
N105 X-0.4742 Y0.0139 Z-0.0812
N110 X-0.464 Y0.0353 Z-0.0892
N115 X-0.4534 Y0.0564 Z-0.0966
N120 X-0.4425 Y0.077 Z-0.1035
N125 X-0.4313 Y0.0971 Z-0.1098
N130 X-0.42 Y0.1166 Z-0.1156
N135 X-0.4087 Y0.1353 Z-0.1209
N140 X-0.3976 Y0.153 Z-0.1256
N145 X-0.387 Y0.1695 Z-0.1298
N150 X-0.3796 Y0.1803 Z-0.1323
N155 X-0.3847 Y0.188 Z-0.1246
N160 X-0.4018 Y0.215 Z-0.0976
N165 X-0.4188 Y0.2432 Z-0.0694
N170 X-0.427 Y0.2574 Z-0.0552
N175 X-0.4354 Y0.2726 Z-0.0401
N180 X-0.427 Y0.2574 Z-0.0552
N185 X-0.4188 Y0.2432 Z-0.0694
N190 X-0.4018 Y0.215 Z-0.0976
N195 X-0.3847 Y0.188 Z-0.1246
N200 X-0.3796 Y0.1803 Z-0.1323
N205 X-0.1564 Y0.2726 Z-0.04
N210 G0 Z0.2
N215 G1 X-0.3996 Y-0.1484 F650.
N220 G0 Z0.16
N225 G1 Z-0.1346 F13.123
N230 X-0.305 Y0.08 Z-0.04 F39.37
N235 G0 Z0.2
N240 G1 X-0.505 Y-0.12 F650.
N245 G0 Z0.16
N250 G1 Z-0.04 F13.123
N255 X-0.4674 Y-0.1314 Z-0.0746 F39.37
N260 X-0.4345 Y-0.1402 Z-0.1041
N265 X-0.4048 Y-0.1473 Z-0.1301
N270 X-0.3996 Y-0.1484 Z-0.1346
N275 X-0.3971 Y-0.1614 Z-0.1321
N280 X-0.3935 Y-0.1782 Z-0.1285
N285 X-0.3893 Y-0.1959 Z-0.1243
N290 X-0.3844 Y-0.2143 Z-0.1194
N295 X-0.3789 Y-0.2335 Z-0.1139
N300 X-0.3728 Y-0.2533 Z-0.1078
N305 X-0.366 Y-0.2737 Z-0.101
N310 X-0.3584 Y-0.2949 Z-0.0934
N315 X-0.3499 Y-0.3168 Z-0.0849
N320 X-0.3405 Y-0.3396 Z-0.0755
N325 X-0.33 Y-0.3635 Z-0.065
N330 X-0.3182 Y-0.3885 Z-0.0532
N335 X-0.305 Y-0.415 Z-0.04
N340 G0 Z0.2
N345 G1 X-0.27 Y-0.16 F650.
N350 G0 Z0.16
N355 G1 Z-0.04 F13.123
N360 X-0.1767 Y-0.3854 Z-0.1333 F39.37
N365 G0 Z0.2
N370 G1 X-0.27 Y-0.44 F650.
N375 G0 Z0.16
N380 G1 Z-0.04 F13.123
N385 X-0.2309 Y-0.4183 Z-0.0791 F39.37
N390 X-0.1979 Y-0.3988 Z-0.1121
N395 X-0.1767 Y-0.3854 Z-0.1333
N400 X-0.1727 Y-0.3881 Z-0.1325
N405 X-0.1575 Y-0.3983 Z-0.129
N410 X-0.1415 Y-0.4084 Z-0.1248
N415 X-0.1248 Y-0.4184 Z-0.12
N420 X-0.1073 Y-0.4284 Z-0.1147
N425 X-0.0891 Y-0.4383 Z-0.1088
N430 X-0.0702 Y-0.448 Z-0.1024
N435 X-0.0508 Y-0.4576 Z-0.0954
N440 X-0.0308 Y-0.4669 Z-0.0879
N445 X-0.0102 Y-0.476 Z-0.0798
N450 X0.011 Y-0.4849 Z-0.071
N455 X0.0331 Y-0.4935 Z-0.0615
N460 X0.056 Y-0.5019 Z-0.0512
N465 X0.0799 Y-0.51 Z-0.04
N470 G0 Z0.2
N475 G1 X-0.08 Y-0.305 F650.
N480 G0 Z0.16
N485 G1 Z-0.04 F13.123
N490 X0.1448 Y-0.3981 Z-0.1331 F39.37
N495 X0.1399 Y-0.4205 Z-0.1138
N500 X0.1339 Y-0.446 Z-0.0916
N505 X0.1271 Y-0.4739 Z-0.067
N510 X0.1193 Y-0.5043 Z-0.04
N515 X0.1271 Y-0.4739 Z-0.067
N520 X0.1339 Y-0.446 Z-0.0916
N525 X0.1399 Y-0.4205 Z-0.1138
N530 X0.1448 Y-0.3981 Z-0.1331
N535 X0.1453 Y-0.398 Z-0.133
N540 X0.1574 Y-0.3958 Z-0.1308
N545 X0.169 Y-0.3934 Z-0.1284
N550 X0.1802 Y-0.391 Z-0.126
N555 X0.191 Y-0.3886 Z-0.1236
N560 X0.2015 Y-0.3861 Z-0.1211
N565 X0.2117 Y-0.3835 Z-0.1185
N570 X0.2217 Y-0.3808 Z-0.1158
N575 X0.231 Y-0.3782 Z-0.1132
N580 X0.2506 Y-0.3723 Z-0.1073
N585 X0.2693 Y-0.3662 Z-0.1012
N590 X0.2877 Y-0.3598 Z-0.0948
N595 X0.306 Y-0.3529 Z-0.0879
N600 X0.3242 Y-0.3457 Z-0.0807
N605 X0.3424 Y-0.3382 Z-0.0732
N610 X0.3606 Y-0.3304 Z-0.0654
N615 X0.3787 Y-0.3222 Z-0.0572
N620 X0.3969 Y-0.3138 Z-0.0488
N625 X0.415 Y-0.305 Z-0.04
N630 G0 Z0.2
N635 G1 X0.16 Y-0.27 F650.
N640 G0 Z0.16
N645 G1 Z-0.04 F13.123
N650 X0.3836 Y-0.1774 Z-0.1326 F39.37
N655 X0.4019 Y-0.2063 Z-0.1037
N660 X0.4208 Y-0.2372 Z-0.0728
N665 X0.44 Y-0.27 Z-0.04
N670 X0.4208 Y-0.2372 Z-0.0728
N675 X0.4019 Y-0.2063 Z-0.1037
N680 X0.3836 Y-0.1774 Z-0.1326
N685 X0.3838 Y-0.1772
N690 X0.3944 Y-0.1616 Z-0.1291
N695 X0.4052 Y-0.1453 Z-0.1252
N700 X0.4159 Y-0.1286 Z-0.1209
N705 X0.4265 Y-0.1113 Z-0.1162
N710 X0.4369 Y-0.0936 Z-0.1111
N715 X0.447 Y-0.0755 Z-0.1055
N720 X0.4569 Y-0.0569 Z-0.0992
N725 X0.4664 Y-0.0376 Z-0.0924
N730 X0.4758 Y-0.0171 Z-0.0845
N735 X0.4802 Y-0.007 Z-0.0804
N740 X0.4846 Y0.0039 Z-0.0758
N745 X0.489 Y0.0152 Z-0.071
N750 X0.4933 Y0.0269 Z-0.0657
N755 X0.4975 Y0.0392 Z-0.06
N760 X0.5018 Y0.0521 Z-0.0539
N765 X0.5059 Y0.0657 Z-0.0472
N770 X0.51 Y0.0799 Z-0.04
N775 G0 Z0.2
N780 G1 X0.305 Y-0.08 F650.
N785 G0 Z0.16
N790 G1 Z-0.04 F13.123
N795 X0.3976 Y0.1436 Z-0.1326 F39.37
N800 X0.4064 Y0.1416 Z-0.125
N805 X0.4504 Y0.1303 Z-0.0859
N810 X0.4744 Y0.1237 Z-0.0643
N815 X0.501 Y0.116 Z-0.04
N820 X0.4744 Y0.1237 Z-0.0643
N825 X0.4504 Y0.1303 Z-0.0859
N830 X0.4064 Y0.1416 Z-0.125
N835 X0.3976 Y0.1436 Z-0.1326
N840 X0.3948 Y0.1599 Z-0.1298
N845 X0.3907 Y0.1805 Z-0.1257
N850 X0.3861 Y0.2009 Z-0.1211
N855 X0.3811 Y0.2213 Z-0.1161
N860 X0.3755 Y0.2415 Z-0.1105
N865 X0.3695 Y0.2617 Z-0.1045
N870 X0.363 Y0.2817 Z-0.098
N875 X0.3562 Y0.3015 Z-0.0912
N880 X0.3489 Y0.321 Z-0.0839
N885 X0.3412 Y0.3402 Z-0.0762
N890 X0.3331 Y0.3591 Z-0.0681
N895 X0.3244 Y0.3778 Z-0.0594
N900 X0.3151 Y0.3964 Z-0.0501
N905 X0.305 Y0.4149 Z-0.04
N910 G0 Z0.2
N915 G1 X-0.08 Y0.51 F650.
N920 G0 Z0.16
N925 G1 Z-0.04 F13.123
N930 X-0.0535 Y0.5007 Z-0.0521 F39.37
N935 X-0.0286 Y0.4914 Z-0.0631
N940 X-0.0053 Y0.4821 Z-0.0731
N945 X0.0168 Y0.4728 Z-0.0822
N950 X0.0376 Y0.4636 Z-0.0904
N955 X0.0574 Y0.4544 Z-0.0978
N960 X0.0762 Y0.4451 Z-0.1046
N965 X0.0942 Y0.4358 Z-0.1107
N970 X0.1113 Y0.4265 Z-0.1162
N975 X0.1277 Y0.417 Z-0.1211
N980 X0.1434 Y0.4076 Z-0.1255
N985 X0.1585 Y0.3979 Z-0.1294
N990 X0.173 Y0.3882 Z-0.1327
N995 X0.1765 Y0.3856 Z-0.1335
N1000 X0.1979 Y0.399 Z-0.1121
N1005 X0.2308 Y0.4184 Z-0.0792
N1010 X0.27 Y0.44 Z-0.04
N1015 X0.2308 Y0.4184 Z-0.0792
N1020 X0.1979 Y0.399 Z-0.1121
N1025 X0.1765 Y0.3856 Z-0.1335
N1030 X0.27 Y0.16 Z-0.04
N1035 G0 Z0.2
N1040 G1 X-0.415 Y0.305 F650.
N1045 G0 Z0.16
N1050 G1 Z-0.04 F13.123
N1055 X-0.3907 Y0.3175 Z-0.0525 F39.37
N1060 X-0.3677 Y0.3285 Z-0.0635
N1065 X-0.3458 Y0.3382 Z-0.0732
N1070 X-0.3248 Y0.3469 Z-0.0819
N1075 X-0.3045 Y0.3546 Z-0.0896
N1080 X-0.2846 Y0.3616 Z-0.0966
N1085 X-0.2651 Y0.368 Z-0.103
N1090 X-0.2458 Y0.3739 Z-0.1089
N1095 X-0.2267 Y0.3793 Z-0.1143
N1100 X-0.2076 Y0.3842 Z-0.1192
N1105 X-0.1885 Y0.3888 Z-0.1238
N1110 X-0.1694 Y0.393 Z-0.128
N1115 X-0.1502 Y0.3968 Z-0.1318
N1120 X-0.1441 Y0.3979 Z-0.1329
N1125 X-0.1388 Y0.4224 Z-0.1118
N1130 X-0.1296 Y0.4612 Z-0.078
N1135 X-0.1187 Y0.5039 Z-0.04
N1140 X-0.1296 Y0.4612 Z-0.078
N1145 X-0.1388 Y0.4224 Z-0.1118
N1150 X-0.1441 Y0.3979 Z-0.1329
N1155 X0.08 Y0.305 Z-0.04
N1160 G0 Z0.6

N1165 M5
N1170 M9
N1175 G53 G0 Z0.
N1180 G53 G0 X-29. Y-8.
N1185 G0 B0. C0.
N1190 M30

%
