%
O07003
(Using high feed G1 F650. instead of G0.)
(Machine)
(  vendor: Haas Automation)
(  model: HAAS UMC-750)
(T1 D=0.25 CR=0. TAPER=90deg - ZMIN=-0.04 - spot drill)
N10 G90 G94 G17
N15 G20
N20 G53 G0 Z0.

(Trace1)
N25 T1 M6
N30 S5000 M3
N35 G17 G90
N40 G54
N45 G53 G0 X-29. Y-8.
N50 G0 B0. C0.
N55 M8
N60 G1 X0.1346 Y-0.2736 F650.
N65 G0 G43 Z0.6 H1
N70 G0 Z0.16
N75 G1 Z-0.04 F13.123
N80 X0.1293 Y-0.2585 F39.37
N85 X0.124 Y-0.2446
N90 X0.1188 Y-0.2318
N95 X0.1137 Y-0.2201
N100 X0.1088 Y-0.2096
N105 X0.1039 Y-0.2002
N110 X0.0993 Y-0.192
N115 X0.0947 Y-0.1848
N120 X0.0904 Y-0.1787
N125 X0.0864 Y-0.1735
N130 X0.0826 Y-0.1693
N135 X0.0793 Y-0.166
N140 X0.0763 Y-0.1634
N145 X0.0739 Y-0.1615
N150 X0.0722 Y-0.1602
N155 X0.0712 Y-0.1593
N160 X0.0711 Y-0.1586
N165 X0.0721 Y-0.1579
N170 X0.0744 Y-0.1572
N175 X0.078 Y-0.1561
N180 X0.0831 Y-0.1545
N185 X0.0895 Y-0.1525
N190 X0.0969 Y-0.1499
N195 X0.1052 Y-0.1469
N200 X0.1227 Y-0.1402
N205 X0.1312 Y-0.1367
N210 X0.1391 Y-0.1334
N215 X0.1462 Y-0.1304
N220 X0.1569 Y-0.1257
N225 X0.1605 Y-0.1242
N230 X0.1631 Y-0.1233
N235 X0.1653 Y-0.1229
N240 X0.1676
N245 X0.1745 Y-0.1234
N250 X0.1798 Y-0.1237
N255 X0.1863 Y-0.124
N260 X0.1938
N265 X0.21 Y-0.1237
N270 X0.2178 Y-0.1233
N275 X0.2247 Y-0.1227
N280 X0.2303 Y-0.122
N285 X0.2325 Y-0.1215
N290 X0.2343 Y-0.121
N295 X0.2356 Y-0.1203
N300 X0.2364 Y-0.1196
N305 X0.2368 Y-0.1188
N310 Y-0.1178
N315 X0.2357 Y-0.1154
N320 X0.2334 Y-0.1124
N325 X0.2301 Y-0.1086
N330 X0.2263 Y-0.1042
N335 X0.2177 Y-0.094
N340 X0.2092 Y-0.0832
N345 X0.2055 Y-0.078
N350 X0.2024 Y-0.0733
N355 X0.1999 Y-0.0689
N360 X0.1983 Y-0.0651
N365 X0.1977 Y-0.0616
N370 X0.1982 Y-0.0583
N375 X0.1999 Y-0.0549
N380 X0.2028 Y-0.0512
N385 X0.2068 Y-0.0472
N390 X0.2117 Y-0.0428
N395 X0.2174 Y-0.038
N400 X0.2234 Y-0.033
N405 X0.2352 Y-0.0225
N410 X0.2404 Y-0.0174
N415 X0.2446 Y-0.0127
N420 X0.2475 Y-0.0084
N425 X0.2485 Y-0.0065
N430 X0.2491 Y-0.0048
N435 X0.2492 Y-0.0032
N440 X0.249 Y-0.0019
N445 X0.2483 Y-0.0007
N450 X0.2472 Y0.0002
N455 X0.2457 Y0.0009
N460 X0.2438 Y0.0015
N465 X0.239 Y0.002
N470 X0.2329 Y0.0018
N475 X0.2259 Y0.001
N480 X0.2106 Y-0.0016
N485 X0.1962 Y-0.0045
N490 X0.1902 Y-0.0056
N495 X0.1855 Y-0.0062
N500 X0.1822 Y-0.0064
N505 X0.1811 Y-0.0062
N510 X0.1803 Y-0.0059
N515 X0.18 Y-0.0048
N520 X0.1811 Y-0.0032
N525 X0.1835 Y-0.001
N530 X0.1868 Y0.0017
N535 X0.191 Y0.0048
N540 X0.1959 Y0.0083
N545 X0.2015 Y0.0123
N550 X0.2075 Y0.0166
N555 X0.2139 Y0.0213
N560 X0.2206 Y0.0264
N565 X0.2276 Y0.0319
N570 X0.2346 Y0.0377
N575 X0.2418 Y0.044
N580 X0.249 Y0.0507
N585 X0.2561 Y0.0578
N590 X0.2632 Y0.0653
N595 X0.2701 Y0.0732
N600 X0.2769 Y0.0815
N605 X0.2836 Y0.0902
N610 X0.29 Y0.0993
N615 X0.2961 Y0.1087
N620 X0.302 Y0.1184
N625 X0.3127 Y0.1383
N630 X0.3175 Y0.1485
N635 X0.3219 Y0.1586
N640 X0.3257 Y0.1685
N645 X0.3291 Y0.1783
N650 X0.3318 Y0.1878
N655 X0.334 Y0.1968
N660 X0.3356 Y0.2053
N665 X0.3366 Y0.2132
N670 X0.3368 Y0.2204
N675 X0.3364 Y0.2267
N680 X0.3353 Y0.2323
N685 X0.3335 Y0.2368
N690 X0.3311 Y0.2404
N695 X0.328 Y0.243
N700 X0.3242 Y0.2445
N705 X0.3199 Y0.245
N710 X0.3151 Y0.2445
N715 X0.3098 Y0.243
N720 X0.304 Y0.2407
N725 X0.298 Y0.2375
N730 X0.2918 Y0.2337
N735 X0.2854 Y0.2292
N740 X0.2726 Y0.2189
N745 X0.2601 Y0.2076
N750 X0.2484 Y0.1961
N755 X0.2376 Y0.1849
N760 X0.2275 Y0.1743
N765 X0.2171 Y0.1642
N770 X0.2115 Y0.1591
N775 X0.2055 Y0.154
N780 X0.1992 Y0.1489
N785 X0.193 Y0.1442
N790 X0.1901 Y0.1423
N795 X0.1876 Y0.1407
N800 X0.1854 Y0.1395
N805 X0.1838 Y0.1389
N810 X0.1826 Y0.1388
N815 X0.1822 Y0.1393
N820 X0.1823 Y0.1405
N825 X0.1832 Y0.1423
N830 X0.1847 Y0.1448
N835 X0.1869 Y0.1478
N840 X0.1896 Y0.1514
N845 X0.1929 Y0.1553
N850 X0.1965 Y0.1596
N855 X0.2005 Y0.1641
N860 X0.2091 Y0.1735
N865 X0.2274 Y0.1922
N870 X0.2364 Y0.2007
N875 X0.2448 Y0.2084
N880 X0.2527 Y0.2152
N885 X0.2599 Y0.221
N890 X0.2665 Y0.2258
N895 X0.2723 Y0.2299
N900 X0.2775 Y0.2332
N905 X0.2821 Y0.236
N910 X0.2896 Y0.2403
N915 X0.2927 Y0.2421
N920 X0.2951 Y0.2439
N925 X0.297 Y0.2455
N930 X0.298 Y0.247
N935 X0.2981 Y0.2482
N940 X0.2968 Y0.249
N945 X0.2957 Y0.2492
N950 X0.2941 Y0.2491
N955 X0.2921 Y0.2489
N960 X0.2896 Y0.2485
N965 X0.2868 Y0.2479
N970 X0.2835 Y0.2471
N975 X0.2797 Y0.246
N980 X0.2756 Y0.2447
N985 X0.2711 Y0.2432
N990 X0.2662 Y0.2415
N995 X0.2553 Y0.2374
N1000 X0.2432 Y0.2325
N1005 X0.2302 Y0.2269
N1010 X0.2165 Y0.2207
N1015 X0.2024 Y0.214
N1020 X0.1744 Y0.2
N1025 X0.161 Y0.1929
N1030 X0.1485 Y0.186
N1035 X0.1369 Y0.1795
N1040 X0.1267 Y0.1734
N1045 X0.1177 Y0.168
N1050 X0.1138 Y0.1656
N1055 X0.1071 Y0.1614
N1060 X0.1043 Y0.1597
N1065 X0.1018 Y0.1582
N1070 X0.0996 Y0.1569
N1075 X0.0962 Y0.1552
N1080 X0.0937 Y0.1546
N1085 X0.0917 Y0.1551
N1090 X0.0896 Y0.1566
N1095 X0.0872 Y0.159
N1100 X0.0841 Y0.1624
N1105 X0.08 Y0.1666
N1110 X0.0749 Y0.1716
N1115 X0.0686 Y0.1772
N1120 X0.0611 Y0.1833
N1125 X0.0527 Y0.1899
N1130 X0.0433 Y0.1967
N1135 X0.0333 Y0.2038
N1140 X0.0227 Y0.2108
N1145 X0.0008 Y0.2245
N1150 X-0.0099 Y0.2308
N1155 X-0.0202 Y0.2365
N1160 X-0.0297 Y0.2416
N1165 X-0.0384 Y0.2458
N1170 X-0.046 Y0.249
N1175 X-0.0494 Y0.2503
N1180 X-0.0525 Y0.2512
N1185 X-0.0552 Y0.2517
N1190 X-0.0576 Y0.252
N1195 X-0.0596 Y0.2518
N1200 X-0.0614 Y0.2513
N1205 X-0.0628 Y0.2504
N1210 X-0.0639 Y0.2492
N1215 X-0.0648 Y0.2475
N1220 X-0.0653 Y0.2454
N1225 X-0.0656 Y0.2429
N1230 Y0.2401
N1235 X-0.0649 Y0.2334
N1240 X-0.0634 Y0.2259
N1245 X-0.0611 Y0.2177
N1250 X-0.0582 Y0.2094
N1255 X-0.0548 Y0.2013
N1260 X-0.051 Y0.194
N1265 X-0.0472 Y0.1876
N1270 X-0.0435 Y0.1825
N1275 X-0.0401 Y0.1788
N1280 X-0.0373 Y0.1765
N1285 X-0.0355 Y0.1753
N1290 X-0.0349 Y0.1748
N1295 X-0.0352 Y0.1747
N1300 X-0.0359 Y0.1745
N1305 X-0.0371 Y0.1742
N1310 X-0.0387 Y0.1738
N1315 X-0.0408 Y0.1732
N1320 X-0.0432 Y0.1724
N1325 X-0.0492 Y0.1704
N1330 X-0.0564 Y0.1676
N1335 X-0.0643 Y0.1643
N1340 X-0.0724 Y0.1607
N1345 X-0.0802 Y0.1569
N1350 X-0.0873 Y0.1534
N1355 X-0.093 Y0.1503
N1360 X-0.0953 Y0.149
N1365 X-0.0972 Y0.1478
N1370 X-0.0986 Y0.1468
N1375 X-0.0996 Y0.1461
N1380 X-0.1001 Y0.1455
N1385 Y0.1451
N1390 X-0.0997 Y0.1448
N1395 X-0.0988 Y0.1447
N1400 X-0.096 Y0.1448
N1405 X-0.092 Y0.1452
N1410 X-0.087 Y0.1456
N1415 X-0.0813 Y0.1461
N1420 X-0.075 Y0.1465
N1425 X-0.0614 Y0.147
N1430 X-0.0477 Y0.1469
N1435 X-0.035 Y0.1464
N1440 X-0.0293 Y0.1461
N1445 X-0.0242 Y0.1456
N1450 X-0.0197 Y0.1451
N1455 X-0.016 Y0.1446
N1460 X-0.0132 Y0.1439
N1465 X-0.0112 Y0.143
N1470 X-0.01 Y0.142
N1475 X-0.0097 Y0.1409
N1480 X-0.0102 Y0.1396
N1485 X-0.0114 Y0.1382
N1490 X-0.0149 Y0.1357
N1495 X-0.0192 Y0.134
N1500 X-0.0219 Y0.1336
N1505 X-0.0252 Y0.1333
N1510 X-0.0296 Y0.1332
N1515 X-0.0352 Y0.133
N1520 X-0.0499 Y0.1328
N1525 X-0.0587 Y0.1326
N1530 X-0.0681 Y0.1325
N1535 X-0.087 Y0.1327
N1540 X-0.0958 Y0.1331
N1545 X-0.1035 Y0.1338
N1550 X-0.1099 Y0.1348
N1555 X-0.1125 Y0.1354
N1560 X-0.1146 Y0.1362
N1565 X-0.1163 Y0.137
N1570 X-0.1176 Y0.1379
N1575 X-0.1184 Y0.1388
N1580 X-0.1187 Y0.1399
N1585 X-0.1182 Y0.1422
N1590 X-0.1163 Y0.1446
N1595 X-0.1102 Y0.1493
N1600 X-0.1073 Y0.1512
N1605 X-0.1053 Y0.1528
N1610 X-0.1046 Y0.1539
N1615 X-0.1055 Y0.1547
N1620 X-0.1079 Y0.1554
N1625 X-0.1118 Y0.1562
N1630 X-0.1169 Y0.1572
N1635 X-0.123 Y0.1585
N1640 X-0.13 Y0.1603
N1645 X-0.1377 Y0.1625
N1650 X-0.1459 Y0.165
N1655 X-0.1543 Y0.1678
N1660 X-0.1716 Y0.1739
N1665 X-0.1885 Y0.18
N1670 X-0.1965 Y0.1827
N1675 X-0.2041 Y0.1852
N1680 X-0.2114 Y0.1873
N1685 X-0.2183 Y0.189
N1690 X-0.2313 Y0.1918
N1695 X-0.244 Y0.1945
N1700 X-0.2505 Y0.1963
N1705 X-0.2573 Y0.1985
N1710 X-0.2644 Y0.2011
N1715 X-0.2717 Y0.2041
N1720 X-0.2866 Y0.2108
N1725 X-0.3012 Y0.2173
N1730 X-0.308 Y0.2201
N1735 X-0.3144 Y0.2222
N1740 X-0.3202 Y0.2237
N1745 X-0.3253 Y0.2242
N1750 X-0.3297 Y0.2237
N1755 X-0.3332 Y0.2222
N1760 X-0.3359 Y0.2198
N1765 X-0.3378 Y0.2163
N1770 X-0.3391 Y0.212
N1775 X-0.3397 Y0.207
N1780 Y0.2014
N1785 X-0.3392 Y0.1952
N1790 X-0.3382 Y0.1886
N1795 X-0.3368 Y0.1815
N1800 X-0.3349 Y0.1742
N1805 X-0.3327 Y0.1666
N1810 X-0.3273 Y0.1509
N1815 X-0.3207 Y0.1348
N1820 X-0.3131 Y0.1186
N1825 X-0.3045 Y0.1026
N1830 X-0.2951 Y0.087
N1835 X-0.285 Y0.0719
N1840 X-0.2743 Y0.0575
N1845 X-0.2632 Y0.0438
N1850 X-0.2521 Y0.031
N1855 X-0.2412 Y0.0192
N1860 X-0.2361 Y0.0137
N1865 X-0.2313 Y0.0085
N1870 X-0.227 Y0.0037
N1875 X-0.2232 Y-0.0008
N1880 X-0.2201 Y-0.0048
N1885 X-0.2179 Y-0.0084
N1890 X-0.2167 Y-0.0115
N1895 X-0.2169 Y-0.014
N1900 X-0.2175 Y-0.015
N1905 X-0.2184 Y-0.0159
N1910 X-0.2198 Y-0.0165
N1915 X-0.2215 Y-0.017
N1920 X-0.2236 Y-0.0174
N1925 X-0.2261 Y-0.0175
N1930 X-0.2321 Y-0.0174
N1935 X-0.2392 Y-0.0166
N1940 X-0.247 Y-0.0154
N1945 X-0.2631 Y-0.0119
N1950 X-0.2706 Y-0.01
N1955 X-0.2772 Y-0.0081
N1960 X-0.2827 Y-0.0065
N1965 X-0.2866 Y-0.0053
N1970 X-0.2881 Y-0.005
N1975 X-0.2891 Y-0.0048
N1980 X-0.2898 Y-0.0049
N1985 X-0.2902 Y-0.0052
N1990 Y-0.0058
N1995 X-0.29 Y-0.0067
N2000 X-0.2886 Y-0.0092
N2005 X-0.2863 Y-0.0127
N2010 X-0.2833 Y-0.0172
N2015 X-0.2796 Y-0.0224
N2020 X-0.2753 Y-0.0279
N2025 X-0.2705 Y-0.0336
N2030 X-0.2653 Y-0.0392
N2035 X-0.2599 Y-0.0443
N2040 X-0.2544 Y-0.0489
N2045 X-0.2489 Y-0.0528
N2050 X-0.2436 Y-0.0559
N2055 X-0.2388 Y-0.0586
N2060 X-0.235 Y-0.0612
N2065 X-0.2324 Y-0.0641
N2070 X-0.2317 Y-0.0658
N2075 X-0.2313 Y-0.0677
N2080 X-0.2314 Y-0.0699
N2085 X-0.2318 Y-0.0723
N2090 X-0.2326 Y-0.075
N2095 X-0.2338 Y-0.0779
N2100 X-0.2371 Y-0.0844
N2105 X-0.2414 Y-0.0916
N2110 X-0.2509 Y-0.1065
N2115 X-0.2553 Y-0.1135
N2120 X-0.2588 Y-0.1198
N2125 X-0.2601 Y-0.1226
N2130 X-0.261 Y-0.1251
N2135 X-0.2616 Y-0.1272
N2140 X-0.2618 Y-0.129
N2145 X-0.2615 Y-0.1305
N2150 X-0.2608 Y-0.1316
N2155 X-0.2597 Y-0.1324
N2160 X-0.2582 Y-0.133
N2165 X-0.2562 Y-0.1334
N2170 X-0.254 Y-0.1335
N2175 X-0.2486 Y-0.1333
N2180 X-0.2423 Y-0.1328
N2185 X-0.2355 Y-0.132
N2190 X-0.222 Y-0.1303
N2195 X-0.2159 Y-0.1296
N2200 X-0.2108 Y-0.1289
N2205 X-0.2067 Y-0.1283
N2210 X-0.2037 Y-0.1278
N2215 X-0.2017 Y-0.1275
N2220 X-0.2006 Y-0.1274
N2225 X-0.1992 Y-0.128
N2230 X-0.1981 Y-0.1289
N2235 X-0.1962 Y-0.1303
N2240 X-0.1935 Y-0.1321
N2245 X-0.1897 Y-0.1343
N2250 X-0.1849 Y-0.1368
N2255 X-0.1792 Y-0.1396
N2260 X-0.1725 Y-0.1426
N2265 X-0.165 Y-0.1457
N2270 X-0.1569 Y-0.1488
N2275 X-0.1484 Y-0.1518
N2280 X-0.1308 Y-0.1572
N2285 X-0.1222 Y-0.1595
N2290 X-0.1139 Y-0.1614
N2295 X-0.106 Y-0.1631
N2300 X-0.0987 Y-0.1645
N2305 X-0.0921 Y-0.1656
N2310 X-0.0863 Y-0.1665
N2315 X-0.0813 Y-0.1673
N2320 X-0.077 Y-0.168
N2325 X-0.0736 Y-0.1687
N2330 X-0.0711 Y-0.1694
N2335 X-0.0693 Y-0.1703
N2340 X-0.0684 Y-0.1713
N2345 X-0.0681 Y-0.1724
N2350 X-0.0687 Y-0.1736
N2355 X-0.0698 Y-0.1749
N2360 X-0.0716 Y-0.1763
N2365 X-0.074 Y-0.1775
N2370 X-0.0768 Y-0.1786
N2375 X-0.0801 Y-0.1794
N2380 X-0.0838 Y-0.1799
N2385 X-0.0879 Y-0.18
N2390 X-0.0923 Y-0.1797
N2395 X-0.097 Y-0.179
N2400 X-0.1019 Y-0.1779
N2405 X-0.1121 Y-0.1748
N2410 X-0.1223 Y-0.1711
N2415 X-0.1271 Y-0.1694
N2420 X-0.1315 Y-0.168
N2425 X-0.1352 Y-0.1672
N2430 X-0.1379 Y-0.167
N2435 X-0.1388 Y-0.1673
N2440 X-0.1394 Y-0.1678
N2445 X-0.1396 Y-0.1686
N2450 X-0.1395 Y-0.1697
N2455 X-0.1389 Y-0.1711
N2460 X-0.1379 Y-0.1728
N2465 X-0.1365 Y-0.1748
N2470 X-0.1348 Y-0.1769
N2475 X-0.1303 Y-0.1818
N2480 X-0.125 Y-0.187
N2485 X-0.1131 Y-0.1974
N2490 X-0.1076 Y-0.2019
N2495 X-0.1028 Y-0.2056
N2500 X-0.1009 Y-0.2071
N2505 X-0.0993 Y-0.2083
N2510 X-0.098 Y-0.2094
N2515 X-0.0971 Y-0.2102
N2520 X-0.0965 Y-0.2117
N2525 X-0.0973 Y-0.2131
N2530 X-0.0994 Y-0.215
N2535 X-0.1025 Y-0.2175
N2540 X-0.1063 Y-0.2208
N2545 X-0.1105 Y-0.2248
N2550 X-0.1189 Y-0.234
N2555 X-0.1224 Y-0.2385
N2560 X-0.1251 Y-0.2426
N2565 X-0.1266 Y-0.246
N2570 X-0.1268 Y-0.2473
N2575 X-0.1267 Y-0.2484
N2580 X-0.1262 Y-0.2492
N2585 X-0.1252 Y-0.2498
N2590 X-0.1239 Y-0.2501
N2595 X-0.1223 Y-0.2502
N2600 X-0.1179 Y-0.2498
N2605 X-0.1127 Y-0.2489
N2610 X-0.1016 Y-0.2469
N2615 X-0.0969 Y-0.2465
N2620 X-0.0932 Y-0.2468
N2625 X-0.0919 Y-0.2473
N2630 X-0.091 Y-0.248
N2635 X-0.09 Y-0.2499
N2640 X-0.0902 Y-0.2526
N2645 X-0.091 Y-0.2556
N2650 X-0.0934 Y-0.2618
N2655 X-0.0954 Y-0.2674
N2660 X-0.0965 Y-0.272
N2665 X-0.0917 Y-0.2707
N2670 X-0.0864 Y-0.2694
N2675 X-0.0806 Y-0.2679
N2680 X-0.0744 Y-0.2665
N2685 X-0.0677 Y-0.2651
N2690 X-0.0606 Y-0.2638
N2695 X-0.0454 Y-0.2613
N2700 X-0.029 Y-0.2593
N2705 X-0.0118 Y-0.2579
N2710 X0.0059 Y-0.2571
N2715 X0.0236
N2720 X0.0412 Y-0.2578
N2725 X0.0583 Y-0.2591
N2730 X0.0745 Y-0.2609
N2735 X0.0896 Y-0.2632
N2740 X0.1034 Y-0.2659
N2745 X0.1097 Y-0.2672
N2750 X0.1156 Y-0.2686
N2755 X0.121 Y-0.27
N2760 X0.1261 Y-0.2713
N2765 X0.1306 Y-0.2725
N2770 X0.1346 Y-0.2736
N2775 Z0.16
N2780 G0 Z0.2
N2785 G1 X0.1347 Y-0.095 F650.
N2790 G0 Z0.16
N2795 G1 Z-0.04 F13.123
N2800 X0.1329 Y-0.0945 F39.37
N2805 X0.1315 Y-0.0932
N2810 X0.1305 Y-0.0911
N2815 X0.1291 Y-0.0857
N2820 X0.1277 Y-0.0804
N2825 X0.1268 Y-0.0784
N2830 X0.1257 Y-0.077
N2835 X0.1243 Y-0.0763
N2840 X0.1227
N2845 X0.1208 Y-0.0769
N2850 X0.1189 Y-0.078
N2855 X0.1153 Y-0.0806
N2860 X0.1138 Y-0.0817
N2865 X0.1127 Y-0.0826
N2870 X0.1121 Y-0.0829
N2875 X0.1119 Y-0.0826
N2880 X0.1122 Y-0.0817
N2885 X0.1129 Y-0.0803
N2890 X0.1141 Y-0.0783
N2895 X0.1157 Y-0.076
N2900 X0.1196 Y-0.0705
N2905 X0.1239 Y-0.0651
N2910 X0.126 Y-0.0629
N2915 X0.1279 Y-0.0611
N2920 X0.1296 Y-0.0598
N2925 X0.1309 Y-0.0593
N2930 X0.1318 Y-0.0595
N2935 X0.1324 Y-0.0605
N2940 X0.1326 Y-0.0622
N2945 Y-0.0644
N2950 X0.1321 Y-0.07
N2955 X0.1319 Y-0.0755
N2960 X0.1323 Y-0.0777
N2965 X0.1331 Y-0.0792
N2970 X0.1344 Y-0.0799
N2975 X0.1363 Y-0.0798
N2980 X0.1387 Y-0.0789
N2985 X0.1415 Y-0.0773
N2990 X0.1539 Y-0.068
N2995 X0.1564 Y-0.0662
N3000 X0.1584 Y-0.0651
N3005 X0.1597 Y-0.0648
N3010 X0.1601 Y-0.0654
N3015 X0.1598 Y-0.067
N3020 X0.1587 Y-0.0694
N3025 X0.1569 Y-0.0725
N3030 X0.1546 Y-0.0762
N3035 X0.1487 Y-0.084
N3040 X0.1456 Y-0.0876
N3045 X0.1424 Y-0.0907
N3050 X0.1395 Y-0.093
N3055 X0.1369 Y-0.0945
N3060 X0.1347 Y-0.095
N3065 Z0.16
N3070 G0 Z0.2
N3075 G1 X0.1048 Y-0.0615 F650.
N3080 G0 Z0.16
N3085 G1 Z-0.04 F13.123
N3090 X0.0997 Y-0.0634 F39.37
N3095 X0.094 Y-0.065
N3100 X0.0881 Y-0.0662
N3105 X0.0822 Y-0.067
N3110 X0.0765 Y-0.0672
N3115 X0.0712 Y-0.0669
N3120 X0.0665 Y-0.0661
N3125 X0.0625 Y-0.065
N3130 X0.0593 Y-0.0637
N3135 X0.057 Y-0.0623
N3140 X0.0555 Y-0.0611
N3145 X0.055 Y-0.06
N3150 X0.0554 Y-0.0592
N3155 X0.0568 Y-0.0587
N3160 X0.0591 Y-0.0584
N3165 X0.0622 Y-0.0582
N3170 X0.0662 Y-0.0581
N3175 X0.0709 Y-0.058
N3180 X0.0762 Y-0.0577
N3185 X0.082 Y-0.0573
N3190 X0.0939 Y-0.0559
N3195 X0.0996 Y-0.0552
N3200 X0.1047 Y-0.0546
N3205 X0.109 Y-0.0542
N3210 X0.1123 Y-0.0541
N3215 X0.1143 Y-0.0544
N3220 X0.115 Y-0.0551
N3225 X0.1143 Y-0.0563
N3230 X0.1123 Y-0.0578
N3235 X0.109 Y-0.0596
N3240 X0.1048 Y-0.0615
N3245 Z0.16
N3250 G0 Z0.2
N3255 G1 X0.0601 Y-0.049 F650.
N3260 G0 Z0.16
N3265 G1 Z-0.04 F13.123
N3270 X0.0568 Y-0.0478 F39.37
N3275 X0.0537 Y-0.0459
N3280 X0.0506 Y-0.0434
N3285 X0.0477 Y-0.0403
N3290 X0.0425 Y-0.033
N3295 X0.0381 Y-0.0248
N3300 X0.0347 Y-0.0164
N3305 X0.0335 Y-0.0124
N3310 X0.0325 Y-0.0087
N3315 X0.0319 Y-0.0053
N3320 X0.0317 Y-0.0024
N3325 X0.0318 Y0.0002
N3330 X0.0324 Y0.0023
N3335 X0.0336 Y0.004
N3340 X0.0352 Y0.0054
N3345 X0.0374 Y0.0064
N3350 X0.0402 Y0.0073
N3355 X0.0437 Y0.0079
N3360 X0.0477 Y0.0085
N3365 X0.0523 Y0.0089
N3370 X0.0574 Y0.0094
N3375 X0.0689 Y0.0102
N3380 X0.0816 Y0.0112
N3385 X0.1081 Y0.0134
N3390 X0.1203 Y0.0146
N3395 X0.1311 Y0.0157
N3400 X0.1357 Y0.0161
N3405 X0.1399 Y0.0165
N3410 X0.1434 Y0.0168
N3415 X0.1464 Y0.0169
N3420 X0.1488
N3425 X0.1508 Y0.0167
N3430 X0.1523 Y0.0162
N3435 X0.1534 Y0.0156
N3440 X0.1547 Y0.0135
N3445 X0.1553 Y0.0104
N3450 X0.1555 Y0.0062
N3455 X0.1556 Y0.0011
N3460 X0.1558 Y-0.0048
N3465 X0.1561 Y-0.0113
N3470 X0.157 Y-0.0251
N3475 X0.1572 Y-0.0318
N3480 X0.157 Y-0.038
N3485 X0.1562 Y-0.0432
N3490 X0.1556 Y-0.0454
N3495 X0.1548 Y-0.0472
N3500 X0.1538 Y-0.0485
N3505 X0.1527 Y-0.0494
N3510 X0.1514 Y-0.0497
N3515 X0.1502 Y-0.0493
N3520 X0.1489 Y-0.0483
N3525 X0.1476 Y-0.0466
N3530 X0.1465 Y-0.0441
N3535 X0.1455 Y-0.041
N3540 X0.1447 Y-0.0373
N3545 X0.1441 Y-0.0331
N3550 X0.1434 Y-0.0237
N3555 X0.1436 Y-0.014
N3560 X0.1442 Y-0.0051
N3565 X0.1446 Y-0.0013
N3570 X0.1454 Y0.0045
N3575 X0.1455 Y0.0064
N3580 X0.1454 Y0.0076
N3585 X0.1449 Y0.0082
N3590 X0.144 Y0.0083
N3595 X0.1425 Y0.008
N3600 X0.1405 Y0.0075
N3605 X0.1379 Y0.0067
N3610 X0.1347 Y0.006
N3615 X0.1311 Y0.0053
N3620 X0.123 Y0.0042
N3625 X0.1147 Y0.0037
N3630 X0.1074
N3635 X0.1043 Y0.0039
N3640 X0.1019 Y0.0041
N3645 X0.1 Y0.0043
N3650 X0.0987 Y0.0044
N3655 X0.0979 Y0.0043
N3660 X0.0975 Y0.0038
N3665 X0.0974 Y0.003
N3670 X0.0973 Y-0.0003
N3675 X0.0971 Y-0.0027
N3680 X0.0967 Y-0.0056
N3685 X0.0961 Y-0.009
N3690 X0.0952 Y-0.0127
N3695 X0.0939 Y-0.0168
N3700 X0.0904 Y-0.0253
N3705 X0.0857 Y-0.0337
N3710 X0.083 Y-0.0376
N3715 X0.08 Y-0.0411
N3720 X0.0769 Y-0.044
N3725 X0.0736 Y-0.0464
N3730 X0.0702 Y-0.0481
N3735 X0.0669 Y-0.0492
N3740 X0.0635 Y-0.0494
N3745 X0.0601 Y-0.049
N3750 Z0.16
N3755 G0 Z0.2
N3760 G1 X0.14 Y0.0347 F650.
N3765 G0 Z0.16
N3770 G1 Z-0.04 F13.123
N3775 X0.1376 Y0.0345 F39.37
N3780 X0.1348
N3785 X0.1316 Y0.0348
N3790 X0.1279 Y0.0351
N3795 X0.1196 Y0.0363
N3800 X0.1102 Y0.0379
N3805 X0.0898 Y0.0412
N3810 X0.0797 Y0.0421
N3815 X0.0703 Y0.0422
N3820 X0.0619 Y0.0416
N3825 X0.0548 Y0.0405
N3830 X0.0491 Y0.0395
N3835 X0.0469 Y0.0393
N3840 X0.0451 Y0.0392
N3845 X0.0436 Y0.0395
N3850 X0.0426 Y0.04
N3855 X0.042 Y0.0407
N3860 X0.0418 Y0.0418
N3865 X0.042 Y0.0429
N3870 X0.0426 Y0.0442
N3875 X0.0437 Y0.0455
N3880 X0.0451 Y0.0468
N3885 X0.0469 Y0.048
N3890 X0.0492 Y0.049
N3895 X0.0548 Y0.0507
N3900 X0.0618 Y0.0518
N3905 X0.07 Y0.0522
N3910 X0.0792 Y0.0521
N3915 X0.089 Y0.0515
N3920 X0.1093 Y0.0491
N3925 X0.1189 Y0.0475
N3930 X0.1274 Y0.0456
N3935 X0.1312 Y0.0446
N3940 X0.1346 Y0.0435
N3945 X0.1375 Y0.0424
N3950 X0.1399 Y0.0413
N3955 X0.1419 Y0.0402
N3960 X0.1433 Y0.0391
N3965 X0.1441 Y0.0381
N3970 X0.1444 Y0.0371
N3975 X0.1441 Y0.0363
N3980 X0.1433 Y0.0356
N3985 X0.1419 Y0.035
N3990 X0.14 Y0.0347
N3995 Z0.16
N4000 G0 Z0.2
N4005 G1 X-0.0178 Y-0.0535 F650.
N4010 G0 Z0.16
N4015 G1 Z-0.04 F13.123
N4020 X-0.0167 Y-0.0544 F39.37
N4025 X-0.0164 Y-0.0553
N4030 X-0.0168 Y-0.0563
N4035 X-0.0179 Y-0.0573
N4040 X-0.0196 Y-0.0583
N4045 X-0.0219 Y-0.0592
N4050 X-0.0247 Y-0.0599
N4055 X-0.0279 Y-0.0605
N4060 X-0.0348 Y-0.061
N4065 X-0.0416 Y-0.0605
N4070 X-0.0446 Y-0.0599
N4075 X-0.0473 Y-0.0591
N4080 X-0.0495 Y-0.0582
N4085 X-0.0511 Y-0.0573
N4090 X-0.0521 Y-0.0563
N4095 X-0.0524 Y-0.0553
N4100 X-0.052 Y-0.0543
N4105 X-0.051 Y-0.0535
N4110 X-0.0493 Y-0.0527
N4115 X-0.0471 Y-0.0521
N4120 X-0.0444 Y-0.0516
N4125 X-0.0413 Y-0.0513
N4130 X-0.0345 Y-0.051
N4135 X-0.0276 Y-0.0513
N4140 X-0.0217 Y-0.0521
N4145 X-0.0195 Y-0.0528
N4150 X-0.0178 Y-0.0535
N4155 Z0.16
N4160 G0 Z0.2
N4165 G1 X-0.0753 Y-0.0446 F650.
N4170 G0 Z0.16
N4175 G1 Z-0.04 F13.123
N4180 X-0.0776 Y-0.0485 F39.37
N4185 X-0.0802 Y-0.052
N4190 X-0.0832 Y-0.055
N4195 X-0.0866 Y-0.0574
N4200 X-0.0902 Y-0.0593
N4205 X-0.094 Y-0.0605
N4210 X-0.0979 Y-0.061
N4215 X-0.1018 Y-0.0607
N4220 X-0.1056 Y-0.0597
N4225 X-0.1092 Y-0.058
N4230 X-0.1125 Y-0.0557
N4235 X-0.1155 Y-0.0528
N4240 X-0.118 Y-0.0494
N4245 X-0.1203 Y-0.0456
N4250 X-0.1222 Y-0.0416
N4255 X-0.1253 Y-0.0332
N4260 X-0.1276 Y-0.0253
N4265 X-0.1286 Y-0.0217
N4270 X-0.1296 Y-0.0186
N4275 X-0.1306 Y-0.0159
N4280 X-0.1318 Y-0.0137
N4285 X-0.1332 Y-0.0121
N4290 X-0.1347 Y-0.0111
N4295 X-0.1365 Y-0.0105
N4300 X-0.1385 Y-0.0103
N4305 X-0.1431 Y-0.0106
N4310 X-0.1483 Y-0.0113
N4315 X-0.154 Y-0.0118
N4320 X-0.16
N4325 X-0.1659 Y-0.0114
N4330 X-0.1717 Y-0.0108
N4335 X-0.1768 Y-0.0102
N4340 X-0.179
N4345 X-0.181 Y-0.0105
N4350 X-0.1825 Y-0.0111
N4355 X-0.1837 Y-0.0122
N4360 X-0.1845 Y-0.0138
N4365 X-0.1849 Y-0.0158
N4370 Y-0.0185
N4375 X-0.1845 Y-0.0215
N4380 X-0.1829 Y-0.0288
N4385 X-0.1784 Y-0.0452
N4390 X-0.1774 Y-0.049
N4395 X-0.1767 Y-0.0524
N4400 X-0.1763 Y-0.0554
N4405 X-0.1762 Y-0.0579
N4410 X-0.1764 Y-0.0597
N4415 X-0.1769 Y-0.061
N4420 X-0.1778 Y-0.0616
N4425 X-0.1789 Y-0.0615
N4430 X-0.1802 Y-0.0608
N4435 X-0.1817 Y-0.0596
N4440 X-0.1832 Y-0.0579
N4445 X-0.1849 Y-0.0559
N4450 X-0.188 Y-0.0508
N4455 X-0.1908 Y-0.0453
N4460 X-0.1929 Y-0.0398
N4465 X-0.1942 Y-0.0346
N4470 X-0.1949 Y-0.0298
N4475 X-0.195 Y-0.0199
N4480 X-0.1949 Y-0.0148
N4485 X-0.1947 Y-0.0102
N4490 X-0.1943 Y-0.0066
N4495 X-0.1934 Y-0.0042
N4500 X-0.1925 Y-0.0035
N4505 X-0.1913 Y-0.003
N4510 X-0.1896 Y-0.0028
N4515 X-0.1875
N4520 X-0.1847 Y-0.0029
N4525 X-0.1814 Y-0.003
N4530 X-0.1775 Y-0.0032
N4535 X-0.1731 Y-0.0033
N4540 X-0.1681
N4545 X-0.1626
N4550 X-0.1505 Y-0.0031
N4555 X-0.1241 Y-0.0018
N4560 X-0.1113 Y-0.001
N4565 X-0.0996 Y-0.0003
N4570 X-0.0944 Y0.
N4575 X-0.0896 Y0.0001
N4580 X-0.0854 Y0.
N4585 X-0.0818 Y-0.0003
N4590 X-0.0787 Y-0.0009
N4595 X-0.0761 Y-0.0017
N4600 X-0.0741 Y-0.003
N4605 X-0.0724 Y-0.0046
N4610 X-0.0711 Y-0.0067
N4615 X-0.0702 Y-0.0093
N4620 X-0.0696 Y-0.0122
N4625 X-0.0692 Y-0.0156
N4630 X-0.0691 Y-0.0193
N4635 X-0.0693 Y-0.0233
N4640 X-0.0707 Y-0.0319
N4645 X-0.0734 Y-0.0405
N4650 X-0.0753 Y-0.0446
N4655 Z0.16
N4660 G0 Z0.2
N4665 G1 X-0.1886 Y-0.0669 F650.
N4670 G0 Z0.16
N4675 G1 Z-0.04 F13.123
N4680 X-0.188 Y-0.0689 F39.37
N4685 Y-0.0713
N4690 X-0.1891 Y-0.0767
N4695 X-0.1897 Y-0.0792
N4700 X-0.19 Y-0.0812
N4705 X-0.1899 Y-0.0826
N4710 X-0.189 Y-0.0832
N4715 X-0.1873 Y-0.0829
N4720 X-0.1848 Y-0.0818
N4725 X-0.1815 Y-0.08
N4730 X-0.1777 Y-0.078
N4735 X-0.1694 Y-0.0739
N4740 X-0.1654 Y-0.0726
N4745 X-0.1619 Y-0.072
N4750 X-0.1591 Y-0.0722
N4755 X-0.1572 Y-0.0731
N4760 X-0.1564 Y-0.0746
N4765 X-0.1567 Y-0.0765
N4770 X-0.1581 Y-0.0784
N4775 X-0.1604 Y-0.0803
N4780 X-0.1636 Y-0.0822
N4785 X-0.1674 Y-0.0841
N4790 X-0.1763 Y-0.088
N4795 X-0.1854 Y-0.0917
N4800 X-0.1896 Y-0.0934
N4805 X-0.1933 Y-0.0948
N4810 X-0.1964 Y-0.0958
N4815 X-0.1988 Y-0.0962
N4820 X-0.2005 Y-0.0959
N4825 X-0.2015 Y-0.0949
N4830 X-0.2019 Y-0.0932
N4835 X-0.2018 Y-0.0909
N4840 X-0.2006 Y-0.0852
N4845 X-0.2 Y-0.0824
N4850 X-0.1997 Y-0.08
N4855 X-0.1998 Y-0.0784
N4860 X-0.2006 Y-0.0776
N4865 X-0.202
N4870 X-0.2039 Y-0.0784
N4875 X-0.2091 Y-0.0811
N4880 X-0.2119 Y-0.0823
N4885 X-0.2145 Y-0.0829
N4890 X-0.2167 Y-0.0827
N4895 X-0.2182 Y-0.0817
N4900 X-0.2189 Y-0.08
N4905 X-0.2187 Y-0.078
N4910 X-0.2177 Y-0.0757
N4915 X-0.2159 Y-0.0734
N4920 X-0.2134 Y-0.0712
N4925 X-0.2104 Y-0.0692
N4930 X-0.2035 Y-0.066
N4935 X-0.2001 Y-0.0649
N4940 X-0.1968 Y-0.0643
N4945 X-0.1939 Y-0.0641
N4950 X-0.1915 Y-0.0645
N4955 X-0.1897 Y-0.0654
N4960 X-0.1886 Y-0.0669
N4965 Z0.16
N4970 G0 Z0.2
N4975 G1 X-0.1563 Y-0.067 F650.
N4980 G0 Z0.16
N4985 G1 Z-0.04 F13.123
N4990 X-0.1556 Y-0.0664 F39.37
N4995 X-0.1537 Y-0.0661
N5000 X-0.1508
N5005 X-0.1468 Y-0.0662
N5010 X-0.1421 Y-0.0665
N5015 X-0.1367 Y-0.0668
N5020 X-0.1248 Y-0.067
N5025 X-0.1129 Y-0.0668
N5030 X-0.1076 Y-0.0665
N5035 X-0.1029 Y-0.0662
N5040 X-0.0991 Y-0.0661
N5045 X-0.0963
N5050 X-0.0945 Y-0.0665
N5055 X-0.094 Y-0.0671
N5060 X-0.0947 Y-0.068
N5065 X-0.0965 Y-0.0692
N5070 X-0.0995 Y-0.0705
N5075 X-0.1034 Y-0.0718
N5080 X-0.1082 Y-0.073
N5085 X-0.1135 Y-0.074
N5090 X-0.1194 Y-0.0746
N5095 X-0.1254 Y-0.0748
N5100 X-0.1314 Y-0.0746
N5105 X-0.1372 Y-0.0739
N5110 X-0.1426 Y-0.0729
N5115 X-0.1473 Y-0.0717
N5120 X-0.1511 Y-0.0704
N5125 X-0.154 Y-0.0691
N5130 X-0.1557 Y-0.0679
N5135 X-0.1563 Y-0.067
N5140 Z0.16
N5145 G0 Z0.2
N5150 G1 X-0.08 Y-0.105 F650.
N5155 G0 Z0.16
N5160 G1 Z-0.04 F13.123
N5165 X-0.0792 Y-0.1047 F39.37
N5170 X-0.0773 Y-0.1051
N5175 X-0.0743 Y-0.1062
N5180 X-0.0705 Y-0.1075
N5185 X-0.066 Y-0.1088
N5190 X-0.061 Y-0.1097
N5195 X-0.0558 Y-0.11
N5200 X-0.0505 Y-0.1095
N5205 X-0.0454 Y-0.1082
N5210 X-0.0404 Y-0.1062
N5215 X-0.0313 Y-0.101
N5220 X-0.0273 Y-0.0984
N5225 X-0.0235 Y-0.0963
N5230 X-0.02 Y-0.0947
N5235 X-0.0166 Y-0.094
N5240 X-0.0132
N5245 X-0.0098 Y-0.0948
N5250 X-0.0023 Y-0.0974
N5255 X0.0021 Y-0.0987
N5260 X0.0069 Y-0.0997
N5265 X0.0121 Y-0.1001
N5270 X0.0177 Y-0.0998
N5275 X0.0236 Y-0.0987
N5280 X0.0294 Y-0.0971
N5285 X0.0351 Y-0.0951
N5290 X0.0402 Y-0.0931
N5295 X0.0444 Y-0.0914
N5300 X0.0476 Y-0.0902
N5305 X0.0487 Y-0.0899
N5310 X0.0495 Y-0.0898
N5315 X0.0499 Y-0.0899
N5320 X0.05 Y-0.0903
N5325 X0.0497 Y-0.0909
N5330 X0.049 Y-0.0917
N5335 X0.0466 Y-0.094
N5340 X0.0431 Y-0.097
N5345 X0.0385 Y-0.1002
N5350 X0.0332 Y-0.1034
N5355 X0.0275 Y-0.1062
N5360 X0.0217 Y-0.1084
N5365 X0.0159 Y-0.1099
N5370 X0.0104 Y-0.1104
N5375 X0.0054 Y-0.11
N5380 X0.0008 Y-0.1091
N5385 X-0.0034 Y-0.1077
N5390 X-0.0109 Y-0.1053
N5395 X-0.0143 Y-0.1047
N5400 X-0.0177 Y-0.105
N5405 X-0.0211 Y-0.1061
N5410 X-0.0248 Y-0.1079
N5415 X-0.0287 Y-0.1103
N5420 X-0.0329 Y-0.113
N5425 X-0.0374 Y-0.1156
N5430 X-0.0422 Y-0.1179
N5435 X-0.0472 Y-0.1194
N5440 X-0.0524 Y-0.1201
N5445 X-0.0576 Y-0.1197
N5450 X-0.0627 Y-0.1183
N5455 X-0.0675 Y-0.1162
N5460 X-0.0718 Y-0.1135
N5465 X-0.0754 Y-0.1107
N5470 X-0.078 Y-0.1082
N5475 X-0.0796 Y-0.1062
N5480 X-0.08 Y-0.105
N5485 Z0.16
N5490 G0 Z0.2
N5495 G1 X-0.0956 Y0.0301 F650.
N5500 G0 Z0.16
N5505 G1 Z-0.04 F13.123
N5510 X-0.0978 Y0.0299 F39.37
N5515 X-0.1005
N5520 X-0.1036 Y0.0301
N5525 X-0.1072 Y0.0303
N5530 X-0.1154 Y0.0308
N5535 X-0.1247 Y0.0311
N5540 X-0.1349 Y0.0306
N5545 X-0.1454 Y0.0292
N5550 X-0.1558 Y0.0269
N5555 X-0.1658 Y0.024
N5560 X-0.1791 Y0.0196
N5565 X-0.1828 Y0.0185
N5570 X-0.1862 Y0.0175
N5575 X-0.1892 Y0.017
N5580 X-0.1917 Y0.0167
N5585 X-0.1937 Y0.0169
N5590 X-0.1953 Y0.0175
N5595 X-0.1963 Y0.0185
N5600 X-0.1969 Y0.0197
N5605 X-0.1968 Y0.0212
N5610 X-0.1963 Y0.0228
N5615 X-0.1953 Y0.0243
N5620 X-0.1938 Y0.0258
N5625 X-0.1919 Y0.027
N5630 X-0.1895 Y0.0281
N5635 X-0.1867 Y0.029
N5640 X-0.1802 Y0.0304
N5645 X-0.1727 Y0.0317
N5650 X-0.1645 Y0.0331
N5655 X-0.1559 Y0.035
N5660 X-0.147 Y0.0373
N5665 X-0.1379 Y0.0396
N5670 X-0.1288 Y0.0411
N5675 X-0.1197 Y0.0417
N5680 X-0.1113 Y0.0412
N5685 X-0.1039 Y0.0397
N5690 X-0.1008 Y0.0387
N5695 X-0.098 Y0.0376
N5700 X-0.0958 Y0.0364
N5705 X-0.0941 Y0.0351
N5710 X-0.0929 Y0.0339
N5715 X-0.0923 Y0.0328
N5720 Y0.0318
N5725 X-0.0928 Y0.0311
N5730 X-0.094 Y0.0305
N5735 X-0.0956 Y0.0301
N5740 Z0.16
N5745 G0 Z0.6

N5750 M5
N5755 M9
N5760 G53 G0 Z0.
N5765 G53 G0 X-29. Y-8.
N5770 G0 B0. C0.
N5775 M30

%
