%
O07003
(Using high feed G1 F650. instead of G0.)
(Machine)
(  vendor: Haas Automation)
(  model: HAAS UMC-750)
(T1 D=0.25 CR=0. TAPER=90deg - ZMIN=-0.1189 - spot drill)
N10 G90 G94 G17
N15 G20
N20 G53 G0 Z0.

(Engrave3)
N25 T1 M6
N30 S5000 M3
N35 G17 G90
N40 G54
N45 G53 G0 X-29. Y-8.
N50 G0 B0. C0.
N55 M8
N60 G1 X-0.3771 Y0.0878 F650.
N65 G0 G43 Z0.6 H1
N70 G0 Z0.16
N75 G1 Z-0.0511 F13.123
N80 X-0.3767 Y0.0874 Z-0.0516 F39.37
N85 X-0.3761 Y0.0864 Z-0.0526
N90 X-0.3753 Y0.0855 Z-0.0536
N95 X-0.3744 Y0.0841 Z-0.0549
N100 X-0.373 Y0.0824 Z-0.0564
N105 X-0.372 Y0.081 Z-0.0576
N110 X-0.3699 Y0.0783 Z-0.0597
N115 X-0.3661 Y0.0733 Z-0.0632
N120 X-0.3621 Y0.0681 Z-0.0665
N125 X-0.358 Y0.063 Z-0.0695
N130 X-0.3535 Y0.0577 Z-0.0726
N135 X-0.3506 Y0.0544 Z-0.0744
N140 X-0.3386 Y0.0412 Z-0.0816
N145 X-0.3317 Y0.0342 Z-0.0854
N150 X-0.3266 Y0.0292 Z-0.0882
N155 X-0.3245 Y0.0274 Z-0.0893
N160 X-0.3169 Y0.0206 Z-0.0933
N165 X-0.3148 Y0.0188 Z-0.0944
N170 X-0.309 Y0.0141 Z-0.0974
N175 X-0.301 Y0.008 Z-0.1016
N180 X-0.2876 Y-0.0015 Z-0.1081
N185 X-0.2842 Y-0.0038 Z-0.1096
N190 X-0.2755 Y-0.01 Z-0.1134
N195 X-0.2641 Y-0.0183 Z-0.1176
N200 X-0.2606 Y-0.0208 Z-0.1189
N205 X-0.2625 Y-0.0271 Z-0.1135
N210 X-0.2642 Y-0.0334 Z-0.1082
N215 X-0.2667 Y-0.0437 Z-0.0997
N220 X-0.268 Y-0.0502 Z-0.0945
N225 X-0.2695 Y-0.06 Z-0.0869
N230 X-0.2701 Y-0.0654 Z-0.0828
N235 X-0.2705 Y-0.0715 Z-0.0784
N240 X-0.2706 Y-0.077 Z-0.0747
N245 Y-0.0795 Z-0.073
N250 X-0.2703 Y-0.0842 Z-0.07
N255 X-0.2699 Y-0.0887 Z-0.0672
N260 X-0.2697 Y-0.0908 Z-0.066
N265 X-0.269 Y-0.0947 Z-0.0638
N270 X-0.2681 Y-0.0983 Z-0.062
N275 X-0.2677 Y-0.0999 Z-0.0612
N280 X-0.2667 Y-0.103 Z-0.0599
N285 X-0.2659 Y-0.1052 Z-0.059
N290 X-0.2649 Y-0.1075 Z-0.0582
N295 X-0.2637 Y-0.11 Z-0.0575
N300 X-0.262 Y-0.113 Z-0.0569
N305 X-0.2606 Y-0.1151 Z-0.0566
N310 X-0.2595 Y-0.1166 Z-0.0565
N315 X-0.2586 Y-0.1177
N320 X-0.257 Y-0.1195 Z-0.0567
N325 X-0.2569 Y-0.1217 Z-0.0555
N330 X-0.2566 Y-0.1264 Z-0.0533
N335 X-0.2565 Y-0.1281 Z-0.0526
N340 X-0.2563 Y-0.1303 Z-0.052
N345 X-0.2558 Y-0.134 Z-0.0512
N350 Y-0.1359 Z-0.051
N355 X-0.2559 Y-0.1394
N360 X-0.256 Y-0.1409
N365 X-0.2561 Y-0.1421 Z-0.0512
N370 X-0.2564 Y-0.1434 Z-0.0514
N375 X-0.2566 Y-0.1447 Z-0.0517
N380 X-0.2574 Y-0.1472 Z-0.0524
N385 X-0.2585 Y-0.1503 Z-0.0536
N390 X-0.2599 Y-0.1533 Z-0.055
N395 X-0.2609 Y-0.155 Z-0.056
N400 X-0.2631 Y-0.1588 Z-0.0586
N405 X-0.2642 Y-0.1607 Z-0.0599
N410 X-0.2674 Y-0.1656 Z-0.0639
N415 X-0.2684 Y-0.1671 Z-0.0653
N420 X-0.2716 Y-0.1663 Z-0.064
N425 X-0.2767 Y-0.1649 Z-0.0623
N430 X-0.2831 Y-0.1631 Z-0.0607
N435 X-0.2882 Y-0.1614 Z-0.0595
N440 X-0.2934 Y-0.1594 Z-0.0582
N445 X-0.3004 Y-0.1561 Z-0.0561
N450 X-0.3049 Y-0.1538 Z-0.0548
N455 X-0.3111 Y-0.1503 Z-0.0526
N460 X-0.3173 Y-0.1465 Z-0.0503
N465 X-0.3231 Y-0.1426 Z-0.048
N470 X-0.3289 Y-0.1386 Z-0.0457
N475 X-0.3365 Y-0.1329 Z-0.0425
N480 X-0.3388 Y-0.1312 Z-0.0413
N485 X-0.3394 Y-0.1307 Z-0.0408
N490 X-0.3396 Y-0.1305 Z-0.0407
N495 X-0.3398 Y-0.13 Z-0.04
N500 X-0.3396 Y-0.1305 Z-0.0407
N505 X-0.3402 Y-0.1303 Z-0.04
N510 X-0.3396 Y-0.1305 Z-0.0407
N515 X-0.3394 Y-0.1307 Z-0.0408
N520 X-0.3388 Y-0.1312 Z-0.0413
N525 X-0.3365 Y-0.1329 Z-0.0425
N530 X-0.3289 Y-0.1386 Z-0.0457
N535 X-0.3231 Y-0.1426 Z-0.048
N540 X-0.3173 Y-0.1465 Z-0.0503
N545 X-0.3111 Y-0.1503 Z-0.0526
N550 X-0.3049 Y-0.1538 Z-0.0548
N555 X-0.3004 Y-0.1561 Z-0.0561
N560 X-0.2934 Y-0.1594 Z-0.0582
N565 X-0.2882 Y-0.1614 Z-0.0595
N570 X-0.2831 Y-0.1631 Z-0.0607
N575 X-0.2767 Y-0.1649 Z-0.0623
N580 X-0.2716 Y-0.1663 Z-0.064
N585 X-0.2684 Y-0.1671 Z-0.0653
N590 X-0.2667 Y-0.17 Z-0.0644
N595 X-0.2666 Y-0.1703 Z-0.0643
N600 X-0.2658 Y-0.1707 Z-0.0637
N605 X-0.2623 Y-0.1722 Z-0.0608
N610 X-0.2589 Y-0.1737 Z-0.0581
N615 X-0.2527 Y-0.1767 Z-0.0535
N620 X-0.2474 Y-0.1793 Z-0.05
N625 X-0.2444 Y-0.181 Z-0.0481
N630 X-0.2428 Y-0.1819 Z-0.0473
N635 X-0.2397 Y-0.1839 Z-0.0458
N640 X-0.239 Y-0.1845 Z-0.0455
N645 X-0.2369 Y-0.1863 Z-0.045
N650 X-0.2358 Y-0.1874 Z-0.0449
N655 X-0.2341 Y-0.1894 Z-0.0451
N660 X-0.2332 Y-0.1904 Z-0.0455
N665 X-0.2318 Y-0.1923 Z-0.0465
N670 X-0.2313 Y-0.1929 Z-0.0468
N675 X-0.2298 Y-0.1947 Z-0.0483
N680 X-0.2316 Y-0.1976 Z-0.0466
N685 X-0.2362 Y-0.2038 Z-0.0433
N690 X-0.2379 Y-0.2059 Z-0.0421
N695 X-0.2383 Y-0.2062 Z-0.0418
N700 X-0.2387 Y-0.2069 Z-0.0412
N705 X-0.239 Y-0.2081 Z-0.04
N710 X-0.2387 Y-0.2069 Z-0.0412
N715 X-0.2398 Y-0.2076 Z-0.04
N720 X-0.2387 Y-0.2069 Z-0.0412
N725 X-0.2383 Y-0.2062 Z-0.0418
N730 X-0.2379 Y-0.2059 Z-0.0421
N735 X-0.2362 Y-0.2038 Z-0.0433
N740 X-0.2316 Y-0.1976 Z-0.0466
N745 X-0.2298 Y-0.1947 Z-0.0483
N750 X-0.2273 Y-0.1942 Z-0.0476
N755 X-0.2263 Y-0.1939 Z-0.0475
N760 X-0.2254 Y-0.1936 Z-0.0474
N765 X-0.2246 Y-0.1932
N770 X-0.2226 Y-0.1922 Z-0.0475
N775 X-0.2211 Y-0.1912 Z-0.0478
N780 X-0.2196 Y-0.1901 Z-0.0484
N785 X-0.2178 Y-0.1885 Z-0.0494
N790 X-0.2157 Y-0.1866 Z-0.0509
N795 X-0.2144 Y-0.1884 Z-0.0489
N800 X-0.2131 Y-0.1899 Z-0.0472
N805 X-0.2115 Y-0.1918 Z-0.0452
N810 X-0.2103 Y-0.1929 Z-0.0441
N815 X-0.2091 Y-0.1938 Z-0.0434
N820 X-0.2082 Y-0.1944 Z-0.0429
N825 X-0.2078 Y-0.1947 Z-0.0428
N830 X-0.2072 Y-0.1951 Z-0.0427
N835 X-0.2054 Y-0.1962 Z-0.0426
N840 X-0.2047 Y-0.1968 Z-0.0428
N845 X-0.2027 Y-0.1988 Z-0.0438
N850 X-0.2024 Y-0.1992 Z-0.044
N855 X-0.2015 Y-0.2004 Z-0.0449
N860 X-0.1997 Y-0.2037 Z-0.0474
N865 X-0.1986 Y-0.206 Z-0.0493
N870 X-0.1979 Y-0.2077 Z-0.0508
N875 X-0.1956 Y-0.2141 Z-0.0564
N880 X-0.1946 Y-0.2173 Z-0.0594
N885 X-0.1923 Y-0.2258 Z-0.0674
N890 X-0.1909 Y-0.231 Z-0.0722
N895 X-0.189 Y-0.2384 Z-0.0794
N900 X-0.1944 Y-0.2389 Z-0.077
N905 X-0.1978 Y-0.2392 Z-0.0756
N910 X-0.2045 Y-0.2394 Z-0.0729
N915 X-0.2154 Z-0.0686
N920 X-0.2174 Z-0.0679
N925 X-0.2263 Y-0.2391 Z-0.0642
N930 X-0.2321 Y-0.2387 Z-0.0616
N935 X-0.2362 Y-0.2382 Z-0.0597
N940 X-0.2393 Y-0.2377 Z-0.0582
N945 X-0.242 Y-0.2374 Z-0.0572
N950 X-0.2449 Y-0.2371 Z-0.0563
N955 X-0.2476 Y-0.2369 Z-0.0558
N960 X-0.2497 Y-0.2368 Z-0.0556
N965 X-0.2523 Y-0.2367 Z-0.0558
N970 X-0.2544 Y-0.2366 Z-0.0561
N975 X-0.2563 Y-0.2365 Z-0.0566
N980 X-0.2578 Y-0.2363 Z-0.057
N985 X-0.2593 Y-0.236 Z-0.0575
N990 X-0.2613 Y-0.2356 Z-0.0582
N995 X-0.264 Y-0.2348 Z-0.0594
N1000 X-0.2671 Y-0.2337 Z-0.0608
N1005 X-0.2687 Y-0.2331 Z-0.0616
N1010 X-0.2725 Y-0.2314 Z-0.0639
N1015 X-0.2936 Y-0.2447 Z-0.0531
N1020 X-0.2942 Y-0.2451 Z-0.0528
N1025 X-0.3005 Y-0.2491 Z-0.0493
N1030 X-0.3039 Y-0.2514 Z-0.0472
N1035 X-0.3055 Y-0.2525 Z-0.046
N1040 X-0.3069 Y-0.2533 Z-0.0448
N1045 X-0.3076 Y-0.2538 Z-0.0442
N1050 X-0.3077 Y-0.2539 Z-0.044
N1055 X-0.3081 Y-0.2542 Z-0.0436
N1060 X-0.3077 Y-0.2539 Z-0.044
N1065 X-0.3076 Y-0.2538 Z-0.0442
N1070 X-0.3069 Y-0.2533 Z-0.0448
N1075 X-0.3055 Y-0.2525 Z-0.046
N1080 X-0.3039 Y-0.2514 Z-0.0472
N1085 X-0.3005 Y-0.2491 Z-0.0493
N1090 X-0.2942 Y-0.2451 Z-0.0528
N1095 X-0.2936 Y-0.2447 Z-0.0531
N1100 X-0.2725 Y-0.2314 Z-0.0639
N1105 X-0.2724 Y-0.2303 Z-0.0634
N1110 X-0.2681 Y-0.2249 Z-0.0573
N1115 X-0.2648 Y-0.2211 Z-0.0532
N1120 X-0.2637 Y-0.2198 Z-0.0519
N1125 X-0.262 Y-0.2176 Z-0.0501
N1130 X-0.259 Y-0.2142 Z-0.0475
N1135 X-0.2566 Y-0.2111 Z-0.0456
N1140 X-0.2519 Y-0.205 Z-0.0422
N1145 X-0.2516 Y-0.2044 Z-0.0418
N1150 X-0.2512 Y-0.204 Z-0.0414
N1155 X-0.2499 Y-0.2034 Z-0.04
N1160 X-0.2512 Y-0.204 Z-0.0414
N1165 X-0.2506 Y-0.2026 Z-0.04
N1170 X-0.2512 Y-0.204 Z-0.0414
N1175 X-0.2516 Y-0.2044 Z-0.0418
N1180 X-0.2519 Y-0.205 Z-0.0422
N1185 X-0.2566 Y-0.2111 Z-0.0456
N1190 X-0.259 Y-0.2142 Z-0.0475
N1195 X-0.262 Y-0.2176 Z-0.0501
N1200 X-0.2637 Y-0.2198 Z-0.0519
N1205 X-0.2648 Y-0.2211 Z-0.0532
N1210 X-0.2681 Y-0.2249 Z-0.0573
N1215 X-0.2724 Y-0.2303 Z-0.0634
N1220 X-0.2737 Y-0.227 Z-0.0605
N1225 X-0.2747 Y-0.2239 Z-0.0581
N1230 X-0.276 Y-0.2185 Z-0.0542
N1235 X-0.2767 Y-0.2147 Z-0.0517
N1240 X-0.2769 Y-0.2125 Z-0.0505
N1245 X-0.277 Y-0.2104 Z-0.0495
N1250 X-0.2768 Y-0.2075 Z-0.0483
N1255 X-0.2766 Y-0.2058 Z-0.0478
N1260 X-0.2764 Y-0.2045 Z-0.0475
N1265 X-0.2758 Y-0.2021 Z-0.0471
N1270 X-0.2752 Y-0.2
N1275 X-0.2747 Y-0.1986 Z-0.0472
N1280 X-0.2744 Y-0.1977 Z-0.0474
N1285 X-0.2737 Y-0.1959 Z-0.0477
N1290 X-0.2726 Y-0.1929 Z-0.0487
N1295 X-0.2719 Y-0.191 Z-0.0496
N1300 X-0.2708 Y-0.1878 Z-0.0512
N1305 X-0.2703 Y-0.1858 Z-0.0525
N1310 X-0.269 Y-0.1813 Z-0.0555
N1315 X-0.2678 Y-0.1762 Z-0.0595
N1320 X-0.2666 Y-0.1703 Z-0.0643
N1325 X-0.2678 Y-0.1762 Z-0.0595
N1330 X-0.269 Y-0.1813 Z-0.0555
N1335 X-0.2703 Y-0.1858 Z-0.0525
N1340 X-0.2708 Y-0.1878 Z-0.0512
N1345 X-0.2719 Y-0.191 Z-0.0496
N1350 X-0.2726 Y-0.1929 Z-0.0487
N1355 X-0.2737 Y-0.1959 Z-0.0477
N1360 X-0.2744 Y-0.1977 Z-0.0474
N1365 X-0.2747 Y-0.1986 Z-0.0472
N1370 X-0.2752 Y-0.2 Z-0.0471
N1375 X-0.2758 Y-0.2021
N1380 X-0.2764 Y-0.2045 Z-0.0475
N1385 X-0.2766 Y-0.2058 Z-0.0478
N1390 X-0.2768 Y-0.2075 Z-0.0483
N1395 X-0.277 Y-0.2104 Z-0.0495
N1400 X-0.2769 Y-0.2125 Z-0.0505
N1405 X-0.2767 Y-0.2147 Z-0.0517
N1410 X-0.276 Y-0.2185 Z-0.0542
N1415 X-0.2747 Y-0.2239 Z-0.0581
N1420 X-0.2737 Y-0.227 Z-0.0605
N1425 X-0.2724 Y-0.2303 Z-0.0634
N1430 X-0.2725 Y-0.2314 Z-0.0639
N1435 X-0.2687 Y-0.2331 Z-0.0616
N1440 X-0.2671 Y-0.2337 Z-0.0608
N1445 X-0.264 Y-0.2348 Z-0.0594
N1450 X-0.2613 Y-0.2356 Z-0.0582
N1455 X-0.2593 Y-0.236 Z-0.0575
N1460 X-0.2578 Y-0.2363 Z-0.057
N1465 X-0.2563 Y-0.2365 Z-0.0566
N1470 X-0.2544 Y-0.2366 Z-0.0561
N1475 X-0.2523 Y-0.2367 Z-0.0558
N1480 X-0.2497 Y-0.2368 Z-0.0556
N1485 X-0.2476 Y-0.2369 Z-0.0558
N1490 X-0.2449 Y-0.2371 Z-0.0563
N1495 X-0.242 Y-0.2374 Z-0.0572
N1500 X-0.2393 Y-0.2377 Z-0.0582
N1505 X-0.2362 Y-0.2382 Z-0.0597
N1510 X-0.2321 Y-0.2387 Z-0.0616
N1515 X-0.2263 Y-0.2391 Z-0.0642
N1520 X-0.2174 Y-0.2394 Z-0.0679
N1525 X-0.2154 Z-0.0686
N1530 X-0.2045 Z-0.0729
N1535 X-0.1978 Y-0.2392 Z-0.0756
N1540 X-0.1944 Y-0.2389 Z-0.077
N1545 X-0.189 Y-0.2384 Z-0.0794
N1550 X-0.186 Y-0.239 Z-0.0797
N1555 X-0.177 Y-0.2406 Z-0.0808
N1560 X-0.1703 Y-0.2416 Z-0.0819
N1565 X-0.168 Y-0.2386 Z-0.079
N1570 X-0.1655 Y-0.2353 Z-0.0759
N1575 X-0.1629 Y-0.2321 Z-0.073
N1580 X-0.1603 Y-0.2291 Z-0.0703
N1585 X-0.1584 Y-0.2271 Z-0.0686
N1590 X-0.1561 Y-0.2247 Z-0.0666
N1595 X-0.1522 Y-0.2212 Z-0.0639
N1600 X-0.1501 Y-0.2194 Z-0.0627
N1605 X-0.1466 Y-0.2169 Z-0.0612
N1610 X-0.1448 Y-0.2157 Z-0.0606
N1615 X-0.143 Y-0.2146 Z-0.0602
N1620 X-0.14 Y-0.2129 Z-0.0598
N1625 X-0.137 Y-0.2115
N1630 X-0.136 Y-0.211 Z-0.0599
N1635 X-0.134 Y-0.2101 Z-0.0602
N1640 X-0.1323 Y-0.2094 Z-0.0605
N1645 X-0.1306 Y-0.2086 Z-0.0611
N1650 X-0.1285 Y-0.2078 Z-0.0619
N1655 X-0.1247 Y-0.2062 Z-0.0639
N1660 X-0.1212 Y-0.2048 Z-0.0661
N1665 X-0.119 Y-0.2038 Z-0.0676
N1670 X-0.1233 Y-0.2004 Z-0.0623
N1675 X-0.13 Y-0.1952 Z-0.0544
N1680 X-0.1324 Y-0.1934 Z-0.0516
N1685 X-0.1347 Y-0.1919 Z-0.0493
N1690 X-0.1368 Y-0.1908 Z-0.0473
N1695 X-0.1384 Y-0.19 Z-0.046
N1700 X-0.1395 Y-0.1895 Z-0.0452
N1705 X-0.1406 Y-0.1891 Z-0.0445
N1710 X-0.1423 Y-0.1887 Z-0.0435
N1715 X-0.1436 Y-0.1885 Z-0.0431
N1720 X-0.1458 Z-0.0427
N1725 X-0.1476 Z-0.0426
N1730 X-0.152 Z-0.0427
N1735 X-0.1565 Y-0.188 Z-0.0434
N1740 X-0.1611 Y-0.1871 Z-0.0445
N1745 X-0.166 Y-0.1857 Z-0.0461
N1750 X-0.1713 Y-0.1837 Z-0.0483
N1755 X-0.1725 Y-0.1832 Z-0.0488
N1760 X-0.1767 Y-0.181 Z-0.0509
N1765 X-0.1823 Y-0.1778 Z-0.054
N1770 X-0.188 Y-0.1742 Z-0.0575
N1775 X-0.1983 Y-0.1666 Z-0.0645
N1780 X-0.2019 Y-0.1639 Z-0.0672
N1785 X-0.2062 Y-0.1696 Z-0.0617
N1790 X-0.2091 Y-0.1738 Z-0.058
N1795 X-0.211 Y-0.1767 Z-0.0557
N1800 X-0.2127 Y-0.1798 Z-0.0536
N1805 X-0.2139 Y-0.1823 Z-0.0523
N1810 X-0.2147 Y-0.1842 Z-0.0515
N1815 X-0.2157 Y-0.1866 Z-0.0509
N1820 X-0.2147 Y-0.1842 Z-0.0515
N1825 X-0.2139 Y-0.1823 Z-0.0523
N1830 X-0.2127 Y-0.1798 Z-0.0536
N1835 X-0.211 Y-0.1767 Z-0.0557
N1840 X-0.2091 Y-0.1738 Z-0.058
N1845 X-0.2062 Y-0.1696 Z-0.0617
N1850 X-0.2019 Y-0.1639 Z-0.0672
N1855 X-0.2038 Y-0.1625 Z-0.0657
N1860 X-0.2114 Y-0.1567 Z-0.0599
N1865 X-0.219 Y-0.1504 Z-0.0542
N1870 X-0.2252 Y-0.1449 Z-0.0495
N1875 X-0.2272 Y-0.1429 Z-0.0477
N1880 X-0.2288 Y-0.1414 Z-0.0461
N1885 X-0.2298 Y-0.1403 Z-0.0449
N1890 X-0.2302 Y-0.1399 Z-0.0444
N1895 X-0.2298 Y-0.1403 Z-0.0449
N1900 X-0.2288 Y-0.1414 Z-0.0461
N1905 X-0.2272 Y-0.1429 Z-0.0477
N1910 X-0.2252 Y-0.1449 Z-0.0495
N1915 X-0.219 Y-0.1504 Z-0.0542
N1920 X-0.2114 Y-0.1567 Z-0.0599
N1925 X-0.2038 Y-0.1625 Z-0.0657
N1930 X-0.2019 Y-0.1639 Z-0.0672
N1935 X-0.1958 Y-0.155 Z-0.0589
N1940 X-0.1911 Y-0.1477 Z-0.0522
N1945 X-0.1894 Y-0.1451 Z-0.0497
N1950 X-0.188 Y-0.1425 Z-0.0472
N1955 X-0.1878 Y-0.1422 Z-0.0468
N1960 X-0.188 Y-0.1425 Z-0.0472
N1965 X-0.1894 Y-0.1451 Z-0.0497
N1970 X-0.1911 Y-0.1477 Z-0.0522
N1975 X-0.1958 Y-0.155 Z-0.0589
N1980 X-0.2019 Y-0.1639 Z-0.0672
N1985 X-0.1983 Y-0.1666 Z-0.0645
N1990 X-0.188 Y-0.1742 Z-0.0575
N1995 X-0.1823 Y-0.1778 Z-0.054
N2000 X-0.1767 Y-0.181 Z-0.0509
N2005 X-0.1725 Y-0.1832 Z-0.0488
N2010 X-0.1713 Y-0.1837 Z-0.0483
N2015 X-0.166 Y-0.1857 Z-0.0461
N2020 X-0.1611 Y-0.1871 Z-0.0445
N2025 X-0.1565 Y-0.188 Z-0.0434
N2030 X-0.152 Y-0.1885 Z-0.0427
N2035 X-0.1476 Z-0.0426
N2040 X-0.1458 Z-0.0427
N2045 X-0.1436 Z-0.0431
N2050 X-0.1423 Y-0.1887 Z-0.0435
N2055 X-0.1406 Y-0.1891 Z-0.0445
N2060 X-0.1395 Y-0.1895 Z-0.0452
N2065 X-0.1384 Y-0.19 Z-0.046
N2070 X-0.1368 Y-0.1908 Z-0.0473
N2075 X-0.1347 Y-0.1919 Z-0.0493
N2080 X-0.1324 Y-0.1934 Z-0.0516
N2085 X-0.13 Y-0.1952 Z-0.0544
N2090 X-0.1233 Y-0.2004 Z-0.0623
N2095 X-0.119 Y-0.2038 Z-0.0676
N2100 X-0.1187 Y-0.2037 Z-0.0678
N2105 X-0.1185 Y-0.1999 Z-0.0647
N2110 X-0.1183 Y-0.1971 Z-0.0627
N2115 X-0.1181 Y-0.1921 Z-0.0593
N2120 X-0.1177 Y-0.1894 Z-0.0577
N2125 X-0.1173 Y-0.1868 Z-0.0562
N2130 X-0.1167 Y-0.1835 Z-0.0546
N2135 X-0.1159 Y-0.1804 Z-0.0535
N2140 X-0.1156 Y-0.1793 Z-0.0532
N2145 X-0.1148 Y-0.1772 Z-0.0528
N2150 X-0.1138 Y-0.1749 Z-0.0526
N2155 X-0.1126 Y-0.1725 Z-0.0527
N2160 X-0.1117 Y-0.1709 Z-0.0528
N2165 X-0.1108 Y-0.1695 Z-0.0532
N2170 X-0.1085 Y-0.1662 Z-0.0544
N2175 X-0.1072 Y-0.1646 Z-0.0552
N2180 X-0.1047 Y-0.1619 Z-0.0567
N2185 X-0.1026 Y-0.1597 Z-0.0582
N2190 X-0.0983 Y-0.1551 Z-0.0618
N2195 X-0.0942 Y-0.1512 Z-0.0653
N2200 X-0.0888 Y-0.1459 Z-0.0703
N2205 X-0.0858 Y-0.1428 Z-0.0733
N2210 X-0.0796 Y-0.1363 Z-0.0798
N2215 X-0.0734 Y-0.1297 Z-0.0868
N2220 X-0.0696 Y-0.1256 Z-0.0913
N2225 X-0.0651 Y-0.1307 Z-0.0869
N2230 X-0.0622 Y-0.1339 Z-0.0843
N2235 X-0.0586 Y-0.138 Z-0.0812
N2240 X-0.0562 Y-0.1407 Z-0.0793
N2245 X-0.0528 Y-0.1447 Z-0.077
N2250 X-0.0501 Y-0.1481 Z-0.0752
N2255 X-0.0487 Y-0.1498 Z-0.0744
N2260 X-0.0466 Y-0.1528 Z-0.0733
N2265 X-0.0445 Y-0.1558 Z-0.0724
N2270 X-0.0432 Y-0.1577 Z-0.072
N2275 X-0.0421 Y-0.1596 Z-0.0716
N2280 X-0.0403 Y-0.1628 Z-0.0712
N2285 X-0.0392 Y-0.1648
N2290 X-0.0381 Y-0.1668
N2295 X-0.0361 Y-0.1714 Z-0.0715
N2300 X-0.0348 Y-0.1747 Z-0.072
N2305 X-0.034 Y-0.177 Z-0.0726
N2310 X-0.0332 Y-0.1792 Z-0.0732
N2315 X-0.0325 Y-0.1814 Z-0.0739
N2320 X-0.0319 Y-0.1838 Z-0.0747
N2325 X-0.031 Y-0.1871 Z-0.0761
N2330 X-0.0215 Y-0.1836 Z-0.0665
N2335 X-0.0167 Y-0.182 Z-0.0619
N2340 X-0.0123 Y-0.1807 Z-0.0578
N2345 X-0.0087 Y-0.1797 Z-0.0547
N2350 X-0.0046 Y-0.1788 Z-0.0514
N2355 X-0.0026 Y-0.1785 Z-0.0498
N2360 X-0.0007 Y-0.1782 Z-0.0485
N2365 X0.0022 Y-0.1781 Z-0.0469
N2370 X0.0048 Y-0.1782 Z-0.0458
N2375 X0.0061 Y-0.1783 Z-0.0454
N2380 X0.0095 Y-0.1786 Z-0.0447
N2385 X0.0138 Y-0.1788 Z-0.0444
N2390 X0.0182 Y-0.1785 Z-0.0445
N2395 X0.0226 Y-0.1777 Z-0.0452
N2400 X0.0272 Y-0.1764 Z-0.0462
N2405 X0.0321 Y-0.1746 Z-0.0476
N2410 X0.0372 Y-0.1722 Z-0.0494
N2415 X0.0425 Y-0.1693 Z-0.0517
N2420 X0.0483 Y-0.1658 Z-0.0545
N2425 X0.0574 Y-0.1598 Z-0.0594
N2430 X0.0598 Y-0.1582 Z-0.0609
N2435 X0.0637 Y-0.1556 Z-0.0635
N2440 X0.0675 Y-0.1533 Z-0.0662
N2445 X0.0681 Y-0.1493 Z-0.0653
N2450 X0.0686 Y-0.146 Z-0.0649
N2455 X0.0646 Y-0.1409 Z-0.0596
N2460 X0.0614 Y-0.1369 Z-0.0556
N2465 X0.0568 Y-0.1313 Z-0.05
N2470 X0.052 Y-0.1256 Z-0.0447
N2475 X0.0484 Y-0.1216 Z-0.0409
N2480 X0.0476 Y-0.1212 Z-0.04
N2485 X0.0484 Y-0.1216 Z-0.0409
N2490 X0.0479 Y-0.1207 Z-0.04
N2495 X0.0484 Y-0.1216 Z-0.0409
N2500 X0.052 Y-0.1256 Z-0.0447
N2505 X0.0568 Y-0.1313 Z-0.05
N2510 X0.0614 Y-0.1369 Z-0.0556
N2515 X0.0646 Y-0.1409 Z-0.0596
N2520 X0.0686 Y-0.146 Z-0.0649
N2525 X0.0764 Y-0.1377 Z-0.0572
N2530 X0.0845 Y-0.129 Z-0.0498
N2535 X0.0894 Y-0.1236 Z-0.0456
N2540 X0.0937 Y-0.1186 Z-0.0418
N2545 X0.0941 Y-0.1181 Z-0.0414
N2550 X0.0944 Y-0.1178 Z-0.0411
N2555 X0.0954 Y-0.1174 Z-0.04
N2560 X0.0944 Y-0.1178 Z-0.0411
N2565 X0.0949 Y-0.1168 Z-0.04
N2570 X0.0944 Y-0.1178 Z-0.0411
N2575 X0.0941 Y-0.1181 Z-0.0414
N2580 X0.0937 Y-0.1186 Z-0.0418
N2585 X0.0894 Y-0.1236 Z-0.0456
N2590 X0.0845 Y-0.129 Z-0.0498
N2595 X0.0764 Y-0.1377 Z-0.0572
N2600 X0.0686 Y-0.146 Z-0.0649
N2605 X0.0681 Y-0.1493 Z-0.0653
N2610 X0.0675 Y-0.1533 Z-0.0662
N2615 X0.068 Y-0.1539 Z-0.0657
N2620 X0.0704 Y-0.1567 Z-0.0635
N2625 X0.0726 Y-0.1595 Z-0.0615
N2630 X0.0737 Y-0.1611 Z-0.0606
N2635 X0.075 Y-0.163 Z-0.0595
N2640 X0.0769 Y-0.1662 Z-0.0582
N2645 X0.0771 Y-0.1667 Z-0.0581
N2650 X0.079 Y-0.1679 Z-0.0565
N2655 X0.0808 Y-0.1692 Z-0.0551
N2660 X0.0821 Y-0.1703 Z-0.0541
N2665 X0.0837 Y-0.1717 Z-0.0529
N2670 X0.0861 Y-0.174 Z-0.0514
N2675 X0.0871 Y-0.175 Z-0.0509
N2680 X0.0881 Y-0.176 Z-0.0505
N2685 X0.0888 Y-0.1769 Z-0.0503
N2690 X0.0901 Y-0.1786 Z-0.0502
N2695 X0.0912 Y-0.1802 Z-0.0503
N2700 X0.0923 Y-0.1816 Z-0.0506
N2705 X0.0932 Y-0.183 Z-0.0511
N2710 X0.0945 Y-0.185 Z-0.0521
N2715 X0.0934 Y-0.1874 Z-0.0508
N2720 X0.0923 Y-0.1896 Z-0.0497
N2725 X0.0891 Y-0.1954 Z-0.047
N2730 X0.0881 Y-0.1972 Z-0.0461
N2735 X0.0867 Y-0.1996 Z-0.0447
N2740 X0.0856 Y-0.2014 Z-0.0435
N2745 X0.0854 Y-0.2016 Z-0.0433
N2750 X0.085 Y-0.2023 Z-0.0426
N2755 X0.0844 Y-0.2049 Z-0.04
N2760 X0.085 Y-0.2023 Z-0.0426
N2765 X0.0831 Y-0.2042 Z-0.04
N2770 X0.085 Y-0.2023 Z-0.0426
N2775 X0.0854 Y-0.2016 Z-0.0433
N2780 X0.0856 Y-0.2014 Z-0.0435
N2785 X0.0867 Y-0.1996 Z-0.0447
N2790 X0.0881 Y-0.1972 Z-0.0461
N2795 X0.0891 Y-0.1954 Z-0.047
N2800 X0.0923 Y-0.1896 Z-0.0497
N2805 X0.0934 Y-0.1874 Z-0.0508
N2810 X0.0945 Y-0.185 Z-0.0521
N2815 X0.0959 Y-0.1848 Z-0.0513
N2820 X0.0988 Y-0.1843 Z-0.05
N2825 X0.1 Y-0.1841 Z-0.0495
N2830 X0.102 Y-0.1835 Z-0.0489
N2835 X0.1046 Y-0.1826 Z-0.0484
N2840 X0.1055 Y-0.1822
N2845 X0.1064 Y-0.1819
N2850 X0.1079 Y-0.1813 Z-0.0487
N2855 X0.1093 Y-0.1807 Z-0.0491
N2860 X0.1104 Y-0.1803 Z-0.0495
N2865 X0.1122 Y-0.1797 Z-0.0504
N2870 X0.1156 Y-0.1787 Z-0.0526
N2875 X0.1177 Y-0.1781 Z-0.0542
N2880 X0.1208 Y-0.1773 Z-0.0567
N2885 X0.1271 Y-0.176 Z-0.0623
N2890 X0.1277 Y-0.1791 Z-0.0609
N2895 X0.1282 Y-0.1821 Z-0.0599
N2900 X0.1286 Y-0.1853 Z-0.0592
N2905 X0.1289 Y-0.1885 Z-0.0589
N2910 X0.1292 Y-0.1918 Z-0.0591
N2915 X0.1293 Y-0.1935 Z-0.0594
N2920 Y-0.196 Z-0.0599
N2925 X0.1294 Y-0.1994 Z-0.061
N2930 Y-0.2038 Z-0.0627
N2935 X0.1295 Y-0.2104 Z-0.0659
N2940 X0.1294 Y-0.2184 Z-0.0703
N2945 X0.1321 Y-0.2199 Z-0.0689
N2950 X0.1393 Y-0.2237 Z-0.0653
N2955 X0.1437 Y-0.2259 Z-0.0631
N2960 X0.1538 Y-0.2307 Z-0.0582
N2965 X0.1595 Y-0.2333 Z-0.0555
N2970 X0.1676 Y-0.2368 Z-0.0515
N2975 X0.1738 Y-0.2393 Z-0.0485
N2980 X0.1793 Y-0.2414 Z-0.0457
N2985 X0.1824 Y-0.2425 Z-0.0439
N2990 X0.1842 Y-0.2432 Z-0.0426
N2995 X0.1847 Y-0.2433 Z-0.0421
N3000 X0.1868 Y-0.2438 Z-0.04
N3005 X0.1847 Y-0.2433 Z-0.0421
N3010 X0.1868 Y-0.2428 Z-0.04
N3015 X0.1847 Y-0.2433 Z-0.0421
N3020 X0.1842 Y-0.2432 Z-0.0426
N3025 X0.1824 Y-0.2425 Z-0.0439
N3030 X0.1793 Y-0.2414 Z-0.0457
N3035 X0.1738 Y-0.2393 Z-0.0485
N3040 X0.1676 Y-0.2368 Z-0.0515
N3045 X0.1595 Y-0.2333 Z-0.0555
N3050 X0.1538 Y-0.2307 Z-0.0582
N3055 X0.1437 Y-0.2259 Z-0.0631
N3060 X0.1393 Y-0.2237 Z-0.0653
N3065 X0.1321 Y-0.2199 Z-0.0689
N3070 X0.1294 Y-0.2184 Z-0.0703
N3075 X0.1265 Y-0.2198 Z-0.0687
N3080 X0.1176 Y-0.2238 Z-0.064
N3085 X0.1135 Y-0.2258 Z-0.0622
N3090 X0.1095 Y-0.2279 Z-0.0607
N3095 X0.1081 Y-0.2287 Z-0.0602
N3100 X0.1042 Y-0.2309 Z-0.0593
N3105 X0.1014 Y-0.2326 Z-0.0588
N3110 X0.0986 Y-0.2341 Z-0.0585
N3115 X0.0943 Y-0.2362 Z-0.0583
N3120 X0.0927 Y-0.2369
N3125 X0.0887 Y-0.2383 Z-0.0587
N3130 X0.0863 Y-0.2389 Z-0.059
N3135 X0.0838 Y-0.2395 Z-0.0595
N3140 X0.0812 Y-0.2399 Z-0.0602
N3145 X0.0774 Y-0.2402 Z-0.0614
N3150 X0.0749 Y-0.2403 Z-0.0622
N3155 X0.0723 Z-0.0633
N3160 X0.0695 Y-0.2401 Z-0.0645
N3165 X0.0665 Y-0.2397 Z-0.066
N3170 X0.0613 Y-0.2387 Z-0.0688
N3175 X0.0585 Y-0.2381 Z-0.0704
N3180 X0.0547 Y-0.2384 Z-0.0715
N3185 X0.0508 Y-0.2386 Z-0.0727
N3190 X0.0468 Y-0.2385 Z-0.0742
N3195 X0.0427 Y-0.2382 Z-0.076
N3200 X0.0384 Y-0.2376 Z-0.078
N3205 X0.0341 Y-0.2368 Z-0.0802
N3210 X0.0318 Y-0.2385 Z-0.0793
N3215 X0.03 Y-0.2399 Z-0.0786
N3220 X0.0275 Y-0.2416 Z-0.0778
N3225 X0.0222 Y-0.2449 Z-0.0763
N3230 X0.019 Y-0.2466 Z-0.0756
N3235 X0.0144 Y-0.2491 Z-0.0745
N3240 X0.0095 Y-0.2517 Z-0.0737
N3245 X0.0058 Y-0.2538 Z-0.0734
N3250 X0.002 Y-0.2561
N3255 X-0.0017 Y-0.2586 Z-0.0738
N3260 X-0.0043 Y-0.2605 Z-0.0743
N3265 X-0.0068 Y-0.2625 Z-0.075
N3270 X-0.0084 Y-0.2638 Z-0.0755
N3275 X-0.0122 Y-0.2671 Z-0.0772
N3280 X-0.0146 Y-0.2694 Z-0.0785
N3285 X-0.0168 Y-0.2715 Z-0.0798
N3290 X-0.021 Y-0.2758 Z-0.0829
N3295 X-0.0234 Y-0.2784 Z-0.0848
N3300 X-0.0266 Y-0.2821 Z-0.0878
N3305 X-0.0294 Y-0.2852 Z-0.0905
N3310 X-0.0326 Y-0.2889 Z-0.0939
N3315 X-0.037 Y-0.2944 Z-0.099
N3320 X-0.0439 Y-0.3029 Z-0.1077
N3325 X-0.047 Y-0.3068 Z-0.1118
N3330 X-0.0467 Y-0.3097 Z-0.1125
N3335 X-0.0413 Y-0.3132 Z-0.1089
N3340 X-0.0384 Y-0.3151 Z-0.107
N3345 X-0.0354 Y-0.3168 Z-0.1053
N3350 X-0.0324 Y-0.3185 Z-0.1036
N3355 X-0.0295 Y-0.32 Z-0.102
N3360 X-0.0241 Y-0.3227 Z-0.0994
N3365 X-0.0211 Y-0.3241 Z-0.0981
N3370 X-0.0167 Y-0.326 Z-0.0964
N3375 X-0.0138 Y-0.3272 Z-0.0953
N3380 X-0.0053 Y-0.3305 Z-0.0924
N3385 X-0.003 Y-0.3316 Z-0.0914
N3390 X0.0004 Y-0.3334 Z-0.0899
N3395 X0.0051 Y-0.3361 Z-0.0876
N3400 X0.0132 Y-0.3411 Z-0.0832
N3405 X0.0183 Y-0.3445 Z-0.0805
N3410 X0.0296 Y-0.3524 Z-0.0739
N3415 X0.0364 Y-0.3575 Z-0.0699
N3420 X0.0472 Y-0.3658 Z-0.0634
N3425 X0.0589 Y-0.3755 Z-0.0562
N3430 X0.0681 Y-0.3835 Z-0.0504
N3435 X0.0729 Y-0.3878 Z-0.0474
N3440 X0.0846 Y-0.3986 Z-0.04
N3445 X0.0729 Y-0.3878 Z-0.0474
N3450 X0.0681 Y-0.3835 Z-0.0504
N3455 X0.0589 Y-0.3755 Z-0.0562
N3460 X0.0472 Y-0.3658 Z-0.0634
N3465 X0.0364 Y-0.3575 Z-0.0699
N3470 X0.0296 Y-0.3524 Z-0.0739
N3475 X0.0183 Y-0.3445 Z-0.0805
N3480 X0.0132 Y-0.3411 Z-0.0832
N3485 X0.0051 Y-0.3361 Z-0.0876
N3490 X0.0004 Y-0.3334 Z-0.0899
N3495 X-0.003 Y-0.3316 Z-0.0914
N3500 X-0.0053 Y-0.3305 Z-0.0924
N3505 X-0.0138 Y-0.3272 Z-0.0953
N3510 X-0.0167 Y-0.326 Z-0.0964
N3515 X-0.0211 Y-0.3241 Z-0.0981
N3520 X-0.0241 Y-0.3227 Z-0.0994
N3525 X-0.0295 Y-0.32 Z-0.102
N3530 X-0.0324 Y-0.3185 Z-0.1036
N3535 X-0.0354 Y-0.3168 Z-0.1053
N3540 X-0.0384 Y-0.3151 Z-0.107
N3545 X-0.0413 Y-0.3132 Z-0.1089
N3550 X-0.0467 Y-0.3097 Z-0.1125
N3555 X-0.0472 Y-0.3101 Z-0.1121
N3560 X-0.0517 Y-0.3139 Z-0.1085
N3565 X-0.0562 Y-0.3175 Z-0.1051
N3570 X-0.062 Y-0.3217 Z-0.1012
N3575 X-0.0666 Y-0.3248 Z-0.0983
N3580 X-0.0711 Y-0.3277 Z-0.0957
N3585 X-0.0757 Y-0.3304 Z-0.0935
N3590 X-0.0802 Y-0.3328 Z-0.0914
N3595 X-0.085 Y-0.3352 Z-0.0895
N3600 X-0.0883 Y-0.3367 Z-0.0884
N3605 X-0.0937 Y-0.3389 Z-0.0869
N3610 X-0.097 Y-0.3402 Z-0.086
N3615 X-0.1017 Y-0.3417 Z-0.0851
N3620 X-0.1024 Y-0.3425 Z-0.0844
N3625 X-0.1063 Y-0.3463 Z-0.0813
N3630 X-0.1083 Y-0.348 Z-0.0799
N3635 X-0.1102 Y-0.3497 Z-0.0785
N3640 X-0.1157 Y-0.3505 Z-0.0738
N3645 X-0.1227 Y-0.3516 Z-0.068
N3650 X-0.1278 Y-0.3526 Z-0.0642
N3655 X-0.1311 Y-0.3531 Z-0.062
N3660 X-0.1352 Y-0.3537 Z-0.0597
N3665 X-0.1378 Y-0.3542 Z-0.0584
N3670 X-0.1398 Y-0.3547 Z-0.0574
N3675 X-0.1418 Y-0.3552 Z-0.0566
N3680 X-0.1464 Y-0.3567 Z-0.0547
N3685 X-0.1481 Y-0.3574 Z-0.0541
N3690 X-0.1527 Y-0.3595 Z-0.0524
N3695 X-0.1537 Y-0.3601 Z-0.052
N3700 X-0.1621 Y-0.3647 Z-0.0489
N3705 X-0.1667 Y-0.3675 Z-0.0469
N3710 X-0.1687 Y-0.3689 Z-0.046
N3715 X-0.1707 Y-0.37 Z-0.045
N3720 X-0.1723 Y-0.3712 Z-0.044
N3725 X-0.1735 Y-0.3719 Z-0.0432
N3730 X-0.1742 Y-0.3724 Z-0.0426
N3735 X-0.1743 Z-0.0425
N3740 X-0.1746 Y-0.3727 Z-0.0421
N3745 X-0.1766 Y-0.3734 Z-0.04
N3750 X-0.1746 Y-0.3727 Z-0.0421
N3755 X-0.1761 Y-0.3742 Z-0.04
N3760 X-0.1746 Y-0.3727 Z-0.0421
N3765 X-0.1743 Y-0.3724 Z-0.0425
N3770 X-0.1742 Z-0.0426
N3775 X-0.1735 Y-0.3719 Z-0.0432
N3780 X-0.1723 Y-0.3712 Z-0.044
N3785 X-0.1707 Y-0.37 Z-0.045
N3790 X-0.1687 Y-0.3689 Z-0.046
N3795 X-0.1667 Y-0.3675 Z-0.0469
N3800 X-0.1621 Y-0.3647 Z-0.0489
N3805 X-0.1537 Y-0.3601 Z-0.052
N3810 X-0.1527 Y-0.3595 Z-0.0524
N3815 X-0.1481 Y-0.3574 Z-0.0541
N3820 X-0.1464 Y-0.3567 Z-0.0547
N3825 X-0.1418 Y-0.3552 Z-0.0566
N3830 X-0.1398 Y-0.3547 Z-0.0574
N3835 X-0.1378 Y-0.3542 Z-0.0584
N3840 X-0.1352 Y-0.3537 Z-0.0597
N3845 X-0.1311 Y-0.3531 Z-0.062
N3850 X-0.1278 Y-0.3526 Z-0.0642
N3855 X-0.1227 Y-0.3516 Z-0.068
N3860 X-0.1157 Y-0.3505 Z-0.0738
N3865 X-0.1102 Y-0.3497 Z-0.0785
N3870 X-0.1127 Y-0.3554 Z-0.0733
N3875 X-0.1169 Y-0.3639 Z-0.0656
N3880 X-0.119 Y-0.3679 Z-0.0621
N3885 X-0.1215 Y-0.3718 Z-0.0588
N3890 X-0.1231 Y-0.3739 Z-0.057
N3895 X-0.1246 Y-0.3758 Z-0.0554
N3900 X-0.1282 Y-0.3798 Z-0.0522
N3905 X-0.1291 Y-0.3808 Z-0.0515
N3910 X-0.1328 Y-0.3842 Z-0.049
N3915 X-0.138 Y-0.3888 Z-0.0458
N3920 X-0.1428 Y-0.3932 Z-0.0427
N3925 X-0.1465 Y-0.397 Z-0.04
N3930 X-0.1428 Y-0.3932 Z-0.0427
N3935 X-0.138 Y-0.3888 Z-0.0458
N3940 X-0.1328 Y-0.3842 Z-0.049
N3945 X-0.1291 Y-0.3808 Z-0.0515
N3950 X-0.1282 Y-0.3798 Z-0.0522
N3955 X-0.1246 Y-0.3758 Z-0.0554
N3960 X-0.1231 Y-0.3739 Z-0.057
N3965 X-0.1215 Y-0.3718 Z-0.0588
N3970 X-0.119 Y-0.3679 Z-0.0621
N3975 X-0.1169 Y-0.3639 Z-0.0656
N3980 X-0.1127 Y-0.3554 Z-0.0733
N3985 X-0.1102 Y-0.3497 Z-0.0785
N3990 X-0.1083 Y-0.348 Z-0.0799
N3995 X-0.1063 Y-0.3463 Z-0.0813
N4000 X-0.1024 Y-0.3425 Z-0.0844
N4005 X-0.1017 Y-0.3417 Z-0.0851
N4010 X-0.1081 Y-0.3375 Z-0.0784
N4015 X-0.1116 Y-0.3352 Z-0.075
N4020 X-0.1158 Y-0.3325 Z-0.0709
N4025 X-0.1202 Y-0.3299 Z-0.0672
N4030 X-0.1223 Y-0.3288 Z-0.0655
N4035 X-0.1251 Y-0.3272 Z-0.0634
N4040 X-0.1292 Y-0.3251 Z-0.0606
N4045 X-0.1313 Y-0.3241 Z-0.0594
N4050 X-0.1333 Y-0.3232 Z-0.0583
N4055 X-0.1347 Y-0.3227 Z-0.0577
N4060 X-0.1374 Y-0.3216 Z-0.0566
N4065 X-0.1433 Y-0.3194 Z-0.0547
N4070 X-0.149 Y-0.317 Z-0.0531
N4075 X-0.1545 Y-0.3144 Z-0.0517
N4080 X-0.1648 Y-0.3087 Z-0.0493
N4085 X-0.1693 Y-0.306 Z-0.0483
N4090 X-0.1746 Y-0.3027 Z-0.0469
N4095 X-0.1789 Y-0.2998 Z-0.0457
N4100 X-0.1827 Y-0.2974 Z-0.0445
N4105 X-0.1849 Y-0.2959 Z-0.0436
N4110 X-0.1856 Y-0.2954 Z-0.0432
N4115 X-0.1874 Y-0.2942 Z-0.0421
N4120 X-0.1877 Y-0.2939 Z-0.0419
N4125 X-0.188 Y-0.2937 Z-0.0416
N4130 X-0.1881 Z-0.0415
N4135 X-0.1888 Y-0.2923 Z-0.04
N4140 X-0.1881 Y-0.2937 Z-0.0415
N4145 X-0.1894 Y-0.2928 Z-0.04
N4150 X-0.1881 Y-0.2937 Z-0.0415
N4155 X-0.188 Z-0.0416
N4160 X-0.1896 Y-0.2936 Z-0.04
N4165 X-0.188 Y-0.2937 Z-0.0416
N4170 X-0.1877 Y-0.2939 Z-0.0419
N4175 X-0.1874 Y-0.2942 Z-0.0421
N4180 X-0.1856 Y-0.2954 Z-0.0432
N4185 X-0.1849 Y-0.2959 Z-0.0436
N4190 X-0.1827 Y-0.2974 Z-0.0445
N4195 X-0.1789 Y-0.2998 Z-0.0457
N4200 X-0.1746 Y-0.3027 Z-0.0469
N4205 X-0.1693 Y-0.306 Z-0.0483
N4210 X-0.1648 Y-0.3087 Z-0.0493
N4215 X-0.1545 Y-0.3144 Z-0.0517
N4220 X-0.149 Y-0.317 Z-0.0531
N4225 X-0.1433 Y-0.3194 Z-0.0547
N4230 X-0.1374 Y-0.3216 Z-0.0566
N4235 X-0.1347 Y-0.3227 Z-0.0577
N4240 X-0.1333 Y-0.3232 Z-0.0583
N4245 X-0.1313 Y-0.3241 Z-0.0594
N4250 X-0.1292 Y-0.3251 Z-0.0606
N4255 X-0.1251 Y-0.3272 Z-0.0634
N4260 X-0.1223 Y-0.3288 Z-0.0655
N4265 X-0.1202 Y-0.3299 Z-0.0672
N4270 X-0.1158 Y-0.3325 Z-0.0709
N4275 X-0.1116 Y-0.3352 Z-0.075
N4280 X-0.1081 Y-0.3375 Z-0.0784
N4285 X-0.1017 Y-0.3417 Z-0.0851
N4290 X-0.097 Y-0.3402 Z-0.086
N4295 X-0.0937 Y-0.3389 Z-0.0869
N4300 X-0.0883 Y-0.3367 Z-0.0884
N4305 X-0.085 Y-0.3352 Z-0.0895
N4310 X-0.0802 Y-0.3328 Z-0.0914
N4315 X-0.0757 Y-0.3304 Z-0.0935
N4320 X-0.0711 Y-0.3277 Z-0.0957
N4325 X-0.0666 Y-0.3248 Z-0.0983
N4330 X-0.062 Y-0.3217 Z-0.1012
N4335 X-0.0562 Y-0.3175 Z-0.1051
N4340 X-0.0517 Y-0.3139 Z-0.1085
N4345 X-0.0472 Y-0.3101 Z-0.1121
N4350 X-0.0467 Y-0.3097 Z-0.1125
N4355 X-0.047 Y-0.3068 Z-0.1118
N4360 X-0.0533 Y-0.2993 Z-0.1048
N4365 X-0.0571 Y-0.2948 Z-0.1011
N4370 X-0.0589 Y-0.2928 Z-0.0994
N4375 X-0.0609 Y-0.2798 Z-0.0872
N4380 X-0.0621 Y-0.2704 Z-0.0785
N4385 X-0.0635 Y-0.2594 Z-0.0685
N4390 X-0.0645 Y-0.2514 Z-0.0611
N4395 X-0.0649 Y-0.2448 Z-0.0549
N4400 X-0.0645 Y-0.2514 Z-0.0611
N4405 X-0.0635 Y-0.2594 Z-0.0685
N4410 X-0.0621 Y-0.2704 Z-0.0785
N4415 X-0.0609 Y-0.2798 Z-0.0872
N4420 X-0.0589 Y-0.2928 Z-0.0994
N4425 X-0.0643 Y-0.2899 Z-0.0944
N4430 X-0.0693 Y-0.2872 Z-0.0899
N4435 X-0.0764 Y-0.2837 Z-0.0838
N4440 X-0.0801 Y-0.2819 Z-0.0809
N4445 X-0.0833 Y-0.2804 Z-0.0785
N4450 X-0.0865 Y-0.279 Z-0.0762
N4455 X-0.0902 Y-0.2775 Z-0.0738
N4460 X-0.0933 Y-0.2763 Z-0.0721
N4465 X-0.0966 Y-0.275 Z-0.0704
N4470 X-0.098 Y-0.2745 Z-0.0698
N4475 X-0.1019 Y-0.2732 Z-0.0681
N4480 X-0.1044 Y-0.2723 Z-0.0674
N4485 X-0.1076 Y-0.2714 Z-0.0666
N4490 X-0.1119 Y-0.2702 Z-0.0659
N4495 X-0.1138 Y-0.2697 Z-0.0658
N4500 X-0.117 Y-0.2688 Z-0.0657
N4505 X-0.1218 Y-0.2676 Z-0.0659
N4510 X-0.1269 Y-0.2661 Z-0.0665
N4515 X-0.1302 Y-0.265 Z-0.067
N4520 X-0.1319 Y-0.2645 Z-0.0674
N4525 X-0.1376 Y-0.2624 Z-0.0686
N4530 X-0.1435 Y-0.2598 Z-0.0701
N4535 X-0.1455 Y-0.2589 Z-0.0706
N4540 X-0.1498 Y-0.2567 Z-0.072
N4545 X-0.1524 Y-0.2552 Z-0.0728
N4550 X-0.1563 Y-0.2529 Z-0.0744
N4555 X-0.1599 Y-0.2505 Z-0.0759
N4560 X-0.1631 Y-0.2481 Z-0.0775
N4565 X-0.1654 Y-0.2461 Z-0.0788
N4570 X-0.1677 Y-0.244 Z-0.0802
N4575 X-0.1703 Y-0.2416 Z-0.0819
N4580 X-0.1677 Y-0.244 Z-0.0802
N4585 X-0.1654 Y-0.2461 Z-0.0788
N4590 X-0.1631 Y-0.2481 Z-0.0775
N4595 X-0.1599 Y-0.2505 Z-0.0759
N4600 X-0.1563 Y-0.2529 Z-0.0744
N4605 X-0.1524 Y-0.2552 Z-0.0728
N4610 X-0.1498 Y-0.2567 Z-0.072
N4615 X-0.1455 Y-0.2589 Z-0.0706
N4620 X-0.1435 Y-0.2598 Z-0.0701
N4625 X-0.1376 Y-0.2624 Z-0.0686
N4630 X-0.1319 Y-0.2645 Z-0.0674
N4635 X-0.1302 Y-0.265 Z-0.067
N4640 X-0.1269 Y-0.2661 Z-0.0665
N4645 X-0.1218 Y-0.2676 Z-0.0659
N4650 X-0.117 Y-0.2688 Z-0.0657
N4655 X-0.1138 Y-0.2697 Z-0.0658
N4660 X-0.1119 Y-0.2702 Z-0.0659
N4665 X-0.1076 Y-0.2714 Z-0.0666
N4670 X-0.1044 Y-0.2723 Z-0.0674
N4675 X-0.1019 Y-0.2732 Z-0.0681
N4680 X-0.098 Y-0.2745 Z-0.0698
N4685 X-0.0966 Y-0.275 Z-0.0704
N4690 X-0.0933 Y-0.2763 Z-0.0721
N4695 X-0.0902 Y-0.2775 Z-0.0738
N4700 X-0.0865 Y-0.279 Z-0.0762
N4705 X-0.0833 Y-0.2804 Z-0.0785
N4710 X-0.0801 Y-0.2819 Z-0.0809
N4715 X-0.0764 Y-0.2837 Z-0.0838
N4720 X-0.0693 Y-0.2872 Z-0.0899
N4725 X-0.0643 Y-0.2899 Z-0.0944
N4730 X-0.0589 Y-0.2928 Z-0.0994
N4735 X-0.0571 Y-0.2948 Z-0.1011
N4740 X-0.0533 Y-0.2993 Z-0.1048
N4745 X-0.047 Y-0.3068 Z-0.1118
N4750 X-0.0439 Y-0.3029 Z-0.1077
N4755 X-0.037 Y-0.2944 Z-0.099
N4760 X-0.0326 Y-0.2889 Z-0.0939
N4765 X-0.0294 Y-0.2852 Z-0.0905
N4770 X-0.0266 Y-0.2821 Z-0.0878
N4775 X-0.0234 Y-0.2784 Z-0.0848
N4780 X-0.021 Y-0.2758 Z-0.0829
N4785 X-0.0168 Y-0.2715 Z-0.0798
N4790 X-0.0146 Y-0.2694 Z-0.0785
N4795 X-0.0122 Y-0.2671 Z-0.0772
N4800 X-0.0084 Y-0.2638 Z-0.0755
N4805 X-0.0068 Y-0.2625 Z-0.075
N4810 X-0.0043 Y-0.2605 Z-0.0743
N4815 X-0.0017 Y-0.2586 Z-0.0738
N4820 X0.002 Y-0.2561 Z-0.0734
N4825 X0.0058 Y-0.2538
N4830 X0.0095 Y-0.2517 Z-0.0737
N4835 X0.0144 Y-0.2491 Z-0.0745
N4840 X0.019 Y-0.2466 Z-0.0756
N4845 X0.0222 Y-0.2449 Z-0.0763
N4850 X0.0275 Y-0.2416 Z-0.0778
N4855 X0.03 Y-0.2399 Z-0.0786
N4860 X0.0318 Y-0.2385 Z-0.0793
N4865 X0.0341 Y-0.2368 Z-0.0802
N4870 X0.0336 Y-0.2331 Z-0.078
N4875 X0.0332 Y-0.2296 Z-0.0762
N4880 X0.0328 Y-0.2268 Z-0.0748
N4885 X0.0302 Y-0.2233 Z-0.0712
N4890 X0.0276 Y-0.2202 Z-0.068
N4895 X0.025 Y-0.2172 Z-0.0651
N4900 X0.0227 Y-0.2148 Z-0.0628
N4905 X0.0205 Y-0.2125 Z-0.0606
N4910 X0.0182 Y-0.2104 Z-0.0588
N4915 X0.0161 Y-0.2086 Z-0.0573
N4920 X0.0139 Y-0.207 Z-0.0561
N4925 X0.0124 Y-0.2059 Z-0.0554
N4930 X0.0106 Y-0.2047 Z-0.0547
N4935 X0.0087 Y-0.2037 Z-0.0542
N4940 X0.0072 Y-0.2029 Z-0.054
N4945 X0.0052 Y-0.202 Z-0.0539
N4950 X0.0022 Y-0.2009 Z-0.0541
N4955 X0.0009 Y-0.2005 Z-0.0543
N4960 X-0.0024 Y-0.1995 Z-0.0554
N4965 X-0.0055 Y-0.1987 Z-0.0567
N4970 X-0.0072 Y-0.1982 Z-0.0576
N4975 X-0.011 Y-0.1972 Z-0.0599
N4980 X-0.0139 Y-0.1962 Z-0.0619
N4985 X-0.0196 Y-0.1939 Z-0.0662
N4990 X-0.0227 Y-0.1924 Z-0.0687
N4995 X-0.0258 Y-0.1907 Z-0.0714
N5000 X-0.031 Y-0.1875 Z-0.0761
N5005 Y-0.1871
N5010 Y-0.1875
N5015 X-0.0339 Y-0.1905 Z-0.074
N5020 X-0.036 Y-0.1923 Z-0.0726
N5025 X-0.0371 Y-0.193 Z-0.072
N5030 X-0.039 Y-0.1943 Z-0.0707
N5035 X-0.0407 Y-0.1951 Z-0.0695
N5040 X-0.0437 Y-0.1963 Z-0.0675
N5045 X-0.0475 Y-0.1974 Z-0.0652
N5050 X-0.0511 Y-0.1983 Z-0.0631
N5055 X-0.0554 Y-0.1992 Z-0.061
N5060 X-0.0582 Y-0.1997 Z-0.0599
N5065 X-0.0591 Y-0.1999 Z-0.0596
N5070 X-0.0618 Y-0.2003 Z-0.0588
N5075 X-0.0655 Y-0.201 Z-0.058
N5080 X-0.0688 Y-0.2016 Z-0.0576
N5085 X-0.0738 Y-0.2026
N5090 X-0.0767 Y-0.2033 Z-0.0578
N5095 X-0.0808 Y-0.2043 Z-0.0585
N5100 X-0.0849 Y-0.2054 Z-0.0594
N5105 X-0.0926 Y-0.2073 Z-0.0618
N5110 X-0.0959 Y-0.208 Z-0.0629
N5115 X-0.1013 Y-0.2088 Z-0.0648
N5120 X-0.1034 Y-0.2089 Z-0.0655
N5125 X-0.1044 Z-0.0658
N5130 X-0.1064 Y-0.2087 Z-0.0662
N5135 X-0.1073 Y-0.2085 Z-0.0664
N5140 X-0.1096 Y-0.2079 Z-0.0666
N5145 X-0.1123 Y-0.2069 Z-0.0669
N5150 X-0.1135 Y-0.2063 Z-0.067
N5155 X-0.1166 Y-0.2048 Z-0.0674
N5160 X-0.1187 Y-0.2037 Z-0.0678
N5165 X-0.1166 Y-0.2048 Z-0.0674
N5170 X-0.1135 Y-0.2063 Z-0.067
N5175 X-0.1123 Y-0.2069 Z-0.0669
N5180 X-0.1096 Y-0.2079 Z-0.0666
N5185 X-0.1073 Y-0.2085 Z-0.0664
N5190 X-0.1064 Y-0.2087 Z-0.0662
N5195 X-0.1044 Y-0.2089 Z-0.0658
N5200 X-0.1034 Z-0.0655
N5205 X-0.1013 Y-0.2088 Z-0.0648
N5210 X-0.0959 Y-0.208 Z-0.0629
N5215 X-0.0926 Y-0.2073 Z-0.0618
N5220 X-0.0849 Y-0.2054 Z-0.0594
N5225 X-0.0808 Y-0.2043 Z-0.0585
N5230 X-0.0767 Y-0.2033 Z-0.0578
N5235 X-0.0738 Y-0.2026 Z-0.0576
N5240 X-0.0688 Y-0.2016
N5245 X-0.0655 Y-0.201 Z-0.058
N5250 X-0.0618 Y-0.2003 Z-0.0588
N5255 X-0.0591 Y-0.1999 Z-0.0596
N5260 X-0.0582 Y-0.1997 Z-0.0599
N5265 X-0.0554 Y-0.1992 Z-0.061
N5270 X-0.0511 Y-0.1983 Z-0.0631
N5275 X-0.0475 Y-0.1974 Z-0.0652
N5280 X-0.0437 Y-0.1963 Z-0.0675
N5285 X-0.0407 Y-0.1951 Z-0.0695
N5290 X-0.039 Y-0.1943 Z-0.0707
N5295 X-0.0371 Y-0.193 Z-0.072
N5300 X-0.036 Y-0.1923 Z-0.0726
N5305 X-0.0339 Y-0.1905 Z-0.074
N5310 X-0.031 Y-0.1875 Z-0.0761
N5315 X-0.0258 Y-0.1907 Z-0.0714
N5320 X-0.0227 Y-0.1924 Z-0.0687
N5325 X-0.0196 Y-0.1939 Z-0.0662
N5330 X-0.0139 Y-0.1962 Z-0.0619
N5335 X-0.011 Y-0.1972 Z-0.0599
N5340 X-0.0072 Y-0.1982 Z-0.0576
N5345 X-0.0055 Y-0.1987 Z-0.0567
N5350 X-0.0024 Y-0.1995 Z-0.0554
N5355 X0.0009 Y-0.2005 Z-0.0543
N5360 X0.0022 Y-0.2009 Z-0.0541
N5365 X0.0052 Y-0.202 Z-0.0539
N5370 X0.0072 Y-0.2029 Z-0.054
N5375 X0.0087 Y-0.2037 Z-0.0542
N5380 X0.0106 Y-0.2047 Z-0.0547
N5385 X0.0124 Y-0.2059 Z-0.0554
N5390 X0.0139 Y-0.207 Z-0.0561
N5395 X0.0161 Y-0.2086 Z-0.0573
N5400 X0.0182 Y-0.2104 Z-0.0588
N5405 X0.0205 Y-0.2125 Z-0.0606
N5410 X0.0227 Y-0.2148 Z-0.0628
N5415 X0.025 Y-0.2172 Z-0.0651
N5420 X0.0276 Y-0.2202 Z-0.068
N5425 X0.0302 Y-0.2233 Z-0.0712
N5430 X0.0328 Y-0.2268 Z-0.0748
N5435 X0.0359 Y-0.2209 Z-0.0692
N5440 X0.0384 Y-0.2166 Z-0.0652
N5445 X0.0409 Y-0.2126 Z-0.0616
N5450 X0.0422 Y-0.2107 Z-0.0599
N5455 X0.0438 Y-0.2085 Z-0.0581
N5460 X0.0454 Y-0.2065 Z-0.0565
N5465 X0.048 Y-0.2038 Z-0.0544
N5470 X0.0494 Y-0.2024 Z-0.0534
N5475 X0.0525 Y-0.1998 Z-0.0518
N5480 X0.0535 Y-0.199 Z-0.0513
N5485 X0.058 Y-0.1955 Z-0.0495
N5490 X0.0585 Y-0.195 Z-0.0493
N5495 X0.0637 Y-0.1908 Z-0.0476
N5500 X0.0665 Y-0.1883 Z-0.0469
N5505 X0.0691 Y-0.1857 Z-0.0465
N5510 X0.0708 Y-0.1835 Z-0.0468
N5515 X0.0713 Y-0.1829 Z-0.0469
N5520 X0.072 Y-0.1818 Z-0.0472
N5525 X0.0726 Y-0.1805 Z-0.0476
N5530 X0.0735 Y-0.1784 Z-0.0487
N5535 X0.0744 Y-0.1759 Z-0.0503
N5540 X0.0751 Y-0.1738 Z-0.0519
N5545 X0.0763 Y-0.1696 Z-0.0554
N5550 X0.0771 Y-0.1667 Z-0.0581
N5555 X0.0763 Y-0.1696 Z-0.0554
N5560 X0.0751 Y-0.1738 Z-0.0519
N5565 X0.0744 Y-0.1759 Z-0.0503
N5570 X0.0735 Y-0.1784 Z-0.0487
N5575 X0.0726 Y-0.1805 Z-0.0476
N5580 X0.072 Y-0.1818 Z-0.0472
N5585 X0.0713 Y-0.1829 Z-0.0469
N5590 X0.0708 Y-0.1835 Z-0.0468
N5595 X0.0691 Y-0.1857 Z-0.0465
N5600 X0.0665 Y-0.1883 Z-0.0469
N5605 X0.0637 Y-0.1908 Z-0.0476
N5610 X0.0585 Y-0.195 Z-0.0493
N5615 X0.058 Y-0.1955 Z-0.0495
N5620 X0.0535 Y-0.199 Z-0.0513
N5625 X0.0525 Y-0.1998 Z-0.0518
N5630 X0.0494 Y-0.2024 Z-0.0534
N5635 X0.048 Y-0.2038 Z-0.0544
N5640 X0.0454 Y-0.2065 Z-0.0565
N5645 X0.0438 Y-0.2085 Z-0.0581
N5650 X0.0422 Y-0.2107 Z-0.0599
N5655 X0.0409 Y-0.2126 Z-0.0616
N5660 X0.0384 Y-0.2166 Z-0.0652
N5665 X0.0359 Y-0.2209 Z-0.0692
N5670 X0.0328 Y-0.2268 Z-0.0748
N5675 X0.0332 Y-0.2296 Z-0.0762
N5680 X0.0336 Y-0.2331 Z-0.078
N5685 X0.0341 Y-0.2368 Z-0.0802
N5690 X0.0384 Y-0.2376 Z-0.078
N5695 X0.0427 Y-0.2382 Z-0.076
N5700 X0.0468 Y-0.2385 Z-0.0742
N5705 X0.0508 Y-0.2386 Z-0.0727
N5710 X0.0547 Y-0.2384 Z-0.0715
N5715 X0.0585 Y-0.2381 Z-0.0704
N5720 X0.062 Y-0.2315 Z-0.0636
N5725 X0.0646 Y-0.2266 Z-0.0589
N5730 X0.0663 Y-0.2232 Z-0.0559
N5735 X0.0677 Y-0.22 Z-0.0534
N5740 X0.0687 Y-0.2178 Z-0.0518
N5745 X0.0698 Y-0.2149 Z-0.0501
N5750 X0.0722 Y-0.2081 Z-0.046
N5755 X0.0728 Y-0.2064 Z-0.0449
N5760 X0.0732 Y-0.2056 Z-0.0442
N5765 X0.0733 Y-0.2052 Z-0.0439
N5770 X0.0735 Y-0.2047 Z-0.0434
N5775 X0.0757 Y-0.202 Z-0.04
N5780 X0.0735 Y-0.2047 Z-0.0434
N5785 X0.0743 Y-0.2013 Z-0.04
N5790 X0.0735 Y-0.2047 Z-0.0434
N5795 X0.0733 Y-0.2052 Z-0.0439
N5800 X0.0732 Y-0.2056 Z-0.0442
N5805 X0.0728 Y-0.2064 Z-0.0449
N5810 X0.0722 Y-0.2081 Z-0.046
N5815 X0.0698 Y-0.2149 Z-0.0501
N5820 X0.0687 Y-0.2178 Z-0.0518
N5825 X0.0677 Y-0.22 Z-0.0534
N5830 X0.0663 Y-0.2232 Z-0.0559
N5835 X0.0646 Y-0.2266 Z-0.0589
N5840 X0.062 Y-0.2315 Z-0.0636
N5845 X0.0585 Y-0.2381 Z-0.0704
N5850 X0.0613 Y-0.2387 Z-0.0688
N5855 X0.0665 Y-0.2397 Z-0.066
N5860 X0.0695 Y-0.2401 Z-0.0645
N5865 X0.0723 Y-0.2403 Z-0.0633
N5870 X0.0749 Z-0.0622
N5875 X0.0774 Y-0.2402 Z-0.0614
N5880 X0.0812 Y-0.2399 Z-0.0602
N5885 X0.0838 Y-0.2395 Z-0.0595
N5890 X0.0863 Y-0.2389 Z-0.059
N5895 X0.0887 Y-0.2383 Z-0.0587
N5900 X0.0927 Y-0.2369 Z-0.0583
N5905 X0.0943 Y-0.2362
N5910 X0.0986 Y-0.2341 Z-0.0585
N5915 X0.1014 Y-0.2326 Z-0.0588
N5920 X0.1042 Y-0.2309 Z-0.0593
N5925 X0.1081 Y-0.2287 Z-0.0602
N5930 X0.1095 Y-0.2279 Z-0.0607
N5935 X0.1135 Y-0.2258 Z-0.0622
N5940 X0.1176 Y-0.2238 Z-0.064
N5945 X0.1265 Y-0.2198 Z-0.0687
N5950 X0.1294 Y-0.2184 Z-0.0703
N5955 X0.1295 Y-0.2104 Z-0.0659
N5960 X0.1294 Y-0.2038 Z-0.0627
N5965 Y-0.1994 Z-0.061
N5970 X0.1293 Y-0.196 Z-0.0599
N5975 Y-0.1935 Z-0.0594
N5980 X0.1292 Y-0.1918 Z-0.0591
N5985 X0.1289 Y-0.1885 Z-0.0589
N5990 X0.1286 Y-0.1853 Z-0.0592
N5995 X0.1282 Y-0.1821 Z-0.0599
N6000 X0.1277 Y-0.1791 Z-0.0609
N6005 X0.1271 Y-0.176 Z-0.0623
N6010 X0.1281 Y-0.1733 Z-0.0624
N6015 X0.1298 Y-0.168 Z-0.0633
N6020 X0.131 Y-0.1649 Z-0.0641
N6025 X0.1327 Y-0.1603 Z-0.0656
N6030 X0.1337 Y-0.1578 Z-0.0665
N6035 X0.1389 Y-0.1555 Z-0.0645
N6040 X0.141 Y-0.1545 Z-0.0638
N6045 X0.1472 Y-0.1515 Z-0.0618
N6050 X0.1547 Y-0.1479 Z-0.0597
N6055 X0.1638 Y-0.1435 Z-0.0572
N6060 X0.1777 Y-0.1368 Z-0.0529
N6065 X0.1837 Y-0.1339 Z-0.0507
N6070 X0.1887 Y-0.1314 Z-0.0484
N6075 X0.1927 Y-0.1295 Z-0.0461
N6080 X0.1943 Y-0.1288 Z-0.0449
N6085 X0.195 Y-0.1284 Z-0.0442
N6090 X0.1952 Y-0.1283 Z-0.0439
N6095 X0.195 Y-0.1284 Z-0.0442
N6100 X0.1943 Y-0.1288 Z-0.0449
N6105 X0.1927 Y-0.1295 Z-0.0461
N6110 X0.1887 Y-0.1314 Z-0.0484
N6115 X0.1837 Y-0.1339 Z-0.0507
N6120 X0.1777 Y-0.1368 Z-0.0529
N6125 X0.1638 Y-0.1435 Z-0.0572
N6130 X0.1547 Y-0.1479 Z-0.0597
N6135 X0.1472 Y-0.1515 Z-0.0618
N6140 X0.141 Y-0.1545 Z-0.0638
N6145 X0.1389 Y-0.1555 Z-0.0645
N6150 X0.1337 Y-0.1578 Z-0.0665
N6155 X0.1319 Y-0.1561 Z-0.0647
N6160 X0.1281 Y-0.1521 Z-0.0611
N6165 X0.1255 Y-0.149 Z-0.0586
N6170 X0.1237 Y-0.1464 Z-0.0569
N6175 X0.1219 Y-0.1437 Z-0.0553
N6180 X0.1212 Y-0.1424 Z-0.0546
N6185 X0.1205 Y-0.141 Z-0.0541
N6190 X0.12 Y-0.1397 Z-0.0536
N6195 X0.1195 Y-0.1383 Z-0.0532
N6200 X0.1191 Y-0.137 Z-0.0528
N6205 X0.1187 Y-0.1356 Z-0.0526
N6210 X0.1182 Y-0.1331 Z-0.0522
N6215 X0.1181 Y-0.1318 Z-0.0521
N6220 X0.1179 Y-0.1293
N6225 X0.118 Y-0.1274 Z-0.0523
N6230 X0.1183 Y-0.1255 Z-0.0526
N6235 X0.1189 Y-0.1225 Z-0.0533
N6240 X0.1202 Y-0.1185 Z-0.0547
N6245 X0.1207 Y-0.1171 Z-0.0552
N6250 X0.1226 Y-0.1124 Z-0.0574
N6255 X0.1246 Y-0.1068 Z-0.0605
N6260 X0.1256 Y-0.1038 Z-0.0623
N6265 X0.1266 Y-0.1001 Z-0.0647
N6270 X0.1279 Y-0.0937 Z-0.0692
N6275 X0.1287 Y-0.0889 Z-0.0726
N6280 X0.1291 Y-0.086 Z-0.0747
N6285 X0.1242 Y-0.0881 Z-0.0698
N6290 X0.1167 Y-0.0912 Z-0.0626
N6295 X0.1135 Y-0.0925 Z-0.0597
N6300 X0.1115 Y-0.0933 Z-0.058
N6305 X0.1076 Y-0.0949 Z-0.0549
N6310 X0.1043 Y-0.0962 Z-0.0527
N6315 X0.1021 Y-0.0969 Z-0.0515
N6320 X0.1001 Y-0.0975 Z-0.0506
N6325 X0.0979 Y-0.0981 Z-0.0499
N6330 X0.0968 Y-0.0984 Z-0.0497
N6335 X0.0945 Y-0.0988 Z-0.0493
N6340 X0.0917 Y-0.0992 Z-0.0491
N6345 X0.0892 Y-0.0994
N6350 X0.0849 Y-0.0997 Z-0.0492
N6355 X0.0806 Y-0.0998 Z-0.0496
N6360 X0.0692 Y-0.0996 Z-0.0509
N6365 X0.0582 Y-0.0992 Z-0.0523
N6370 X0.038 Y-0.0985 Z-0.0548
N6375 X0.0304 Y-0.0984 Z-0.0554
N6380 X0.0208 Y-0.0987 Z-0.0559
N6385 X0.0137 Y-0.0992
N6390 X0.0073 Y-0.0999 Z-0.0556
N6395 X0.0009 Y-0.1007 Z-0.0554
N6400 X-0.0028 Y-0.1011
N6405 X-0.006 Y-0.1013 Z-0.0555
N6410 X-0.0085 Z-0.0559
N6415 X-0.0112 Z-0.0564
N6420 X-0.0141 Y-0.101 Z-0.0573
N6425 X-0.0179 Y-0.1006 Z-0.0588
N6430 X-0.0199 Y-0.1003 Z-0.0597
N6435 X-0.0245 Y-0.0995 Z-0.0624
N6440 X-0.0301 Y-0.0983 Z-0.0662
N6445 X-0.0363 Y-0.0971 Z-0.0711
N6450 X-0.0409 Y-0.096 Z-0.075
N6455 X-0.0451 Y-0.0951 Z-0.0786
N6460 X-0.0526 Y-0.0933 Z-0.0855
N6465 X-0.063 Y-0.091 Z-0.0953
N6470 X-0.0724 Y-0.0889 Z-0.1045
N6475 X-0.0721 Y-0.0942 Z-0.1015
N6480 X-0.0716 Y-0.1016 Z-0.098
N6485 X-0.0711 Y-0.1072 Z-0.0957
N6490 X-0.0709 Y-0.1096 Z-0.0949
N6495 X-0.0707 Y-0.1131 Z-0.0938
N6500 X-0.0704 Y-0.1159 Z-0.093
N6505 X-0.0702 Y-0.1189 Z-0.0923
N6510 X-0.0697 Y-0.1241 Z-0.0915
N6515 X-0.0696 Y-0.1256 Z-0.0913
N6520 X-0.0697 Y-0.1241 Z-0.0915
N6525 X-0.0702 Y-0.1189 Z-0.0923
N6530 X-0.0704 Y-0.1159 Z-0.093
N6535 X-0.0707 Y-0.1131 Z-0.0938
N6540 X-0.0709 Y-0.1096 Z-0.0949
N6545 X-0.0711 Y-0.1072 Z-0.0957
N6550 X-0.0716 Y-0.1016 Z-0.098
N6555 X-0.0721 Y-0.0942 Z-0.1015
N6560 X-0.0724 Y-0.0889 Z-0.1045
N6565 X-0.0737 Y-0.0859 Z-0.1055
N6570 X-0.0757 Y-0.0808 Z-0.1076
N6575 X-0.0877 Y-0.0869 Z-0.0949
N6580 X-0.0982 Y-0.0923 Z-0.0841
N6585 X-0.1046 Y-0.0956 Z-0.0778
N6590 X-0.1087 Y-0.0977 Z-0.0739
N6595 X-0.115 Y-0.1007 Z-0.0683
N6600 X-0.1176 Y-0.102 Z-0.0662
N6605 X-0.1227 Y-0.1042 Z-0.0625
N6610 X-0.1262 Y-0.1056 Z-0.0603
N6615 X-0.1284 Y-0.1065 Z-0.0591
N6620 X-0.1303 Y-0.1072 Z-0.0582
N6625 X-0.1322 Y-0.1078 Z-0.0574
N6630 X-0.1352 Y-0.1085 Z-0.0565
N6635 X-0.1379 Y-0.1091 Z-0.0558
N6640 X-0.1406 Y-0.1096 Z-0.0554
N6645 X-0.1423 Y-0.1098 Z-0.0552
N6650 X-0.145 Y-0.11 Z-0.0551
N6655 X-0.1479 Y-0.1101
N6660 X-0.1512 Y-0.1102
N6665 X-0.1623 Z-0.0558
N6670 X-0.166 Z-0.0561
N6675 X-0.1751 Y-0.1104 Z-0.0564
N6680 X-0.1834 Y-0.1108 Z-0.0565
N6685 X-0.1926 Y-0.1116 Z-0.0561
N6690 X-0.2021 Y-0.1129 Z-0.0553
N6695 X-0.2127 Y-0.1145 Z-0.0538
N6700 X-0.2256 Y-0.1165 Z-0.0517
N6705 X-0.231 Y-0.1172 Z-0.0508
N6710 X-0.2344 Y-0.1176 Z-0.0503
N6715 X-0.2383 Y-0.1179 Z-0.0499
N6720 X-0.2408 Y-0.1181 Z-0.0498
N6725 X-0.2436 Y-0.1182 Z-0.0501
N6730 X-0.246 Y-0.1185 Z-0.0506
N6735 X-0.2477 Y-0.1186 Z-0.0512
N6740 X-0.2505 Y-0.1189 Z-0.0525
N6745 X-0.2537 Y-0.1192 Z-0.0544
N6750 X-0.257 Y-0.1195 Z-0.0567
N6755 X-0.2537 Y-0.1192 Z-0.0544
N6760 X-0.2505 Y-0.1189 Z-0.0525
N6765 X-0.2477 Y-0.1186 Z-0.0512
N6770 X-0.246 Y-0.1185 Z-0.0506
N6775 X-0.2436 Y-0.1182 Z-0.0501
N6780 X-0.2408 Y-0.1181 Z-0.0498
N6785 X-0.2383 Y-0.1179 Z-0.0499
N6790 X-0.2344 Y-0.1176 Z-0.0503
N6795 X-0.231 Y-0.1172 Z-0.0508
N6800 X-0.2256 Y-0.1165 Z-0.0517
N6805 X-0.2127 Y-0.1145 Z-0.0538
N6810 X-0.2021 Y-0.1129 Z-0.0553
N6815 X-0.1926 Y-0.1116 Z-0.0561
N6820 X-0.1834 Y-0.1108 Z-0.0565
N6825 X-0.1751 Y-0.1104 Z-0.0564
N6830 X-0.166 Y-0.1102 Z-0.0561
N6835 X-0.1623 Z-0.0558
N6840 X-0.1512 Z-0.0551
N6845 X-0.1479 Y-0.1101
N6850 X-0.145 Y-0.11
N6855 X-0.1423 Y-0.1098 Z-0.0552
N6860 X-0.1406 Y-0.1096 Z-0.0554
N6865 X-0.1379 Y-0.1091 Z-0.0558
N6870 X-0.1352 Y-0.1085 Z-0.0565
N6875 X-0.1322 Y-0.1078 Z-0.0574
N6880 X-0.1303 Y-0.1072 Z-0.0582
N6885 X-0.1284 Y-0.1065 Z-0.0591
N6890 X-0.1262 Y-0.1056 Z-0.0603
N6895 X-0.1227 Y-0.1042 Z-0.0625
N6900 X-0.1176 Y-0.102 Z-0.0662
N6905 X-0.115 Y-0.1007 Z-0.0683
N6910 X-0.1087 Y-0.0977 Z-0.0739
N6915 X-0.1046 Y-0.0956 Z-0.0778
N6920 X-0.0982 Y-0.0923 Z-0.0841
N6925 X-0.0877 Y-0.0869 Z-0.0949
N6930 X-0.0757 Y-0.0808 Z-0.1076
N6935 X-0.0761 Y-0.0758 Z-0.1083
N6940 X-0.0763 Y-0.0713 Z-0.1092
N6945 X-0.0767 Y-0.0669 Z-0.1103
N6950 X-0.0769 Y-0.0633 Z-0.1115
N6955 X-0.078 Y-0.0626 Z-0.1108
N6960 X-0.0838 Y-0.0591 Z-0.1072
N6965 X-0.0873 Y-0.0571 Z-0.1051
N6970 X-0.0908 Y-0.0553 Z-0.1032
N6975 X-0.0948 Y-0.0533 Z-0.1012
N6980 X-0.101 Y-0.0506 Z-0.0983
N6985 X-0.1052 Y-0.0489 Z-0.0965
N6990 X-0.1082 Y-0.0477 Z-0.0954
N6995 X-0.1126 Y-0.0462 Z-0.0938
N7000 X-0.1186 Y-0.0444 Z-0.0919
N7005 X-0.1239 Y-0.043 Z-0.0905
N7010 X-0.1265 Y-0.0424 Z-0.0899
N7015 X-0.132 Y-0.0412 Z-0.0888
N7020 X-0.1362 Y-0.0404 Z-0.0881
N7025 X-0.1422 Y-0.0395 Z-0.0873
N7030 X-0.1479 Y-0.0387 Z-0.0868
N7035 X-0.1548 Y-0.0378 Z-0.0865
N7040 X-0.1585 Y-0.0374
N7045 X-0.1669 Y-0.0365 Z-0.0869
N7050 X-0.169 Y-0.0363 Z-0.087
N7055 X-0.1738 Y-0.0358 Z-0.0876
N7060 X-0.1778 Y-0.0354 Z-0.0883
N7065 X-0.1838 Y-0.0345 Z-0.0896
N7070 X-0.188 Y-0.0339 Z-0.0908
N7075 X-0.1925 Y-0.0332 Z-0.0922
N7080 X-0.1971 Y-0.0323 Z-0.0939
N7085 X-0.2012 Y-0.0314 Z-0.0956
N7090 X-0.2063 Y-0.0303 Z-0.098
N7095 X-0.2115 Y-0.0289 Z-0.1006
N7100 X-0.2166 Y-0.0273 Z-0.1034
N7105 X-0.2214 Y-0.0257 Z-0.1061
N7110 X-0.2278 Y-0.0231 Z-0.11
N7115 X-0.2282 Z-0.1101
N7120 X-0.2469 Y-0.0215 Z-0.1149
N7125 X-0.2569 Y-0.0209 Z-0.1177
N7130 X-0.2606 Y-0.0208 Z-0.1189
N7135 X-0.2569 Y-0.0209 Z-0.1177
N7140 X-0.2469 Y-0.0215 Z-0.1149
N7145 X-0.2282 Y-0.0231 Z-0.1101
N7150 X-0.2278 Z-0.11
N7155 X-0.2252 Y-0.0198 Z-0.106
N7160 X-0.2199 Y-0.0134 Z-0.0983
N7165 X-0.2148 Y-0.0076 Z-0.0912
N7170 X-0.2068 Y0.001 Z-0.0805
N7175 X-0.2019 Y0.0059 Z-0.0744
N7180 X-0.1988 Y0.0088 Z-0.0707
N7185 X-0.1949 Y0.0122 Z-0.0663
N7190 X-0.1917 Y0.0148 Z-0.0629
N7195 X-0.1885 Y0.017 Z-0.0599
N7200 X-0.1839 Y0.0198 Z-0.0559
N7205 X-0.1805 Y0.0218 Z-0.0532
N7210 X-0.1784 Y0.0228 Z-0.0517
N7215 X-0.1751 Y0.024 Z-0.0497
N7220 X-0.1718 Y0.0251 Z-0.0479
N7225 X-0.1708 Y0.0254 Z-0.0474
N7230 X-0.1623 Y0.0274 Z-0.0438
N7235 X-0.1584 Y0.0282 Z-0.0423
N7240 X-0.1563 Y0.0286 Z-0.0413
N7245 X-0.1561 Y0.0287 Z-0.0411
N7250 X-0.1555 Y0.0297 Z-0.04
N7255 X-0.1561 Y0.0287 Z-0.0411
N7260 X-0.1547 Y0.0289 Z-0.04
N7265 X-0.1561 Y0.0287 Z-0.0411
N7270 X-0.1563 Y0.0286 Z-0.0413
N7275 X-0.1584 Y0.0282 Z-0.0423
N7280 X-0.1623 Y0.0274 Z-0.0438
N7285 X-0.1708 Y0.0254 Z-0.0474
N7290 X-0.1718 Y0.0251 Z-0.0479
N7295 X-0.1751 Y0.024 Z-0.0497
N7300 X-0.1784 Y0.0228 Z-0.0517
N7305 X-0.1805 Y0.0218 Z-0.0532
N7310 X-0.1839 Y0.0198 Z-0.0559
N7315 X-0.1885 Y0.017 Z-0.0599
N7320 X-0.1917 Y0.0148 Z-0.0629
N7325 X-0.1949 Y0.0122 Z-0.0663
N7330 X-0.1988 Y0.0088 Z-0.0707
N7335 X-0.2019 Y0.0059 Z-0.0744
N7340 X-0.2068 Y0.001 Z-0.0805
N7345 X-0.2148 Y-0.0076 Z-0.0912
N7350 X-0.2199 Y-0.0134 Z-0.0983
N7355 X-0.2252 Y-0.0198 Z-0.106
N7360 X-0.2278 Y-0.0231 Z-0.11
N7365 X-0.2214 Y-0.0257 Z-0.1061
N7370 X-0.2166 Y-0.0273 Z-0.1034
N7375 X-0.2115 Y-0.0289 Z-0.1006
N7380 X-0.2063 Y-0.0303 Z-0.098
N7385 X-0.2012 Y-0.0314 Z-0.0956
N7390 X-0.1971 Y-0.0323 Z-0.0939
N7395 X-0.1925 Y-0.0332 Z-0.0922
N7400 X-0.188 Y-0.0339 Z-0.0908
N7405 X-0.1838 Y-0.0345 Z-0.0896
N7410 X-0.1778 Y-0.0354 Z-0.0883
N7415 X-0.1738 Y-0.0358 Z-0.0876
N7420 X-0.169 Y-0.0363 Z-0.087
N7425 X-0.1669 Y-0.0365 Z-0.0869
N7430 X-0.1585 Y-0.0374 Z-0.0865
N7435 X-0.1548 Y-0.0378
N7440 X-0.1479 Y-0.0387 Z-0.0868
N7445 X-0.1422 Y-0.0395 Z-0.0873
N7450 X-0.1362 Y-0.0404 Z-0.0881
N7455 X-0.132 Y-0.0412 Z-0.0888
N7460 X-0.1265 Y-0.0424 Z-0.0899
N7465 X-0.1239 Y-0.043 Z-0.0905
N7470 X-0.1186 Y-0.0444 Z-0.0919
N7475 X-0.1126 Y-0.0462 Z-0.0938
N7480 X-0.1082 Y-0.0477 Z-0.0954
N7485 X-0.1052 Y-0.0489 Z-0.0965
N7490 X-0.101 Y-0.0506 Z-0.0983
N7495 X-0.0948 Y-0.0533 Z-0.1012
N7500 X-0.0908 Y-0.0553 Z-0.1032
N7505 X-0.0873 Y-0.0571 Z-0.1051
N7510 X-0.0838 Y-0.0591 Z-0.1072
N7515 X-0.078 Y-0.0626 Z-0.1108
N7520 X-0.0769 Y-0.0633 Z-0.1115
N7525 X-0.0703 Y-0.0582 Z-0.1067
N7530 X-0.065 Y-0.0544 Z-0.1034
N7535 X-0.0619 Y-0.0522 Z-0.1016
N7540 X-0.0595 Y-0.0505 Z-0.1003
N7545 X-0.0556 Y-0.0478 Z-0.0984
N7550 X-0.0507 Y-0.0444 Z-0.0965
N7555 X-0.0471 Y-0.0419 Z-0.0954
N7560 X-0.0451 Y-0.0406 Z-0.0949
N7565 X-0.0406 Y-0.0376 Z-0.0941
N7570 X-0.0379 Y-0.0358 Z-0.0937
N7575 X-0.0334 Y-0.0328 Z-0.0936
N7580 X-0.0298 Y-0.0303 Z-0.0938
N7585 X-0.0263 Y-0.0281 Z-0.0942
N7590 X-0.0242 Y-0.0267 Z-0.0945
N7595 X-0.0214 Y-0.0248 Z-0.0952
N7600 X-0.0166 Y-0.0216 Z-0.0967
N7605 X-0.0144 Y-0.02 Z-0.0974
N7610 X-0.0122 Y-0.0185 Z-0.0983
N7615 X-0.0087 Y-0.0159 Z-0.0999
N7620 X-0.0042 Y-0.0127 Z-0.1023
N7625 X-0.0052 Y-0.0072 Z-0.0991
N7630 X-0.0065 Y-0.0009 Z-0.0958
N7635 X-0.0077 Y0.0038 Z-0.0934
N7640 X-0.0086 Y0.0066 Z-0.092
N7645 X-0.0095 Y0.0094 Z-0.0907
N7650 X-0.0109 Y0.0128 Z-0.089
N7655 X-0.0123 Y0.0162 Z-0.0874
N7660 X-0.0143 Y0.0202 Z-0.0856
N7665 X-0.0164 Y0.0239 Z-0.0841
N7670 X-0.0186 Y0.0273 Z-0.0827
N7675 X-0.0202 Y0.0298 Z-0.0818
N7680 X-0.022 Y0.0322 Z-0.081
N7685 X-0.0243 Y0.035 Z-0.08
N7690 X-0.0267 Y0.0377 Z-0.0793
N7695 X-0.0291 Y0.0403 Z-0.0787
N7700 X-0.032 Y0.0429 Z-0.0781
N7705 X-0.0351 Y0.0454 Z-0.0778
N7710 X-0.0379 Y0.0476 Z-0.0776
N7715 X-0.0419 Y0.0503
N7720 X-0.045 Y0.0521 Z-0.0778
N7725 X-0.0471 Y0.0533 Z-0.078
N7730 X-0.0495 Y0.0516 Z-0.0754
N7735 X-0.0533 Y0.0489 Z-0.0716
N7740 X-0.0564 Y0.0467 Z-0.0687
N7745 X-0.06 Y0.0443 Z-0.0655
N7750 X-0.0644 Y0.0416 Z-0.0621
N7755 X-0.0675 Y0.04 Z-0.06
N7760 X-0.0699 Y0.0389 Z-0.0586
N7765 X-0.0727 Y0.0377 Z-0.0572
N7770 X-0.0752 Y0.0369 Z-0.0561
N7775 X-0.0776 Y0.0363 Z-0.0553
N7780 X-0.0799 Y0.0359 Z-0.0548
N7785 X-0.0837 Y0.0355 Z-0.0541
N7790 X-0.0869 Y0.0351 Z-0.0536
N7795 X-0.0891 Y0.0348 Z-0.0532
N7800 X-0.0977 Y0.0335 Z-0.0516
N7805 X-0.1024 Y0.0327 Z-0.0507
N7810 X-0.1117 Y0.0308 Z-0.0488
N7815 X-0.1254 Y0.0275 Z-0.0461
N7820 X-0.1317 Y0.0259 Z-0.0448
N7825 X-0.1374 Y0.0242 Z-0.0436
N7830 X-0.1443 Y0.0221 Z-0.0421
N7835 X-0.1479 Y0.0209 Z-0.0411
N7840 X-0.1495 Y0.0204 Z-0.0405
N7845 X-0.1496 Y0.0203 Z-0.0404
N7850 X-0.15 Y0.0205 Z-0.04
N7855 X-0.1496 Y0.0203 Z-0.0404
N7860 X-0.15 Y0.0201 Z-0.04
N7865 X-0.1496 Y0.0203 Z-0.0404
N7870 X-0.1495 Y0.0204 Z-0.0405
N7875 X-0.1479 Y0.0209 Z-0.0411
N7880 X-0.1443 Y0.0221 Z-0.0421
N7885 X-0.1374 Y0.0242 Z-0.0436
N7890 X-0.1317 Y0.0259 Z-0.0448
N7895 X-0.1254 Y0.0275 Z-0.0461
N7900 X-0.1117 Y0.0308 Z-0.0488
N7905 X-0.1024 Y0.0327 Z-0.0507
N7910 X-0.0977 Y0.0335 Z-0.0516
N7915 X-0.0891 Y0.0348 Z-0.0532
N7920 X-0.0869 Y0.0351 Z-0.0536
N7925 X-0.0837 Y0.0355 Z-0.0541
N7930 X-0.0799 Y0.0359 Z-0.0548
N7935 X-0.0776 Y0.0363 Z-0.0553
N7940 X-0.0752 Y0.0369 Z-0.0561
N7945 X-0.0727 Y0.0377 Z-0.0572
N7950 X-0.0699 Y0.0389 Z-0.0586
N7955 X-0.0675 Y0.04 Z-0.06
N7960 X-0.0644 Y0.0416 Z-0.0621
N7965 X-0.06 Y0.0443 Z-0.0655
N7970 X-0.0564 Y0.0467 Z-0.0687
N7975 X-0.0533 Y0.0489 Z-0.0716
N7980 X-0.0495 Y0.0516 Z-0.0754
N7985 X-0.0471 Y0.0533 Z-0.078
N7990 X-0.0477 Y0.0543 Z-0.0775
N7995 X-0.0502 Y0.058 Z-0.0757
N8000 X-0.0515 Y0.0597 Z-0.0749
N8005 X-0.0528 Y0.0614 Z-0.0742
N8010 X-0.0542 Y0.063 Z-0.0735
N8015 X-0.0555 Y0.0646 Z-0.0729
N8020 X-0.057 Y0.0661 Z-0.0723
N8025 X-0.0584 Y0.0676 Z-0.0719
N8030 X-0.06 Y0.069 Z-0.0715
N8035 X-0.0615 Y0.0704 Z-0.0712
N8040 X-0.0631 Y0.0717 Z-0.0709
N8045 X-0.0653 Y0.0734 Z-0.0707
N8050 X-0.0671 Y0.0746 Z-0.0704
N8055 X-0.0691 Y0.0759
N8060 X-0.0701 Y0.0767 Z-0.0702
N8065 X-0.0726 Y0.079 Z-0.0695
N8070 X-0.0763 Y0.0826 Z-0.0682
N8075 X-0.0824 Y0.0891 Z-0.0656
N8080 X-0.086 Y0.093 Z-0.0638
N8085 X-0.0912 Y0.099 Z-0.0608
N8090 X-0.0963 Y0.105 Z-0.0576
N8095 X-0.1011 Y0.111 Z-0.054
N8100 X-0.105 Y0.1159 Z-0.0506
N8105 X-0.1065 Y0.1178 Z-0.049
N8110 X-0.1083 Y0.1201 Z-0.0468
N8115 X-0.109 Y0.121 Z-0.0458
N8120 X-0.1083 Y0.1201 Z-0.0468
N8125 X-0.1065 Y0.1178 Z-0.049
N8130 X-0.105 Y0.1159 Z-0.0506
N8135 X-0.1011 Y0.111 Z-0.054
N8140 X-0.0963 Y0.105 Z-0.0576
N8145 X-0.0912 Y0.099 Z-0.0608
N8150 X-0.086 Y0.093 Z-0.0638
N8155 X-0.0824 Y0.0891 Z-0.0656
N8160 X-0.0763 Y0.0826 Z-0.0682
N8165 X-0.0726 Y0.079 Z-0.0695
N8170 X-0.0701 Y0.0767 Z-0.0702
N8175 X-0.0691 Y0.0759 Z-0.0704
N8180 X-0.0671 Y0.0746
N8185 X-0.0653 Y0.0734 Z-0.0707
N8190 X-0.0631 Y0.0717 Z-0.0709
N8195 X-0.0615 Y0.0704 Z-0.0712
N8200 X-0.06 Y0.069 Z-0.0715
N8205 X-0.0584 Y0.0676 Z-0.0719
N8210 X-0.057 Y0.0661 Z-0.0723
N8215 X-0.0555 Y0.0646 Z-0.0729
N8220 X-0.0542 Y0.063 Z-0.0735
N8225 X-0.0528 Y0.0614 Z-0.0742
N8230 X-0.0515 Y0.0597 Z-0.0749
N8235 X-0.0502 Y0.058 Z-0.0757
N8240 X-0.0477 Y0.0543 Z-0.0775
N8245 X-0.0471 Y0.0533 Z-0.078
N8250 X-0.045 Y0.0521 Z-0.0778
N8255 X-0.0419 Y0.0503 Z-0.0776
N8260 X-0.0379 Y0.0476
N8265 X-0.0351 Y0.0454 Z-0.0778
N8270 X-0.032 Y0.0429 Z-0.0781
N8275 X-0.0291 Y0.0403 Z-0.0787
N8280 X-0.0267 Y0.0377 Z-0.0793
N8285 X-0.0243 Y0.035 Z-0.08
N8290 X-0.022 Y0.0322 Z-0.081
N8295 X-0.0202 Y0.0298 Z-0.0818
N8300 X-0.0186 Y0.0273 Z-0.0827
N8305 X-0.0164 Y0.0239 Z-0.0841
N8310 X-0.0143 Y0.0202 Z-0.0856
N8315 X-0.0123 Y0.0162 Z-0.0874
N8320 X-0.0109 Y0.0128 Z-0.089
N8325 X-0.0095 Y0.0094 Z-0.0907
N8330 X-0.0086 Y0.0066 Z-0.092
N8335 X-0.0077 Y0.0038 Z-0.0934
N8340 X-0.0065 Y-0.0009 Z-0.0958
N8345 X-0.0052 Y-0.0072 Z-0.0991
N8350 X-0.0042 Y-0.0127 Z-0.1023
N8355 X-0.0007 Y-0.0137 Z-0.1007
N8360 X0.005 Y-0.0153 Z-0.0983
N8365 X0.0087 Y-0.0164 Z-0.0969
N8370 X0.0129 Y-0.0175 Z-0.0956
N8375 X0.0171 Y-0.0185 Z-0.0944
N8380 X0.023 Y-0.0197 Z-0.0931
N8385 X0.0276 Y-0.0204 Z-0.0924
N8390 X0.0325 Y-0.0211 Z-0.0919
N8395 X0.0365 Y-0.0216 Z-0.0917
N8400 X0.0422 Y-0.022 Z-0.0916
N8405 X0.0478 Y-0.0222 Z-0.0919
N8410 X0.0506 Z-0.0923
N8415 X0.0535 Y-0.0221 Z-0.0926
N8420 X0.0589 Y-0.0218 Z-0.0936
N8425 X0.0623 Y-0.0216 Z-0.0942
N8430 X0.0657 Y-0.0212 Z-0.095
N8435 X0.0714 Y-0.0205 Z-0.0966
N8440 X0.0793 Y-0.0193 Z-0.0992
N8445 X0.082 Y-0.0188 Z-0.1001
N8450 X0.0835 Y-0.0126 Z-0.0956
N8455 X0.0848 Y-0.0081 Z-0.0924
N8460 X0.0863 Y-0.0034 Z-0.0892
N8465 X0.088 Y0.0015 Z-0.0859
N8470 X0.0901 Y0.0065 Z-0.0828
N8475 X0.0918 Y0.0101 Z-0.0806
N8480 X0.0936 Y0.0136 Z-0.0786
N8485 X0.0955 Y0.0169 Z-0.0767
N8490 X0.098 Y0.0206 Z-0.0747
N8495 X0.1003 Y0.0239 Z-0.0731
N8500 X0.1028 Y0.027 Z-0.0717
N8505 X0.1057 Y0.0302 Z-0.0703
N8510 X0.1083 Y0.0329 Z-0.0693
N8515 X0.1122 Y0.0365 Z-0.0681
N8520 X0.1155 Y0.0394 Z-0.0671
N8525 X0.1235 Y0.0462 Z-0.0651
N8530 X0.1286 Y0.0503 Z-0.0638
N8535 X0.1347 Y0.0551 Z-0.0624
N8540 X0.1447 Y0.0626 Z-0.0601
N8545 X0.1599 Y0.0737 Z-0.0571
N8550 X0.1667 Y0.0785 Z-0.0556
N8555 X0.1773 Y0.0857 Z-0.0535
N8560 X0.1873 Y0.0922 Z-0.0516
N8565 X0.197 Y0.0983 Z-0.0499
N8570 X0.2083 Y0.1048 Z-0.0481
N8575 X0.2122 Y0.107 Z-0.0475
N8580 X0.2187 Y0.1104 Z-0.0466
N8585 X0.2273 Y0.1145 Z-0.0455
N8590 X0.2346 Y0.1177 Z-0.0445
N8595 X0.2403 Y0.12 Z-0.0436
N8600 X0.2425 Y0.1208 Z-0.0431
N8605 X0.2442 Y0.1215 Z-0.0426
N8610 X0.2455 Y0.1221 Z-0.0421
N8615 X0.2462 Y0.1224 Z-0.0417
N8620 X0.2466 Z-0.0414
N8625 X0.248 Y0.122 Z-0.04
N8630 X0.2466 Y0.1224 Z-0.0414
N8635 X0.248 Y0.1232 Z-0.04
N8640 X0.2466 Y0.1224 Z-0.0414
N8645 X0.2462 Z-0.0417
N8650 X0.2468 Y0.124 Z-0.04
N8655 X0.2462 Y0.1224 Z-0.0417
N8660 X0.2455 Y0.1221 Z-0.0421
N8665 X0.2442 Y0.1215 Z-0.0426
N8670 X0.2425 Y0.1208 Z-0.0431
N8675 X0.2403 Y0.12 Z-0.0436
N8680 X0.2346 Y0.1177 Z-0.0445
N8685 X0.2273 Y0.1145 Z-0.0455
N8690 X0.2187 Y0.1104 Z-0.0466
N8695 X0.2122 Y0.107 Z-0.0475
N8700 X0.2083 Y0.1048 Z-0.0481
N8705 X0.197 Y0.0983 Z-0.0499
N8710 X0.1873 Y0.0922 Z-0.0516
N8715 X0.1773 Y0.0857 Z-0.0535
N8720 X0.1667 Y0.0785 Z-0.0556
N8725 X0.1599 Y0.0737 Z-0.0571
N8730 X0.1447 Y0.0626 Z-0.0601
N8735 X0.1347 Y0.0551 Z-0.0624
N8740 X0.1286 Y0.0503 Z-0.0638
N8745 X0.1235 Y0.0462 Z-0.0651
N8750 X0.1155 Y0.0394 Z-0.0671
N8755 X0.1122 Y0.0365 Z-0.0681
N8760 X0.1083 Y0.0329 Z-0.0693
N8765 X0.1057 Y0.0302 Z-0.0703
N8770 X0.1028 Y0.027 Z-0.0717
N8775 X0.1003 Y0.0239 Z-0.0731
N8780 X0.098 Y0.0206 Z-0.0747
N8785 X0.0955 Y0.0169 Z-0.0767
N8790 X0.0936 Y0.0136 Z-0.0786
N8795 X0.0918 Y0.0101 Z-0.0806
N8800 X0.0901 Y0.0065 Z-0.0828
N8805 X0.088 Y0.0015 Z-0.0859
N8810 X0.0863 Y-0.0034 Z-0.0892
N8815 X0.0848 Y-0.0081 Z-0.0924
N8820 X0.0835 Y-0.0126 Z-0.0956
N8825 X0.082 Y-0.0188 Z-0.1001
N8830 X0.0859 Y-0.0214 Z-0.0985
N8835 X0.0922 Y-0.0252 Z-0.0962
N8840 X0.0977 Y-0.0283 Z-0.0947
N8845 X0.1009 Y-0.0299 Z-0.0941
N8850 X0.1033 Y-0.0312 Z-0.0937
N8855 X0.1062 Y-0.0326 Z-0.0934
N8860 X0.1107 Y-0.0347 Z-0.0932
N8865 X0.1141 Y-0.0362 Z-0.0933
N8870 X0.1186 Y-0.0381 Z-0.0938
N8875 X0.122 Y-0.0395 Z-0.0944
N8880 X0.1276 Y-0.0418 Z-0.0958
N8885 X0.1322 Y-0.0437 Z-0.0974
N8890 X0.1347 Y-0.0447 Z-0.0985
N8895 X0.1391 Y-0.0464 Z-0.1005
N8900 X0.1386 Y-0.0508 Z-0.0973
N8905 X0.1379 Y-0.0564 Z-0.0934
N8910 X0.137 Y-0.0614 Z-0.09
N8915 X0.136 Y-0.0662 Z-0.0867
N8920 X0.1348 Y-0.0708 Z-0.0838
N8925 X0.1329 Y-0.0767 Z-0.0801
N8930 X0.1317 Y-0.08 Z-0.0781
N8935 X0.1304 Y-0.0831 Z-0.0763
N8940 X0.1291 Y-0.086 Z-0.0747
N8945 X0.1304 Y-0.0831 Z-0.0763
N8950 X0.1317 Y-0.08 Z-0.0781
N8955 X0.1329 Y-0.0767 Z-0.0801
N8960 X0.1348 Y-0.0708 Z-0.0838
N8965 X0.136 Y-0.0662 Z-0.0867
N8970 X0.137 Y-0.0614 Z-0.09
N8975 X0.1379 Y-0.0564 Z-0.0934
N8980 X0.1386 Y-0.0508 Z-0.0973
N8985 X0.1391 Y-0.0464 Z-0.1005
N8990 X0.1395 Y-0.0462 Z-0.1004
N8995 X0.1432 Y-0.0446 Z-0.0993
N9000 X0.1468 Y-0.043 Z-0.0983
N9005 X0.1504 Y-0.041 Z-0.0974
N9010 X0.1561 Y-0.0376 Z-0.0961
N9015 X0.1584 Y-0.0361 Z-0.0956
N9020 X0.1617 Y-0.0338 Z-0.095
N9025 X0.1664 Y-0.0302 Z-0.0942
N9030 X0.1705 Y-0.0269 Z-0.0936
N9035 X0.1747 Y-0.0232 Z-0.093
N9040 X0.1818 Y-0.0166 Z-0.092
N9045 X0.1886 Y-0.0097 Z-0.0909
N9050 X0.1951 Y-0.0028 Z-0.0899
N9055 X0.2013 Y0.0044 Z-0.0888
N9060 X0.2054 Y0.0094 Z-0.0881
N9065 X0.2113 Y0.0167 Z-0.0869
N9070 X0.2233 Y0.0332 Z-0.0842
N9075 X0.2287 Y0.0411 Z-0.0826
N9080 X0.2341 Y0.049 Z-0.0808
N9085 X0.2393 Y0.0568 Z-0.0787
N9090 X0.2458 Y0.0668 Z-0.0757
N9095 X0.249 Y0.0716 Z-0.074
N9100 X0.254 Y0.0794 Z-0.071
N9105 X0.2575 Y0.0849 Z-0.0685
N9110 X0.2609 Y0.0902 Z-0.0657
N9115 X0.264 Y0.0951 Z-0.0628
N9120 X0.2665 Y0.0991 Z-0.06
N9125 X0.2685 Y0.1024 Z-0.0574
N9130 X0.27 Y0.1047 Z-0.0552
N9135 X0.2707 Y0.1059 Z-0.0539
N9140 X0.2708 Y0.106 Z-0.0538
N9145 G0 Z0.6

N9150 M5
N9155 M9
N9160 G53 G0 Z0.
N9165 G53 G0 X-29. Y-8.
N9170 G0 B0. C0.
N9175 M30

%
