%
O07003
(Using high feed G1 F650. instead of G0.)
(Machine)
(  vendor: Haas Automation)
(  model: HAAS UMC-750)
(T1 D=0.25 CR=0. TAPER=90deg - ZMIN=-0.04 - spot drill)
N10 G90 G94 G17
N15 G20
N20 G53 G0 Z0.

(Trace4)
N25 T1 M6
N30 S5000 M3
N35 G17 G90
N40 G54
N45 G53 G0 X-29. Y-8.
N50 G0 B0. C0.
N55 M8
N60 G1 X0.1693 Y-0.5973 F650.
N65 G0 G43 Z0.6 H1
N70 G0 Z0.16
N75 G1 Z-0.01 F13.123
N80 X0.1639 Y-0.5819 F39.37
N85 X0.1585 Y-0.567
N90 X0.1532 Y-0.5528
N95 X0.1479 Y-0.5391
N100 X0.1427 Y-0.526
N105 X0.1376 Y-0.5135
N110 X0.1325 Y-0.5016
N115 X0.1274 Y-0.4902
N120 X0.1224 Y-0.4794
N125 X0.1175 Y-0.4692
N130 X0.1127 Y-0.4595
N135 X0.1079 Y-0.4505
N140 X0.1031 Y-0.4419
N145 X0.0985 Y-0.4339
N150 X0.094 Y-0.4265
N155 X0.0895 Y-0.4196
N160 X0.0851 Y-0.4132
N165 X0.0809 Y-0.4073
N170 X0.0768 Y-0.4019
N175 X0.0728 Y-0.397
N180 X0.069 Y-0.3926
N185 X0.0653 Y-0.3887
N190 X0.0618 Y-0.3851
N195 X0.0585 Y-0.382
N200 X0.0555 Y-0.3792
N205 X0.0526 Y-0.3769
N210 X0.0501 Y-0.3748
N215 X0.0478 Y-0.3731
N220 X0.0459 Y-0.3716
N225 X0.0443 Y-0.3704
N230 X0.0431 Y-0.3694
N235 X0.0424 Y-0.3685
N240 X0.0421 Y-0.3678
N245 X0.0422 Y-0.3671
N250 X0.043 Y-0.3665
N255 X0.0443 Y-0.3659
N260 X0.0462 Y-0.3652
N265 X0.0488 Y-0.3643
N270 X0.0521 Y-0.3633
N275 X0.0561 Y-0.3621
N280 X0.0608 Y-0.3607
N285 X0.0662 Y-0.359
N290 X0.0723 Y-0.3571
N295 X0.0789 Y-0.3549
N300 X0.0862 Y-0.3525
N305 X0.0939 Y-0.3498
N310 X0.1104 Y-0.3439
N315 X0.1454 Y-0.3304
N320 X0.1624 Y-0.3235
N325 X0.1783 Y-0.3168
N330 X0.1856 Y-0.3137
N335 X0.1924 Y-0.3107
N340 X0.1986 Y-0.308
N345 X0.2093 Y-0.3033
N350 X0.2138 Y-0.3013
N355 X0.2176 Y-0.2997
N360 X0.2209 Y-0.2983
N365 X0.2238 Y-0.2973
N370 X0.2262 Y-0.2965
N375 X0.2306 Y-0.2957
N380 X0.2352
N385 X0.2379 Y-0.2959
N390 X0.2447 Y-0.2965
N395 X0.2489 Y-0.2969
N400 X0.2539 Y-0.2972
N405 X0.2595 Y-0.2975
N410 X0.2658 Y-0.2977
N415 X0.2726 Y-0.2979
N420 X0.2876 Y-0.298
N425 X0.32 Y-0.2974
N430 X0.3356 Y-0.2966
N435 X0.3428 Y-0.2961
N440 X0.3494 Y-0.2955
N445 X0.3554 Y-0.2948
N450 X0.3606 Y-0.2939
N455 X0.365 Y-0.293
N460 X0.3685 Y-0.2919
N465 X0.3711 Y-0.2907
N470 X0.3728 Y-0.2892
N475 X0.3737 Y-0.2876
N480 Y-0.2856
N485 X0.3729 Y-0.2834
N490 X0.3715 Y-0.2808
N495 X0.3694 Y-0.278
N500 X0.3668 Y-0.2747
N505 X0.3637 Y-0.2711
N510 X0.3603 Y-0.2672
N515 X0.3525 Y-0.2583
N520 X0.3441 Y-0.2485
N525 X0.3353 Y-0.2379
N530 X0.3267 Y-0.2271
N535 X0.3185 Y-0.2164
N540 X0.3111 Y-0.2061
N545 X0.3048 Y-0.1965
N550 X0.3022 Y-0.192
N555 X0.2999 Y-0.1878
N560 X0.2981 Y-0.1839
N565 X0.2967 Y-0.1801
N570 X0.2958 Y-0.1766
N575 X0.2954 Y-0.1732
N580 X0.2956 Y-0.1698
N585 X0.2964 Y-0.1665
N590 X0.2977 Y-0.1632
N595 X0.2997 Y-0.1598
N600 X0.3023 Y-0.1562
N605 X0.3055 Y-0.1525
N610 X0.3093 Y-0.1485
N615 X0.3136 Y-0.1444
N620 X0.3183 Y-0.1401
N625 X0.3235 Y-0.1356
N630 X0.3347 Y-0.126
N635 X0.3468 Y-0.1159
N640 X0.3589 Y-0.1055
N645 X0.3705 Y-0.095
N650 X0.3758 Y-0.0899
N655 X0.3808 Y-0.0848
N660 X0.3852 Y-0.08
N665 X0.3892 Y-0.0753
N670 X0.3925 Y-0.0709
N675 X0.3951 Y-0.0668
N680 X0.397 Y-0.063
N685 X0.3981 Y-0.0595
N690 X0.3984 Y-0.0564
N695 X0.3979 Y-0.0537
N700 X0.3966 Y-0.0515
N705 X0.3944 Y-0.0496
N710 X0.3914 Y-0.0481
N715 X0.3876 Y-0.047
N720 X0.3831 Y-0.0464
N725 X0.3779 Y-0.0461
N730 X0.3721
N735 X0.3658 Y-0.0465
N740 X0.359 Y-0.0471
N745 X0.3518 Y-0.048
N750 X0.3367 Y-0.0504
N755 X0.3213 Y-0.0532
N760 X0.2925 Y-0.059
N765 X0.2862 Y-0.0601
N770 X0.2805 Y-0.0611
N775 X0.2754 Y-0.0619
N780 X0.271 Y-0.0625
N785 X0.2673 Y-0.0628
N790 X0.2643 Y-0.0627
N795 X0.2621 Y-0.0624
N800 X0.2607 Y-0.0618
N805 X0.26 Y-0.0609
N810 X0.2601 Y-0.0597
N815 X0.2609 Y-0.0581
N820 X0.2623 Y-0.0563
N825 X0.2643 Y-0.0543
N830 X0.2669 Y-0.0519
N835 X0.27 Y-0.0494
N840 X0.2736 Y-0.0466
N845 X0.2776 Y-0.0436
N850 X0.282 Y-0.0404
N855 X0.2919 Y-0.0333
N860 X0.303 Y-0.0255
N865 X0.315 Y-0.0168
N870 X0.3279 Y-0.0074
N875 X0.3413 Y0.0028
N880 X0.3551 Y0.0137
N885 X0.3693 Y0.0255
N890 X0.3836 Y0.038
N895 X0.3979 Y0.0514
N900 X0.4122 Y0.0656
N905 X0.4263 Y0.0806
N910 X0.4403 Y0.0964
N915 X0.4539 Y0.1131
N920 X0.4671 Y0.1305
N925 X0.48 Y0.1486
N930 X0.4923 Y0.1674
N935 X0.504 Y0.1868
N940 X0.5151 Y0.2066
N945 X0.5255 Y0.2267
N950 X0.535 Y0.2469
N955 X0.5437 Y0.2671
N960 X0.5514 Y0.2871
N965 X0.5581 Y0.3066
N970 X0.5637 Y0.3255
N975 X0.5681 Y0.3436
N980 X0.5698 Y0.3522
N985 X0.5712 Y0.3606
N990 X0.5723 Y0.3687
N995 X0.5731 Y0.3764
N1000 X0.5735 Y0.3838
N1005 X0.5736 Y0.3907
N1010 X0.5734 Y0.3973
N1015 X0.5728 Y0.4035
N1020 X0.5719 Y0.4092
N1025 X0.5706 Y0.4145
N1030 X0.569 Y0.4193
N1035 X0.5671 Y0.4236
N1040 X0.5648 Y0.4275
N1045 X0.5622 Y0.4308
N1050 X0.5592 Y0.4336
N1055 X0.5559 Y0.4359
N1060 X0.5524 Y0.4377
N1065 X0.5485 Y0.439
N1070 X0.5443 Y0.4398
N1075 X0.5398 Y0.44
N1080 X0.5351 Y0.4397
N1085 X0.5301 Y0.439
N1090 X0.5249 Y0.4378
N1095 X0.5195 Y0.4361
N1100 X0.5139 Y0.4339
N1105 X0.5081 Y0.4314
N1110 X0.5021 Y0.4284
N1115 X0.4961 Y0.4251
N1120 X0.4836 Y0.4173
N1125 X0.4708 Y0.4084
N1130 X0.458 Y0.3985
N1135 X0.4452 Y0.3879
N1140 X0.4326 Y0.3767
N1145 X0.4203 Y0.3653
N1150 X0.4084 Y0.3537
N1155 X0.3969 Y0.3422
N1160 X0.3859 Y0.3308
N1165 X0.3753 Y0.3198
N1170 X0.3549 Y0.2987
N1175 X0.3343 Y0.2784
N1180 X0.3231 Y0.2683
N1185 X0.311 Y0.2579
N1190 X0.2983 Y0.2477
N1195 X0.292 Y0.2429
N1200 X0.286 Y0.2385
N1205 X0.2803 Y0.2346
N1210 X0.2752 Y0.2314
N1215 X0.2709 Y0.229
N1220 X0.2675 Y0.2277
N1225 X0.2663 Y0.2275
N1230 X0.2653
N1235 X0.2646 Y0.2279
N1240 X0.2643 Y0.2286
N1245 Y0.2296
N1250 X0.2647 Y0.231
N1255 X0.2654 Y0.2326
N1260 X0.2664 Y0.2346
N1265 X0.2678 Y0.2369
N1270 X0.2695 Y0.2396
N1275 X0.2715 Y0.2425
N1280 X0.2738 Y0.2456
N1285 X0.2793 Y0.2527
N1290 X0.2858 Y0.2606
N1295 X0.293 Y0.2692
N1300 X0.301 Y0.2782
N1305 X0.3183 Y0.2971
N1310 X0.3365 Y0.3161
N1315 X0.3548 Y0.3344
N1320 X0.3639 Y0.3432
N1325 X0.3727 Y0.3515
N1330 X0.3813 Y0.3594
N1335 X0.3897 Y0.3668
N1340 X0.3977 Y0.3738
N1345 X0.4054 Y0.3803
N1350 X0.4128 Y0.3864
N1355 X0.4199 Y0.3919
N1360 X0.4266 Y0.397
N1365 X0.4329 Y0.4017
N1370 X0.4389 Y0.4059
N1375 X0.4446 Y0.4098
N1380 X0.4499 Y0.4133
N1385 X0.455 Y0.4164
N1390 X0.4642 Y0.4219
N1395 X0.4793 Y0.4306
N1400 X0.4853 Y0.4343
N1405 X0.4902 Y0.4377
N1410 X0.4939 Y0.441
N1415 X0.4952 Y0.4425
N1420 X0.496 Y0.4439
N1425 X0.4964 Y0.4453
N1430 X0.4961 Y0.4464
N1435 X0.4953 Y0.4473
N1440 X0.4937 Y0.448
N1445 X0.4913 Y0.4483
N1450 X0.4881
N1455 X0.4841 Y0.4479
N1460 X0.4792 Y0.4471
N1465 X0.4735 Y0.4458
N1470 X0.4669 Y0.4441
N1475 X0.4595 Y0.442
N1480 X0.4512 Y0.4394
N1485 X0.4421 Y0.4364
N1490 X0.4323 Y0.4329
N1495 X0.4218 Y0.429
N1500 X0.4106 Y0.4247
N1505 X0.3988 Y0.42
N1510 X0.3865 Y0.4149
N1515 X0.3736 Y0.4095
N1520 X0.3604 Y0.4037
N1525 X0.333 Y0.3914
N1530 X0.3049 Y0.3781
N1535 X0.2766 Y0.3642
N1540 X0.2488 Y0.35
N1545 X0.2221 Y0.3358
N1550 X0.2093 Y0.3289
N1555 X0.1969 Y0.322
N1560 X0.1851 Y0.3154
N1565 X0.1739 Y0.3089
N1570 X0.1633 Y0.3027
N1575 X0.1533 Y0.2968
N1580 X0.1441 Y0.2912
N1585 X0.1355 Y0.286
N1590 X0.1277 Y0.2812
N1595 X0.1142 Y0.2728
N1600 X0.1085 Y0.2693
N1605 X0.1036 Y0.2663
N1610 X0.0993 Y0.2638
N1615 X0.0956 Y0.2619
N1620 X0.0925 Y0.2604
N1625 X0.0898 Y0.2596
N1630 X0.0874 Y0.2592
N1635 X0.0853 Y0.2594
N1640 X0.0833 Y0.2601
N1645 X0.0813 Y0.2614
N1650 X0.0793 Y0.2631
N1655 X0.077 Y0.2653
N1660 X0.0745 Y0.2681
N1665 X0.0715 Y0.2712
N1670 X0.0682 Y0.2748
N1675 X0.0644 Y0.2789
N1680 X0.0601 Y0.2833
N1685 X0.0552 Y0.2881
N1690 X0.0497 Y0.2932
N1695 X0.0437 Y0.2987
N1700 X0.0371 Y0.3044
N1705 X0.03 Y0.3104
N1710 X0.0223 Y0.3167
N1715 X0.0141 Y0.3231
N1720 X0.0054 Y0.3298
N1725 X-0.0038 Y0.3366
N1730 X-0.0133 Y0.3435
N1735 X-0.0335 Y0.3575
N1740 X-0.0547 Y0.3716
N1745 X-0.0765 Y0.3855
N1750 X-0.0983 Y0.3989
N1755 X-0.1198 Y0.4115
N1760 X-0.1302 Y0.4174
N1765 X-0.1403 Y0.423
N1770 X-0.1501 Y0.4283
N1775 X-0.1595 Y0.4332
N1780 X-0.1684 Y0.4376
N1785 X-0.1769 Y0.4416
N1790 X-0.1848 Y0.4451
N1795 X-0.1921 Y0.4481
N1800 X-0.1988 Y0.4505
N1805 X-0.2049 Y0.4523
N1810 X-0.2104 Y0.4535
N1815 X-0.2151 Y0.4539
N1820 X-0.2193 Y0.4537
N1825 X-0.2228 Y0.4527
N1830 X-0.2256 Y0.4509
N1835 X-0.2279 Y0.4483
N1840 X-0.2295 Y0.4449
N1845 X-0.2306 Y0.4408
N1850 X-0.2312 Y0.4358
N1855 Y0.4301
N1860 X-0.2308 Y0.4238
N1865 X-0.2299 Y0.4169
N1870 X-0.2285 Y0.4095
N1875 X-0.2268 Y0.4017
N1880 X-0.2222 Y0.3854
N1885 X-0.2163 Y0.3687
N1890 X-0.2095 Y0.3527
N1895 X-0.2058 Y0.3451
N1900 X-0.2021 Y0.3379
N1905 X-0.1983 Y0.3313
N1910 X-0.1944 Y0.3252
N1915 X-0.1906 Y0.3198
N1920 X-0.187 Y0.3151
N1925 X-0.1835 Y0.311
N1930 X-0.1802 Y0.3077
N1935 X-0.1772 Y0.305
N1940 X-0.1746 Y0.303
N1945 X-0.1725 Y0.3016
N1950 X-0.171 Y0.3006
N1955 X-0.17 Y0.3
N1960 X-0.1698 Y0.2996
N1965 X-0.1704 Y0.2993
N1970 X-0.1719 Y0.2989
N1975 X-0.1742 Y0.2984
N1980 X-0.1774 Y0.2975
N1985 X-0.1815 Y0.2964
N1990 X-0.1865 Y0.2949
N1995 X-0.1921 Y0.293
N2000 X-0.1985 Y0.2907
N2005 X-0.2054 Y0.2881
N2010 X-0.2128 Y0.2852
N2015 X-0.2286 Y0.2786
N2020 X-0.2448 Y0.2713
N2025 X-0.2605 Y0.2639
N2030 X-0.2677 Y0.2602
N2035 X-0.2745 Y0.2568
N2040 X-0.2806 Y0.2535
N2045 X-0.2861 Y0.2506
N2050 X-0.2907 Y0.2479
N2055 X-0.2944 Y0.2456
N2060 X-0.2973 Y0.2437
N2065 X-0.2992 Y0.2421
N2070 X-0.3001 Y0.241
N2075 X-0.3002 Y0.2402
N2080 X-0.2993 Y0.2397
N2085 X-0.2976 Y0.2395
N2090 X-0.2952
N2095 X-0.2921 Y0.2397
N2100 X-0.2884 Y0.24
N2105 X-0.2793 Y0.2408
N2110 X-0.2741 Y0.2413
N2115 X-0.2626 Y0.2422
N2120 X-0.25 Y0.243
N2125 X-0.2366 Y0.2436
N2130 X-0.2228 Y0.2439
N2135 X-0.1954 Y0.2438
N2140 X-0.1823 Y0.2434
N2145 X-0.17 Y0.2429
N2150 X-0.1586 Y0.2421
N2155 X-0.1483 Y0.2413
N2160 X-0.1394 Y0.2403
N2165 X-0.1321 Y0.2391
N2170 X-0.129 Y0.2385
N2175 X-0.1263 Y0.2377
N2180 X-0.1241 Y0.2369
N2185 X-0.1223 Y0.2361
N2190 X-0.121 Y0.2351
N2195 X-0.1201 Y0.2341
N2200 X-0.1196 Y0.2329
N2205 X-0.1195 Y0.2318
N2210 X-0.1205 Y0.2292
N2215 X-0.1227 Y0.2265
N2220 X-0.1259 Y0.2238
N2225 X-0.1297 Y0.2213
N2230 X-0.1339 Y0.2194
N2235 X-0.1384 Y0.218
N2240 X-0.1437 Y0.2171
N2245 X-0.1468 Y0.2169
N2250 X-0.1504 Y0.2166
N2255 X-0.1545 Y0.2165
N2260 X-0.1592 Y0.2163
N2265 X-0.1644 Y0.2162
N2270 X-0.1768 Y0.216
N2275 X-0.1998 Y0.2155
N2280 X-0.2174 Y0.2152
N2285 X-0.2362 Y0.2151
N2290 X-0.2554
N2295 X-0.2741 Y0.2154
N2300 X-0.283 Y0.2158
N2305 X-0.2916 Y0.2162
N2310 X-0.2996 Y0.2168
N2315 X-0.307 Y0.2176
N2320 X-0.3137 Y0.2185
N2325 X-0.3197 Y0.2196
N2330 X-0.3249 Y0.2209
N2335 X-0.3292 Y0.2223
N2340 X-0.3326 Y0.2239
N2345 X-0.3352 Y0.2257
N2350 X-0.3367 Y0.2277
N2355 X-0.3375 Y0.2298
N2360 X-0.3373 Y0.232
N2365 X-0.3364 Y0.2343
N2370 X-0.3347 Y0.2367
N2375 X-0.3325 Y0.2391
N2380 X-0.3268 Y0.244
N2385 X-0.3204 Y0.2485
N2390 X-0.3146 Y0.2525
N2395 X-0.3123 Y0.2541
N2400 X-0.3106 Y0.2556
N2405 X-0.3096 Y0.2568
N2410 X-0.3093 Y0.2578
N2415 X-0.3097 Y0.2587
N2420 X-0.311 Y0.2595
N2425 X-0.313 Y0.2602
N2430 X-0.3158 Y0.2608
N2435 X-0.3193 Y0.2616
N2440 X-0.3283 Y0.2633
N2445 X-0.3337 Y0.2644
N2450 X-0.3397 Y0.2656
N2455 X-0.3461 Y0.2671
N2460 X-0.3529 Y0.2687
N2465 X-0.3601 Y0.2706
N2470 X-0.3754 Y0.2749
N2475 X-0.3917 Y0.28
N2480 X-0.4087 Y0.2856
N2485 X-0.4432 Y0.2979
N2490 X-0.4603 Y0.3041
N2495 X-0.4769 Y0.31
N2500 X-0.493 Y0.3155
N2505 X-0.5083 Y0.3203
N2510 X-0.5229 Y0.3246
N2515 X-0.5367 Y0.3281
N2520 X-0.5499 Y0.331
N2525 X-0.5627 Y0.3336
N2530 X-0.588 Y0.3391
N2535 X-0.601 Y0.3426
N2540 X-0.6146 Y0.347
N2545 X-0.6287 Y0.3523
N2550 X-0.6433 Y0.3583
N2555 X-0.6731 Y0.3716
N2560 X-0.6879 Y0.3784
N2565 X-0.7023 Y0.3847
N2570 X-0.7161 Y0.3902
N2575 X-0.7226 Y0.3925
N2580 X-0.7289 Y0.3945
N2585 X-0.7348 Y0.3961
N2590 X-0.7405 Y0.3973
N2595 X-0.7458 Y0.3981
N2600 X-0.7507 Y0.3984
N2605 X-0.7552 Y0.3982
N2610 X-0.7593 Y0.3975
N2615 X-0.7631 Y0.3962
N2620 X-0.7664 Y0.3945
N2625 X-0.7693 Y0.3922
N2630 X-0.7718 Y0.3895
N2635 X-0.7739 Y0.3863
N2640 X-0.7757 Y0.3826
N2645 X-0.7771 Y0.3785
N2650 X-0.7781 Y0.3741
N2655 X-0.7789 Y0.3692
N2660 X-0.7793 Y0.364
N2665 Y0.3528
N2670 X-0.7783 Y0.3404
N2675 X-0.7764 Y0.3271
N2680 X-0.7735 Y0.3131
N2685 X-0.7699 Y0.2984
N2690 X-0.7655 Y0.2832
N2695 X-0.7604 Y0.2676
N2700 X-0.7546 Y0.2518
N2705 X-0.7483 Y0.2357
N2710 X-0.7414 Y0.2195
N2715 X-0.734 Y0.2033
N2720 X-0.7261 Y0.1872
N2725 X-0.7178 Y0.1711
N2730 X-0.709 Y0.1552
N2735 X-0.6998 Y0.1395
N2740 X-0.6902 Y0.124
N2745 X-0.6803 Y0.1088
N2750 X-0.67 Y0.0938
N2755 X-0.6594 Y0.0792
N2760 X-0.6486 Y0.065
N2765 X-0.6376 Y0.0511
N2770 X-0.6264 Y0.0377
N2775 X-0.6152 Y0.0246
N2780 X-0.6041 Y0.012
N2785 X-0.5931 Y-0.0001
N2790 X-0.5824 Y-0.0116
N2795 X-0.5722 Y-0.0226
N2800 X-0.5626 Y-0.033
N2805 X-0.554 Y-0.0427
N2810 X-0.5464 Y-0.0516
N2815 X-0.5431 Y-0.0557
N2820 X-0.5403 Y-0.0597
N2825 X-0.5378 Y-0.0634
N2830 X-0.5358 Y-0.0669
N2835 X-0.5344 Y-0.0701
N2840 X-0.5335 Y-0.073
N2845 X-0.5333 Y-0.0757
N2850 X-0.5337 Y-0.078
N2855 X-0.5349 Y-0.08
N2860 X-0.5368 Y-0.0817
N2865 X-0.5396 Y-0.0831
N2870 X-0.543 Y-0.0841
N2875 X-0.5473 Y-0.0848
N2880 X-0.5523 Y-0.0851
N2885 X-0.5579
N2890 X-0.5642 Y-0.0848
N2895 X-0.5711 Y-0.0842
N2900 X-0.5784 Y-0.0833
N2905 X-0.5939 Y-0.0808
N2910 X-0.6101 Y-0.0775
N2915 X-0.6262 Y-0.0738
N2920 X-0.6412 Y-0.0699
N2925 X-0.6481 Y-0.068
N2930 X-0.6545 Y-0.0662
N2935 X-0.6602 Y-0.0645
N2940 X-0.6653 Y-0.063
N2945 X-0.6697 Y-0.0617
N2950 X-0.6733 Y-0.0607
N2955 X-0.6762 Y-0.06
N2960 X-0.6783 Y-0.0597
N2965 X-0.6797 Y-0.0598
N2970 X-0.6804 Y-0.0605
N2975 X-0.6805 Y-0.0616
N2980 X-0.6799 Y-0.0633
N2985 X-0.6788 Y-0.0656
N2990 X-0.6772 Y-0.0684
N2995 X-0.6752 Y-0.0717
N3000 X-0.6727 Y-0.0755
N3005 X-0.6698 Y-0.0797
N3010 X-0.6666 Y-0.0844
N3015 X-0.663 Y-0.0894
N3020 X-0.6592 Y-0.0947
N3025 X-0.6506 Y-0.1059
N3030 X-0.641 Y-0.1172
N3035 X-0.6307 Y-0.1283
N3040 X-0.6198 Y-0.1386
N3045 X-0.6088 Y-0.1478
N3050 X-0.5977 Y-0.1555
N3055 X-0.5871 Y-0.1618
N3060 X-0.5777 Y-0.1672
N3065 X-0.5736 Y-0.1698
N3070 X-0.57 Y-0.1724
N3075 X-0.5671 Y-0.1752
N3080 X-0.5648 Y-0.1782
N3085 X-0.5634 Y-0.1816
N3090 X-0.5627 Y-0.1855
N3095 X-0.5628 Y-0.1898
N3100 X-0.5636 Y-0.1946
N3105 X-0.5653 Y-0.1999
N3110 X-0.5677 Y-0.2058
N3115 X-0.5707 Y-0.2121
N3120 X-0.5743 Y-0.2188
N3125 X-0.5783 Y-0.2258
N3130 X-0.5827 Y-0.2331
N3135 X-0.6018 Y-0.263
N3140 X-0.6063 Y-0.2702
N3145 X-0.6105 Y-0.2771
N3150 X-0.6143 Y-0.2836
N3155 X-0.6176 Y-0.2897
N3160 X-0.6202 Y-0.2952
N3165 X-0.6221 Y-0.3001
N3170 X-0.6232 Y-0.3044
N3175 X-0.6236 Y-0.308
N3180 X-0.623 Y-0.3109
N3185 X-0.6216 Y-0.3132
N3190 X-0.6194 Y-0.3149
N3195 X-0.6163 Y-0.3161
N3200 X-0.6125 Y-0.3167
N3205 X-0.608 Y-0.317
N3210 X-0.6028
N3215 X-0.5971 Y-0.3167
N3220 X-0.5845 Y-0.3155
N3225 X-0.571 Y-0.314
N3230 X-0.5572 Y-0.3123
N3235 X-0.5439 Y-0.3107
N3240 X-0.5319 Y-0.3092
N3245 X-0.5265 Y-0.3085
N3250 X-0.5215 Y-0.3078
N3255 X-0.5171 Y-0.3072
N3260 X-0.5133 Y-0.3066
N3265 X-0.5101 Y-0.3061
N3270 X-0.5074 Y-0.3057
N3275 X-0.5035 Y-0.305
N3280 X-0.5011 Y-0.3048
N3285 X-0.4997 Y-0.3051
N3290 X-0.4983 Y-0.306
N3295 X-0.4961 Y-0.3079
N3300 X-0.4945 Y-0.3091
N3305 X-0.4925 Y-0.3106
N3310 X-0.49 Y-0.3123
N3315 X-0.487 Y-0.3142
N3320 X-0.4834 Y-0.3163
N3325 X-0.4794 Y-0.3186
N3330 X-0.4749 Y-0.3211
N3335 X-0.4699 Y-0.3237
N3340 X-0.4643 Y-0.3264
N3345 X-0.4583 Y-0.3293
N3350 X-0.4519 Y-0.3322
N3355 X-0.445 Y-0.3353
N3360 X-0.43 Y-0.3414
N3365 X-0.4138 Y-0.3476
N3370 X-0.3968 Y-0.3536
N3375 X-0.3793 Y-0.3592
N3380 X-0.3617 Y-0.3643
N3385 X-0.3444 Y-0.3689
N3390 X-0.3277 Y-0.3729
N3395 X-0.312 Y-0.3762
N3400 X-0.2975 Y-0.3789
N3405 X-0.2843 Y-0.3811
N3410 X-0.2726 Y-0.383
N3415 X-0.2673 Y-0.3838
N3420 X-0.2625 Y-0.3845
N3425 X-0.2581 Y-0.3852
N3430 X-0.254 Y-0.3859
N3435 X-0.2504 Y-0.3866
N3440 X-0.2472 Y-0.3873
N3445 X-0.2445 Y-0.3881
N3450 X-0.2421 Y-0.3888
N3455 X-0.2402 Y-0.3897
N3460 X-0.2386 Y-0.3905
N3465 X-0.2367 Y-0.3925
N3470 X-0.2363 Y-0.3948
N3475 X-0.2373 Y-0.3972
N3480 X-0.2396 Y-0.3999
N3485 X-0.2432 Y-0.4025
N3490 X-0.2479 Y-0.405
N3495 X-0.2536 Y-0.4072
N3500 X-0.2603 Y-0.4088
N3505 X-0.2677 Y-0.4099
N3510 X-0.2759 Y-0.4101
N3515 X-0.2846 Y-0.4095
N3520 X-0.294 Y-0.4081
N3525 X-0.3038 Y-0.4059
N3530 X-0.3139 Y-0.403
N3535 X-0.3242 Y-0.3996
N3540 X-0.3446 Y-0.3923
N3545 X-0.3542 Y-0.3889
N3550 X-0.3629 Y-0.3861
N3555 X-0.3668 Y-0.385
N3560 X-0.3703 Y-0.3843
N3565 X-0.3733 Y-0.384
N3570 X-0.3758
N3575 X-0.3777 Y-0.3846
N3580 X-0.3789 Y-0.3857
N3585 X-0.3793 Y-0.3873
N3590 X-0.3789 Y-0.3895
N3595 X-0.3778 Y-0.3923
N3600 X-0.3758 Y-0.3956
N3605 X-0.373 Y-0.3995
N3610 X-0.3695 Y-0.4038
N3615 X-0.3654 Y-0.4085
N3620 X-0.3607 Y-0.4135
N3625 X-0.3499 Y-0.4241
N3630 X-0.3382 Y-0.4347
N3635 X-0.3263 Y-0.4449
N3640 X-0.3206 Y-0.4495
N3645 X-0.3152 Y-0.4539
N3650 X-0.3102 Y-0.4578
N3655 X-0.3057 Y-0.4612
N3660 X-0.3018 Y-0.4642
N3665 X-0.2986 Y-0.4667
N3670 X-0.2961 Y-0.4687
N3675 X-0.2943 Y-0.4705
N3680 X-0.2933 Y-0.472
N3685 X-0.293 Y-0.4734
N3690 X-0.2935 Y-0.4748
N3695 X-0.2946 Y-0.4763
N3700 X-0.2964 Y-0.478
N3705 X-0.2987 Y-0.48
N3710 X-0.3016 Y-0.4823
N3715 X-0.3049 Y-0.485
N3720 X-0.3086 Y-0.4881
N3725 X-0.3126 Y-0.4916
N3730 X-0.3211 Y-0.4996
N3735 X-0.3297 Y-0.5086
N3740 X-0.3378 Y-0.518
N3745 X-0.3448 Y-0.5271
N3750 X-0.3477 Y-0.5313
N3755 X-0.3501 Y-0.5353
N3760 X-0.3519 Y-0.5388
N3765 X-0.3531 Y-0.542
N3770 X-0.3536 Y-0.5446
N3775 X-0.3534 Y-0.5468
N3780 X-0.3523 Y-0.5485
N3785 X-0.3505 Y-0.5496
N3790 X-0.3479 Y-0.5502
N3795 X-0.3445 Y-0.5504
N3800 X-0.3405 Y-0.5502
N3805 X-0.3359 Y-0.5496
N3810 X-0.3254 Y-0.5478
N3815 X-0.3141 Y-0.5456
N3820 X-0.3032 Y-0.5437
N3825 X-0.2982 Y-0.5432
N3830 X-0.2937 Y-0.5429
N3835 X-0.2898 Y-0.543
N3840 X-0.2865 Y-0.5436
N3845 X-0.2839 Y-0.5445
N3850 X-0.2819 Y-0.5459
N3855 X-0.2806 Y-0.5477
N3860 X-0.28 Y-0.5499
N3865 X-0.2799 Y-0.5524
N3870 X-0.2803 Y-0.5552
N3875 X-0.282 Y-0.5612
N3880 X-0.2868 Y-0.5737
N3885 X-0.289 Y-0.5795
N3890 X-0.2908 Y-0.5848
N3895 X-0.2922 Y-0.5897
N3900 X-0.293 Y-0.594
N3905 X-0.2835 Y-0.5915
N3910 X-0.2729 Y-0.5887
N3915 X-0.2613 Y-0.5859
N3920 X-0.2488 Y-0.5831
N3925 X-0.2354 Y-0.5803
N3930 X-0.2212 Y-0.5776
N3935 X-0.2063 Y-0.575
N3940 X-0.1908 Y-0.5727
N3945 X-0.1746 Y-0.5705
N3950 X-0.158 Y-0.5687
N3955 X-0.141 Y-0.5671
N3960 X-0.1236 Y-0.5658
N3965 X-0.0883 Y-0.5643
N3970 X-0.0527 Y-0.5642
N3975 X-0.0175 Y-0.5655
N3980 X-0.0003 Y-0.5667
N3985 X0.0166 Y-0.5681
N3990 X0.033 Y-0.5699
N3995 X0.049 Y-0.5719
N4000 X0.0645 Y-0.5741
N4005 X0.0793 Y-0.5765
N4010 X0.0934 Y-0.579
N4015 X0.1068 Y-0.5817
N4020 X0.1194 Y-0.5844
N4025 X0.1312 Y-0.5872
N4030 X0.1421 Y-0.5899
N4035 X0.1521 Y-0.5925
N4040 X0.1612 Y-0.595
N4045 X0.1693 Y-0.5973
N4050 Z0.16
N4055 G0 Z0.2
N4060 G1 X0.1694 Y-0.24 F650.
N4065 G0 Z0.16
N4070 G1 Z-0.01 F13.123
N4075 X0.1675 Y-0.2398 F39.37
N4080 X0.1658 Y-0.2391
N4085 X0.1643 Y-0.2379
N4090 X0.1631 Y-0.2363
N4095 X0.161 Y-0.2322
N4100 X0.1594 Y-0.227
N4105 X0.1581 Y-0.2214
N4110 X0.1569 Y-0.2158
N4115 X0.1554 Y-0.2108
N4120 X0.1537 Y-0.2067
N4125 X0.1514 Y-0.2039
N4130 X0.1486 Y-0.2026
N4135 X0.1453
N4140 X0.1417 Y-0.2038
N4145 X0.1379 Y-0.2059
N4150 X0.1306 Y-0.2112
N4155 X0.1277 Y-0.2135
N4160 X0.1255 Y-0.2151
N4165 X0.1241 Y-0.2157
N4170 X0.1237 Y-0.2152
N4175 X0.1243 Y-0.2135
N4180 X0.1258 Y-0.2106
N4185 X0.1282 Y-0.2067
N4190 X0.1314 Y-0.202
N4195 X0.1351 Y-0.1967
N4200 X0.1392 Y-0.1911
N4205 X0.1479 Y-0.1803
N4210 X0.152 Y-0.1757
N4215 X0.1558 Y-0.1721
N4220 X0.1591 Y-0.1697
N4225 X0.1605 Y-0.169
N4230 X0.1617 Y-0.1686
N4235 X0.1628 Y-0.1687
N4240 X0.1636 Y-0.1691
N4245 X0.1643 Y-0.1699
N4250 X0.1648 Y-0.171
N4255 X0.1653 Y-0.1743
N4260 X0.1652 Y-0.1789
N4265 X0.1647 Y-0.1842
N4270 X0.1642 Y-0.19
N4275 X0.1638 Y-0.1958
N4280 Y-0.201
N4285 X0.1645 Y-0.2054
N4290 X0.1652 Y-0.2071
N4295 X0.1662 Y-0.2084
N4300 X0.1674 Y-0.2094
N4305 X0.1688 Y-0.2099
N4310 X0.1706 Y-0.21
N4315 X0.1726 Y-0.2097
N4320 X0.1749 Y-0.209
N4325 X0.1774 Y-0.2079
N4330 X0.183 Y-0.2046
N4335 X0.1892 Y-0.2004
N4340 X0.1956 Y-0.1955
N4345 X0.202 Y-0.1906
N4350 X0.2078 Y-0.1861
N4355 X0.2129 Y-0.1824
N4360 X0.215 Y-0.1811
N4365 X0.2168 Y-0.1802
N4370 X0.2182 Y-0.1797
N4375 X0.2193 Y-0.1796
N4380 X0.22 Y-0.18
N4385 X0.2203 Y-0.1808
N4390 X0.2201 Y-0.1822
N4395 X0.2196 Y-0.184
N4400 X0.2187 Y-0.1862
N4405 X0.2174 Y-0.1888
N4410 X0.2158 Y-0.1918
N4415 X0.2139 Y-0.1951
N4420 X0.2091 Y-0.2024
N4425 X0.2036 Y-0.2101
N4430 X0.1974 Y-0.2179
N4435 X0.1911 Y-0.2251
N4440 X0.1849 Y-0.2313
N4445 X0.1819 Y-0.2339
N4450 X0.179 Y-0.2361
N4455 X0.1763 Y-0.2378
N4460 X0.1738 Y-0.239
N4465 X0.1715 Y-0.2398
N4470 X0.1694 Y-0.24
N4475 Z0.16
N4480 G0 Z0.2
N4485 G1 X0.1095 Y-0.1731 F650.
N4490 G0 Z0.16
N4495 G1 Z-0.01 F13.123
N4500 X0.0993 Y-0.1767 F39.37
N4505 X0.0881 Y-0.18
N4510 X0.0763 Y-0.1824
N4515 X0.0644 Y-0.1839
N4520 X0.053 Y-0.1844
N4525 X0.0424 Y-0.1837
N4530 X0.033 Y-0.1822
N4535 X0.0288 Y-0.1811
N4540 X0.025 Y-0.18
N4545 X0.0216 Y-0.1787
N4550 X0.0186 Y-0.1774
N4555 X0.016 Y-0.176
N4560 X0.0139 Y-0.1746
N4565 X0.0122 Y-0.1733
N4570 X0.011 Y-0.1721
N4575 X0.0103 Y-0.171
N4580 X0.01 Y-0.17
N4585 X0.0102 Y-0.1691
N4590 X0.0109 Y-0.1684
N4595 X0.012 Y-0.1678
N4600 X0.0136 Y-0.1674
N4605 X0.0156 Y-0.167
N4610 X0.0181 Y-0.1668
N4615 X0.0211 Y-0.1666
N4620 X0.0245 Y-0.1665
N4625 X0.0324 Y-0.1662
N4630 X0.0418 Y-0.1659
N4635 X0.0524 Y-0.1654
N4640 X0.0639 Y-0.1645
N4645 X0.0878 Y-0.1619
N4650 X0.0991 Y-0.1604
N4655 X0.1094 Y-0.1592
N4660 X0.1139 Y-0.1587
N4665 X0.118 Y-0.1583
N4670 X0.1216 Y-0.1581
N4675 X0.1245
N4680 X0.1269 Y-0.1583
N4685 X0.1286 Y-0.1587
N4690 X0.1297 Y-0.1594
N4695 X0.13 Y-0.1602
N4700 X0.1297 Y-0.1613
N4705 X0.1286 Y-0.1626
N4710 X0.1269 Y-0.164
N4715 X0.1246 Y-0.1657
N4720 X0.1216 Y-0.1674
N4725 X0.1181 Y-0.1693
N4730 X0.114 Y-0.1712
N4735 X0.1095 Y-0.1731
N4740 Z0.16
N4745 G0 Z0.2
N4750 G1 X0.0202 Y-0.1479 F650.
N4755 G0 Z0.16
N4760 G1 Z-0.01 F13.123
N4765 X0.0137 Y-0.1455 F39.37
N4770 X0.0073 Y-0.1418
N4775 X0.0013 Y-0.1368
N4780 X-0.0045 Y-0.1307
N4785 X-0.0099 Y-0.1237
N4790 X-0.015 Y-0.1161
N4795 X-0.0196 Y-0.1079
N4800 X-0.0238 Y-0.0995
N4805 X-0.0274 Y-0.091
N4810 X-0.0305 Y-0.0828
N4815 X-0.0331 Y-0.0748
N4820 X-0.035 Y-0.0674
N4825 X-0.0362 Y-0.0607
N4830 X-0.0367 Y-0.0548
N4835 X-0.0363 Y-0.0497
N4840 X-0.0351 Y-0.0454
N4845 X-0.0329 Y-0.042
N4850 X-0.0296 Y-0.0393
N4855 X-0.0252 Y-0.0371
N4860 X-0.0195 Y-0.0355
N4865 X-0.0127 Y-0.0341
N4870 X-0.0047 Y-0.0331
N4875 X0.0045 Y-0.0321
N4880 X0.0147 Y-0.0312
N4885 X0.0259 Y-0.0304
N4890 X0.0503 Y-0.0286
N4895 X0.0633 Y-0.0277
N4900 X0.0899 Y-0.0256
N4905 X0.1162 Y-0.0233
N4910 X0.1287 Y-0.022
N4915 X0.1406 Y-0.0209
N4920 X0.1621 Y-0.0186
N4925 X0.1715 Y-0.0177
N4930 X0.1797 Y-0.017
N4935 X0.1868 Y-0.0164
N4940 X0.1928 Y-0.0162
N4945 X0.1977
N4950 X0.2016 Y-0.0167
N4955 X0.2046 Y-0.0175
N4960 X0.2068 Y-0.0189
N4965 X0.2083 Y-0.0207
N4970 X0.2094 Y-0.023
N4975 X0.2101 Y-0.0259
N4980 X0.2106 Y-0.0293
N4985 X0.2109 Y-0.0332
N4990 X0.211 Y-0.0376
N4995 X0.2111 Y-0.0425
N5000 X0.2113 Y-0.0478
N5005 X0.2116 Y-0.0596
N5010 X0.2123 Y-0.0726
N5015 X0.214 Y-0.1002
N5020 X0.2144 Y-0.1137
N5025 X0.2143 Y-0.12
N5030 X0.214 Y-0.126
N5035 X0.2134 Y-0.1315
N5040 X0.2124 Y-0.1365
N5045 X0.2111 Y-0.1408
N5050 X0.2095 Y-0.1444
N5055 X0.2076 Y-0.1471
N5060 X0.2053 Y-0.1488
N5065 X0.2029 Y-0.1493
N5070 X0.2003 Y-0.1486
N5075 X0.1977 Y-0.1466
N5080 X0.1952 Y-0.1431
N5085 X0.193 Y-0.1382
N5090 X0.191 Y-0.132
N5095 X0.1893 Y-0.1246
N5100 X0.1881 Y-0.1162
N5105 X0.1873 Y-0.107
N5110 X0.1869 Y-0.0974
N5115 X0.1872 Y-0.078
N5120 X0.1877 Y-0.0687
N5125 X0.1885 Y-0.0602
N5130 X0.1893 Y-0.0526
N5135 X0.1907 Y-0.041
N5140 X0.191 Y-0.0373
N5145 X0.1908 Y-0.0348
N5150 X0.1899 Y-0.0336
N5155 X0.188 Y-0.0334
N5160 X0.1851 Y-0.034
N5165 X0.181 Y-0.0351
N5170 X0.1758 Y-0.0365
N5175 X0.1695 Y-0.038
N5180 X0.1622 Y-0.0394
N5185 X0.1543 Y-0.0407
N5190 X0.1461 Y-0.0416
N5195 X0.1295 Y-0.0427
N5200 X0.1217
N5205 X0.1147 Y-0.0425
N5210 X0.1087 Y-0.0422
N5215 X0.1037 Y-0.0417
N5220 X0.1 Y-0.0413
N5225 X0.0974 Y-0.0412
N5230 X0.0958 Y-0.0414
N5235 X0.0951 Y-0.0423
N5240 X0.0948 Y-0.0441
N5245 X0.0946 Y-0.0506
N5250 X0.0942 Y-0.0554
N5255 X0.0935 Y-0.0612
N5260 X0.0922 Y-0.068
N5265 X0.0903 Y-0.0755
N5270 X0.0878 Y-0.0836
N5275 X0.0847 Y-0.092
N5280 X0.0809 Y-0.1007
N5285 X0.0764 Y-0.1092
N5290 X0.0714 Y-0.1175
N5295 X0.0659 Y-0.1252
N5300 X0.06 Y-0.1321
N5305 X0.0537 Y-0.1381
N5310 X0.0472 Y-0.1428
N5315 X0.0405 Y-0.1463
N5320 X0.0337 Y-0.1483
N5325 X0.0269 Y-0.1489
N5330 X0.0202 Y-0.1479
N5335 Z0.16
N5340 G0 Z0.2
N5345 G1 X0.18 Y0.0194 F650.
N5350 G0 Z0.16
N5355 G1 Z-0.01 F13.123
N5360 X0.1753 Y0.019 F39.37
N5365 X0.1696 Y0.0191
N5370 X0.1631 Y0.0195
N5375 X0.1558 Y0.0203
N5380 X0.1478 Y0.0213
N5385 X0.1392 Y0.0227
N5390 X0.13 Y0.0242
N5395 X0.1204 Y0.0259
N5400 X0.1003 Y0.0293
N5405 X0.0796 Y0.0324
N5410 X0.0694 Y0.0335
N5415 X0.0594 Y0.0343
N5420 X0.0497 Y0.0346
N5425 X0.0405 Y0.0345
N5430 X0.0318 Y0.034
N5435 X0.0237 Y0.0331
N5440 X0.0163 Y0.0321
N5445 X0.0096 Y0.031
N5450 X0.0035 Y0.0299
N5455 X-0.0017 Y0.029
N5460 X-0.0062 Y0.0285
N5465 X-0.0098 Y0.0284
N5470 X-0.0127 Y0.0289
N5475 X-0.0148 Y0.0299
N5480 X-0.016 Y0.0315
N5485 X-0.0164 Y0.0335
N5490 X-0.016 Y0.0359
N5495 X-0.0148 Y0.0384
N5500 X-0.0127 Y0.041
N5505 X-0.0098 Y0.0436
N5510 X-0.0061 Y0.0459
N5515 X-0.0017 Y0.048
N5520 X0.0036 Y0.0499
N5525 X0.0095 Y0.0515
N5530 X0.0162 Y0.0527
N5535 X0.0235 Y0.0536
N5540 X0.0315 Y0.0542
N5545 X0.04 Y0.0545
N5550 X0.0489
N5555 X0.0583 Y0.0542
N5560 X0.0781 Y0.053
N5565 X0.0985 Y0.051
N5570 X0.1186 Y0.0483
N5575 X0.1284 Y0.0467
N5580 X0.1377 Y0.045
N5585 X0.1466 Y0.0432
N5590 X0.1548 Y0.0412
N5595 X0.1624 Y0.0392
N5600 X0.1691 Y0.037
N5605 X0.175 Y0.0348
N5610 X0.1799 Y0.0326
N5615 X0.1837 Y0.0304
N5620 X0.1865 Y0.0282
N5625 X0.1882 Y0.0262
N5630 X0.1887 Y0.0243
N5635 X0.1882 Y0.0226
N5640 X0.1865 Y0.0212
N5645 X0.1838 Y0.0201
N5650 X0.18 Y0.0194
N5655 Z0.16
N5660 G0 Z0.2
N5665 G1 X-0.1355 Y-0.157 F650.
N5670 G0 Z0.16
N5675 G1 Z-0.01 F13.123
N5680 X-0.1334 Y-0.1587 F39.37
N5685 X-0.1328 Y-0.1606
N5690 X-0.1336 Y-0.1626
N5695 X-0.1358 Y-0.1646
N5700 X-0.1392 Y-0.1666
N5705 X-0.1439 Y-0.1683
N5710 X-0.1495 Y-0.1698
N5715 X-0.1558 Y-0.171
N5720 X-0.1626 Y-0.1717
N5725 X-0.1696 Y-0.1719
N5730 X-0.1766 Y-0.1717
N5735 X-0.1832 Y-0.171
N5740 X-0.1893 Y-0.1698
N5745 X-0.1946 Y-0.1683
N5750 X-0.1989 Y-0.1665
N5755 X-0.2022 Y-0.1645
N5760 X-0.2041 Y-0.1625
N5765 X-0.2048 Y-0.1605
N5770 X-0.204 Y-0.1587
N5775 X-0.2019 Y-0.157
N5780 X-0.1986 Y-0.1555
N5785 X-0.1942 Y-0.1542
N5790 X-0.1888 Y-0.1533
N5795 X-0.1827 Y-0.1526
N5800 X-0.176 Y-0.1522
N5805 X-0.169 Y-0.152
N5810 X-0.1553 Y-0.1526
N5815 X-0.149 Y-0.1533
N5820 X-0.1435 Y-0.1543
N5825 X-0.1389 Y-0.1555
N5830 X-0.1355 Y-0.157
N5835 Z0.16
N5840 G0 Z0.2
N5845 G1 X-0.2505 Y-0.1393 F650.
N5850 G0 Z0.16
N5855 G1 Z-0.01 F13.123
N5860 X-0.2551 Y-0.147 F39.37
N5865 X-0.2604 Y-0.1539
N5870 X-0.2664 Y-0.1599
N5875 X-0.2731 Y-0.1649
N5880 X-0.2804 Y-0.1686
N5885 X-0.288 Y-0.171
N5890 X-0.2958 Y-0.1719
N5895 X-0.3037 Y-0.1714
N5900 X-0.3113 Y-0.1695
N5905 X-0.3184 Y-0.1661
N5910 X-0.325 Y-0.1614
N5915 X-0.3309 Y-0.1556
N5920 X-0.3361 Y-0.1488
N5925 X-0.3406 Y-0.1413
N5930 X-0.3445 Y-0.1332
N5935 X-0.3477 Y-0.1249
N5940 X-0.3505 Y-0.1165
N5945 X-0.3529 Y-0.1083
N5950 X-0.3551 Y-0.1006
N5955 X-0.3571 Y-0.0935
N5960 X-0.3591 Y-0.0872
N5965 X-0.3613 Y-0.0818
N5970 X-0.3637 Y-0.0775
N5975 X-0.3664 Y-0.0743
N5980 X-0.3695 Y-0.0721
N5985 X-0.373 Y-0.0709
N5990 X-0.377 Y-0.0705
N5995 X-0.3814 Y-0.0707
N6000 X-0.3861 Y-0.0712
N6005 X-0.3966 Y-0.0726
N6010 X-0.408 Y-0.0736
N6015 X-0.4199 Y-0.0737
N6020 X-0.4319 Y-0.0729
N6025 X-0.4486 Y-0.0709
N6030 X-0.4536 Y-0.0705
N6035 X-0.458
N6040 X-0.4619 Y-0.071
N6045 X-0.4651 Y-0.0722
N6050 X-0.4675 Y-0.0744
N6055 X-0.4691 Y-0.0775
N6060 X-0.4698 Y-0.0817
N6065 Y-0.0869
N6070 X-0.469 Y-0.0931
N6075 X-0.4676 Y-0.1001
N6080 X-0.4657 Y-0.1077
N6085 X-0.4567 Y-0.1403
N6090 X-0.4549 Y-0.1479
N6095 X-0.4535 Y-0.1548
N6100 X-0.4526 Y-0.1608
N6105 X-0.4524 Y-0.1657
N6110 X-0.4528 Y-0.1695
N6115 X-0.4539 Y-0.1719
N6120 X-0.4555 Y-0.1731
N6125 X-0.4577 Y-0.173
N6130 X-0.4604 Y-0.1717
N6135 X-0.4633 Y-0.1693
N6140 X-0.4665 Y-0.1659
N6145 X-0.4697 Y-0.1617
N6150 X-0.4729 Y-0.1569
N6155 X-0.4761 Y-0.1517
N6160 X-0.4816 Y-0.1405
N6165 X-0.4839 Y-0.135
N6170 X-0.4859 Y-0.1295
N6175 X-0.4874 Y-0.1243
N6180 X-0.4885 Y-0.1193
N6185 X-0.4897 Y-0.1096
N6190 X-0.49 Y-0.0999
N6195 X-0.4899 Y-0.0898
N6200 X-0.4897 Y-0.0796
N6205 X-0.4894 Y-0.0704
N6210 X-0.4891 Y-0.0665
N6215 X-0.4886 Y-0.0631
N6220 X-0.4879 Y-0.0604
N6225 X-0.4867 Y-0.0584
N6230 X-0.485 Y-0.0569
N6235 X-0.4826 Y-0.0561
N6240 X-0.4793 Y-0.0557
N6245 X-0.4749 Y-0.0556
N6250 X-0.4695 Y-0.0558
N6255 X-0.4629 Y-0.056
N6260 X-0.455 Y-0.0563
N6265 X-0.4461 Y-0.0565
N6270 X-0.4361 Y-0.0567
N6275 X-0.4252
N6280 X-0.4134 Y-0.0565
N6285 X-0.401 Y-0.0562
N6290 X-0.3749 Y-0.0552
N6295 X-0.3483 Y-0.0537
N6300 X-0.3352 Y-0.0528
N6305 X-0.3226 Y-0.052
N6310 X-0.3105 Y-0.0512
N6315 X-0.2992 Y-0.0505
N6320 X-0.2887 Y-0.05
N6325 X-0.2793 Y-0.0498
N6330 X-0.2709 Y-0.05
N6335 X-0.2636 Y-0.0506
N6340 X-0.2574 Y-0.0517
N6345 X-0.2523 Y-0.0535
N6350 X-0.2481 Y-0.056
N6355 X-0.2448 Y-0.0593
N6360 X-0.2423 Y-0.0635
N6365 X-0.2404 Y-0.0685
N6370 X-0.2391 Y-0.0745
N6375 X-0.2384 Y-0.0812
N6380 X-0.2382 Y-0.0887
N6385 X-0.2386 Y-0.0967
N6390 X-0.2396 Y-0.1051
N6395 X-0.2413 Y-0.1138
N6400 X-0.2437 Y-0.1225
N6405 X-0.2467 Y-0.1311
N6410 X-0.2505 Y-0.1393
N6415 Z0.16
N6420 G0 Z0.2
N6425 G1 X-0.4771 Y-0.1837 F650.
N6430 G0 Z0.16
N6435 G1 Z-0.01 F13.123
N6440 X-0.4761 Y-0.1877 F39.37
N6445 Y-0.1926
N6450 X-0.477 Y-0.1979
N6455 X-0.4782 Y-0.2034
N6460 X-0.4794 Y-0.2084
N6465 X-0.4801 Y-0.2125
N6470 Y-0.214
N6475 X-0.4797 Y-0.2152
N6480 X-0.479 Y-0.216
N6485 X-0.4779 Y-0.2163
N6490 X-0.4765
N6495 X-0.4746 Y-0.2157
N6500 X-0.4723 Y-0.2148
N6505 X-0.4696 Y-0.2135
N6510 X-0.4665 Y-0.2119
N6515 X-0.4631 Y-0.2101
N6520 X-0.4555 Y-0.2059
N6525 X-0.4472 Y-0.2016
N6530 X-0.4388 Y-0.1979
N6535 X-0.4308 Y-0.1951
N6540 X-0.4271 Y-0.1943
N6545 X-0.4237 Y-0.1939
N6550 X-0.4207
N6555 X-0.4181 Y-0.1943
N6560 X-0.416 Y-0.1951
N6565 X-0.4144 Y-0.1963
N6570 X-0.4133 Y-0.1977
N6575 X-0.4128 Y-0.1993
N6580 Y-0.201
N6585 X-0.4134 Y-0.2029
N6590 X-0.4145 Y-0.2048
N6595 X-0.4161 Y-0.2067
N6600 X-0.4182 Y-0.2087
N6605 X-0.4208 Y-0.2106
N6610 X-0.4272 Y-0.2145
N6615 X-0.4349 Y-0.2183
N6620 X-0.4435 Y-0.2221
N6625 X-0.4526 Y-0.2259
N6630 X-0.4709 Y-0.2334
N6635 X-0.4792 Y-0.2368
N6640 X-0.4865 Y-0.2396
N6645 X-0.4898 Y-0.2407
N6650 X-0.4927 Y-0.2416
N6655 X-0.4953 Y-0.2422
N6660 X-0.4976 Y-0.2424
N6665 X-0.4995 Y-0.2423
N6670 X-0.501 Y-0.2419
N6675 X-0.5022 Y-0.2411
N6680 X-0.5031 Y-0.2399
N6685 X-0.5036 Y-0.2383
N6690 X-0.5038 Y-0.2364
N6695 X-0.5035 Y-0.2318
N6700 X-0.5025 Y-0.2262
N6705 X-0.5012 Y-0.2204
N6710 X-0.5 Y-0.2148
N6715 X-0.4994 Y-0.2101
N6720 Y-0.2082
N6725 X-0.4997 Y-0.2068
N6730 X-0.5003 Y-0.2057
N6735 X-0.5012 Y-0.2051
N6740 X-0.5024 Y-0.205
N6745 X-0.5039 Y-0.2052
N6750 X-0.5058 Y-0.2059
N6755 X-0.5079 Y-0.2068
N6760 X-0.5128 Y-0.2094
N6765 X-0.5183 Y-0.2122
N6770 X-0.5239 Y-0.2145
N6775 X-0.5291 Y-0.2158
N6780 X-0.5313
N6785 X-0.5334 Y-0.2154
N6790 X-0.535 Y-0.2146
N6795 X-0.5364 Y-0.2134
N6800 X-0.5373 Y-0.2119
N6805 X-0.5378 Y-0.2101
N6810 Y-0.2081
N6815 X-0.5374 Y-0.2059
N6820 X-0.5366 Y-0.2037
N6825 X-0.5354 Y-0.2014
N6830 X-0.5318 Y-0.1969
N6835 X-0.5268 Y-0.1925
N6840 X-0.5208 Y-0.1885
N6845 X-0.5141 Y-0.1849
N6850 X-0.5071 Y-0.1821
N6855 X-0.5001 Y-0.1799
N6860 X-0.4936 Y-0.1786
N6865 X-0.4878 Y-0.1782
N6870 X-0.483 Y-0.1789
N6875 X-0.4811 Y-0.1797
N6880 X-0.4794 Y-0.1808
N6885 X-0.4781 Y-0.1821
N6890 X-0.4771 Y-0.1837
N6895 Z0.16
N6900 G0 Z0.2
N6905 G1 X-0.4125 Y-0.1841 F650.
N6910 G0 Z0.16
N6915 G1 Z-0.01 F13.123
N6920 X-0.4122 Y-0.1834 F39.37
N6925 X-0.4112 Y-0.1829
N6930 X-0.4096 Y-0.1825
N6935 X-0.4075 Y-0.1823
N6940 X-0.4048 Y-0.1822
N6945 X-0.4016
N6950 X-0.3978 Y-0.1823
N6955 X-0.3937 Y-0.1825
N6960 X-0.3841 Y-0.183
N6965 X-0.3733 Y-0.1835
N6970 X-0.3616 Y-0.1839
N6975 X-0.3495 Y-0.1841
N6980 X-0.3375 Y-0.1839
N6985 X-0.3259 Y-0.1835
N6990 X-0.3152 Y-0.183
N6995 X-0.3059 Y-0.1825
N7000 X-0.3018 Y-0.1823
N7005 X-0.2982 Y-0.1822
N7010 X-0.2951
N7015 X-0.2925 Y-0.1823
N7020 X-0.2905 Y-0.1825
N7025 X-0.2891 Y-0.1829
N7030 X-0.2882 Y-0.1835
N7035 X-0.288 Y-0.1842
N7040 X-0.2884 Y-0.185
N7045 X-0.2894 Y-0.186
N7050 X-0.2909 Y-0.1871
N7055 X-0.2931 Y-0.1883
N7060 X-0.2957 Y-0.1896
N7065 X-0.299 Y-0.1909
N7070 X-0.3027 Y-0.1923
N7075 X-0.3068 Y-0.1936
N7080 X-0.3163 Y-0.196
N7085 X-0.3271 Y-0.198
N7090 X-0.3387 Y-0.1992
N7095 X-0.3508 Y-0.1997
N7100 X-0.3629 Y-0.1992
N7105 X-0.3745 Y-0.1979
N7110 X-0.3852 Y-0.1959
N7115 X-0.3945 Y-0.1934
N7120 X-0.3986 Y-0.1921
N7125 X-0.4022 Y-0.1907
N7130 X-0.4054 Y-0.1894
N7135 X-0.4079 Y-0.1881
N7140 X-0.41 Y-0.1869
N7145 X-0.4114 Y-0.1859
N7150 X-0.4123 Y-0.1849
N7155 X-0.4125 Y-0.1841
N7160 Z0.16
N7165 G0 Z0.2
N7170 G1 X-0.26 Y-0.26 F650.
N7175 G0 Z0.16
N7180 G1 Z-0.01 F13.123
N7185 X-0.2595 Y-0.2594 F39.37
N7190 X-0.2584 Y-0.2593
N7195 X-0.2568 Y-0.2596
N7200 X-0.2545 Y-0.2602
N7205 X-0.2518 Y-0.2612
N7210 X-0.2486 Y-0.2624
N7215 X-0.2409 Y-0.265
N7220 X-0.2319 Y-0.2676
N7225 X-0.222 Y-0.2695
N7230 X-0.2116 Y-0.27
N7235 X-0.2063 Y-0.2697
N7240 X-0.2011 Y-0.269
N7245 X-0.1907 Y-0.2664
N7250 X-0.1808 Y-0.2623
N7255 X-0.1714 Y-0.2574
N7260 X-0.1627 Y-0.252
N7265 X-0.1546 Y-0.2469
N7270 X-0.147 Y-0.2426
N7275 X-0.1399 Y-0.2395
N7280 X-0.1365 Y-0.2385
N7285 X-0.1331 Y-0.238
N7290 X-0.1264 Y-0.2381
N7295 X-0.1196 Y-0.2396
N7300 X-0.1124 Y-0.242
N7305 X-0.1045 Y-0.2448
N7310 X-0.0958 Y-0.2475
N7315 X-0.0863 Y-0.2494
N7320 X-0.0758 Y-0.2502
N7325 X-0.0703 Y-0.25
N7330 X-0.0646 Y-0.2495
N7335 X-0.0529 Y-0.2474
N7340 X-0.0411 Y-0.2442
N7345 X-0.0299 Y-0.2403
N7350 X-0.0197 Y-0.2363
N7355 X-0.0111 Y-0.2327
N7360 X-0.0076 Y-0.2314
N7365 X-0.0047 Y-0.2303
N7370 X-0.0025 Y-0.2297
N7375 X-0.001 Y-0.2295
N7380 X-0.0001 Y-0.2298
N7385 X0. Y-0.2305
N7390 X-0.0006 Y-0.2318
N7395 X-0.002 Y-0.2335
N7400 X-0.004 Y-0.2356
N7405 X-0.0067 Y-0.2381
N7410 X-0.01 Y-0.2409
N7415 X-0.0139 Y-0.2439
N7420 X-0.0182 Y-0.2471
N7425 X-0.023 Y-0.2503
N7430 X-0.0336 Y-0.2567
N7435 X-0.045 Y-0.2624
N7440 X-0.0567 Y-0.2669
N7445 X-0.0625 Y-0.2685
N7450 X-0.0682 Y-0.2697
N7455 X-0.0737 Y-0.2704
N7460 X-0.0791 Y-0.2707
N7465 X-0.0843 Y-0.2706
N7470 X-0.0892 Y-0.2701
N7475 X-0.0985 Y-0.2682
N7480 X-0.1069 Y-0.2655
N7485 X-0.1146 Y-0.2627
N7490 X-0.1217 Y-0.2606
N7495 X-0.1285 Y-0.2595
N7500 X-0.1319
N7505 X-0.1353 Y-0.26
N7510 X-0.1388 Y-0.2608
N7515 X-0.1423 Y-0.2621
N7520 X-0.1496 Y-0.2658
N7525 X-0.1574 Y-0.2706
N7530 X-0.1657 Y-0.276
N7535 X-0.1747 Y-0.2812
N7540 X-0.1843 Y-0.2857
N7545 X-0.1893 Y-0.2875
N7550 X-0.1944 Y-0.2888
N7555 X-0.1996 Y-0.2897
N7560 X-0.2048 Y-0.2901
N7565 X-0.21 Y-0.29
N7570 X-0.2152 Y-0.2894
N7575 X-0.2204 Y-0.2882
N7580 X-0.2255 Y-0.2866
N7585 X-0.2351 Y-0.2823
N7590 X-0.2436 Y-0.277
N7595 X-0.2474 Y-0.2743
N7600 X-0.2508 Y-0.2715
N7605 X-0.2536 Y-0.2689
N7610 X-0.256 Y-0.2664
N7615 X-0.2579 Y-0.2642
N7620 X-0.2592 Y-0.2624
N7625 X-0.2599 Y-0.261
N7630 X-0.26 Y-0.26
N7635 Z0.16
N7640 G0 Z0.2
N7645 G1 X-0.2913 Y0.0102 F650.
N7650 G0 Z0.16
N7655 G1 Z-0.01 F13.123
N7660 X-0.2956 Y0.0099 F39.37
N7665 X-0.3009
N7670 X-0.3072 Y0.0102
N7675 X-0.3143 Y0.0106
N7680 X-0.3222 Y0.0112
N7685 X-0.3307 Y0.0117
N7690 X-0.3398 Y0.012
N7695 X-0.3494 Y0.0121
N7700 X-0.3594 Y0.0119
N7705 X-0.3697 Y0.0112
N7710 X-0.3802 Y0.0101
N7715 X-0.3908 Y0.0085
N7720 X-0.4013 Y0.0064
N7725 X-0.4117 Y0.0039
N7730 X-0.4316 Y-0.0019
N7735 X-0.441 Y-0.005
N7740 X-0.4499 Y-0.008
N7745 X-0.4581 Y-0.0107
N7750 X-0.4657 Y-0.0131
N7755 X-0.4724 Y-0.0149
N7760 X-0.4784 Y-0.0161
N7765 X-0.4834 Y-0.0165
N7770 X-0.4875 Y-0.0162
N7775 X-0.4906 Y-0.015
N7780 X-0.4927 Y-0.0131
N7785 X-0.4937 Y-0.0106
N7790 Y-0.0076
N7795 X-0.4927 Y-0.0045
N7800 X-0.4906 Y-0.0014
N7805 X-0.4876 Y0.0015
N7810 X-0.4837 Y0.0041
N7815 X-0.479 Y0.0062
N7820 X-0.4734 Y0.008
N7825 X-0.4673 Y0.0096
N7830 X-0.4605 Y0.0109
N7835 X-0.4532 Y0.0121
N7840 X-0.4455 Y0.0133
N7845 X-0.4291 Y0.0162
N7850 X-0.4118 Y0.02
N7855 X-0.3941 Y0.0246
N7860 X-0.3759 Y0.0291
N7865 X-0.3667 Y0.0309
N7870 X-0.3575 Y0.0323
N7875 X-0.3484 Y0.0331
N7880 X-0.3395 Y0.0334
N7885 X-0.3309 Y0.0332
N7890 X-0.3226 Y0.0324
N7895 X-0.3149 Y0.0312
N7900 X-0.3078 Y0.0295
N7905 X-0.3015 Y0.0275
N7910 X-0.2961 Y0.0252
N7915 X-0.2916 Y0.0228
N7920 X-0.2882 Y0.0203
N7925 X-0.2858 Y0.0179
N7930 X-0.2846 Y0.0156
N7935 Y0.0137
N7940 X-0.2857 Y0.0121
N7945 X-0.2879 Y0.0109
N7950 X-0.2913 Y0.0102
N7955 Z0.16
N7960 G0 Z0.6

N7965 M5
N7970 M9
N7975 G53 G0 Z0.
N7980 G53 G0 X-29. Y-8.
N7985 G0 B0. C0.
N7990 M30

%
