%
O07005
(Using high feed G1 F650. instead of G0.)
(Machine)
(  vendor: Haas Automation)
(  model: HAAS UMC-750)
(T1 D=0.25 CR=0. TAPER=90deg - ZMIN=-0.04 - spot drill)
N10 G90 G94 G17
N15 G20
N20 G53 G0 Z0.

(Trace1)
N25 T1 M6
N30 S5000 M3
N35 G17 G90
N40 G54
N45 G53 G0 X-29. Y-8.
N50 G0 B0. C0.
N55 M8
N60 G1 X-0.6942 Y0.9738 F650.
N65 G0 G43 Z0.6 H1
N70 G0 Z0.16
N75 G1 Z-0.04 F13.123
N80 X-0.7165 Y0.9519 F39.37
N85 X-0.7381 Y0.9291
N90 X-0.7592 Y0.9051
N95 X-0.7797 Y0.8802
N100 X-0.7996 Y0.8542
N105 X-0.8189 Y0.8272
N110 X-0.8377 Y0.7992
N115 X-0.8558 Y0.7701
N120 X-0.8733 Y0.7401
N125 X-0.8902 Y0.709
N130 X-0.9065 Y0.6769
N135 X-0.9221 Y0.6439
N140 X-0.937 Y0.6099
N145 X-0.9512 Y0.575
N150 X-0.9647 Y0.5391
N155 X-0.9774 Y0.5024
N160 X-0.9894 Y0.4649
N165 X-1.0005 Y0.4265
N170 X-1.0107 Y0.3874
N175 X-1.02 Y0.3476
N180 X-1.0282 Y0.3072
N185 X-1.0355 Y0.2663
N190 X-1.0416 Y0.2248
N195 X-1.0465 Y0.1829
N200 X-1.0502 Y0.1407
N205 X-1.0525 Y0.0982
N210 X-1.0534 Y0.0556
N215 X-1.0529 Y0.0129
N220 X-1.0509 Y-0.0297
N225 X-1.0492 Y-0.051
N230 X-1.0472 Y-0.0723
N235 X-1.0448 Y-0.0935
N240 X-1.0419 Y-0.1147
N245 X-1.0386 Y-0.1358
N250 X-1.0349 Y-0.1568
N255 X-1.0307 Y-0.1777
N260 X-1.0261 Y-0.1985
N265 X-1.021 Y-0.2192
N270 X-1.0155 Y-0.2397
N275 X-1.0095 Y-0.2601
N280 X-1.003 Y-0.2804
N285 X-0.996 Y-0.3005
N290 X-0.9886 Y-0.3204
N295 X-0.9807 Y-0.3402
N300 X-0.9723 Y-0.3598
N305 X-0.9635 Y-0.3792
N310 X-0.9541 Y-0.3983
N315 X-0.9443 Y-0.4173
N320 X-0.934 Y-0.436
N325 X-0.9232 Y-0.4545
N330 X-0.9119 Y-0.4728
N335 X-0.9001 Y-0.4908
N340 X-0.8879 Y-0.5086
N345 X-0.8752 Y-0.5261
N350 X-0.862 Y-0.5433
N355 X-0.8484 Y-0.5603
N360 X-0.8343 Y-0.577
N365 X-0.8198 Y-0.5934
N370 X-0.8048 Y-0.6096
N375 X-0.7894 Y-0.6254
N380 X-0.7736 Y-0.641
N385 X-0.7574 Y-0.6563
N390 X-0.7408 Y-0.6712
N395 X-0.7238 Y-0.6859
N400 X-0.7064 Y-0.7003
N405 X-0.6887 Y-0.7143
N410 X-0.6706 Y-0.7281
N415 X-0.6522 Y-0.7415
N420 X-0.6334 Y-0.7546
N425 X-0.6143 Y-0.7674
N430 X-0.595 Y-0.7799
N435 X-0.5753 Y-0.792
N440 X-0.5554 Y-0.8038
N445 X-0.5352 Y-0.8153
N450 X-0.5148 Y-0.8264
N455 X-0.4941 Y-0.8372
N460 X-0.4732 Y-0.8477
N465 X-0.4522 Y-0.8577
N470 X-0.4309 Y-0.8675
N475 X-0.4095 Y-0.8769
N480 X-0.3879 Y-0.8859
N485 X-0.3662 Y-0.8945
N490 X-0.3443 Y-0.9027
N495 X-0.3223 Y-0.9106
N500 X-0.3003 Y-0.9181
N505 X-0.2781 Y-0.9251
N510 X-0.2559 Y-0.9318
N515 X-0.2336 Y-0.938
N520 X-0.2112 Y-0.9438
N525 X-0.1888 Y-0.9491
N530 X-0.1664 Y-0.9541
N535 X-0.144 Y-0.9585
N540 X-0.1216 Y-0.9625
N545 X-0.0992 Y-0.9659
N550 X-0.0768 Y-0.9689
N555 X-0.0544 Y-0.9714
N560 X-0.0321 Y-0.9733
N565 X-0.0098 Y-0.9746
N570 X0.0125 Y-0.9754
N575 X0.0055 Y-0.9972
N580 X-0.0023 Y-1.0193
N585 X-0.0109 Y-1.0419
N590 X-0.0203 Y-1.0648
N595 X-0.0305 Y-1.0881
N600 X-0.0416 Y-1.1118
N605 X-0.0534 Y-1.1359
N610 X-0.0661 Y-1.1605
N615 X-0.0797 Y-1.1854
N620 X-0.0942 Y-1.2108
N625 X-0.1096 Y-1.2365
N630 X-0.1258 Y-1.2628
N635 X-0.143 Y-1.2894
N640 X-0.1611 Y-1.3165
N645 X-0.1801 Y-1.3441
N650 X-0.2001 Y-1.3721
N655 X-0.2209 Y-1.4005
N660 X-0.2426 Y-1.4293
N665 X-0.2651 Y-1.4585
N670 X-0.2884 Y-1.4881
N675 X-0.3125 Y-1.5181
N680 X-0.3374 Y-1.5484
N685 X-0.3631 Y-1.5792
N690 X-0.3894 Y-1.6102
N695 X-0.4165 Y-1.6416
N700 X-0.4442 Y-1.6733
N705 X-0.4726 Y-1.7054
N710 X-0.5016 Y-1.7377
N715 X-0.5313 Y-1.7703
N720 X-0.5615 Y-1.8033
N725 X-0.5924 Y-1.8365
N730 X-0.6239 Y-1.87
N735 X-1.7
N740 Y1.94
N745 X1.69
N750 Y-1.87
N755 X0.5965
N760 X0.5378 Y-1.7631
N765 X0.4792 Y-1.6546
N770 X0.45 Y-1.5998
N775 X0.4208 Y-1.5446
N780 X0.3917 Y-1.489
N785 X0.3627 Y-1.4328
N790 X0.3337 Y-1.3763
N795 X0.3047 Y-1.3193
N800 X0.2758 Y-1.2618
N805 X0.247 Y-1.2039
N810 X0.1895 Y-1.0871
N815 X0.1321 Y-0.9687
N820 X0.1608 Y-0.9643
N825 X0.1892 Y-0.9586
N830 X0.2175 Y-0.9518
N835 X0.2456 Y-0.9438
N840 X0.2734 Y-0.9347
N845 X0.301 Y-0.9243
N850 X0.3284 Y-0.9129
N855 X0.3554 Y-0.9002
N860 X0.3822 Y-0.8865
N865 X0.4087 Y-0.8717
N870 X0.4349 Y-0.8558
N875 X0.4607 Y-0.8388
N880 X0.4862 Y-0.8209
N885 X0.5113 Y-0.802
N890 X0.536 Y-0.7822
N895 X0.5603 Y-0.7615
N900 X0.5842 Y-0.74
N905 X0.6076 Y-0.7177
N910 X0.6306 Y-0.6946
N915 X0.6531 Y-0.6708
N920 X0.6751 Y-0.6465
N925 X0.6966 Y-0.6215
N930 X0.7176 Y-0.5959
N935 X0.738 Y-0.5699
N940 X0.7579 Y-0.5434
N945 X0.7772 Y-0.5166
N950 X0.7959 Y-0.4894
N955 X0.8141 Y-0.4619
N960 X0.8316 Y-0.4341
N965 X0.8486 Y-0.4062
N970 X0.8649 Y-0.3781
N975 X0.8805 Y-0.3499
N980 X0.8955 Y-0.3216
N985 X0.9099 Y-0.2933
N990 X0.9236 Y-0.2649
N995 X0.9366 Y-0.2366
N1000 X0.9489 Y-0.2084
N1005 X0.9606 Y-0.1803
N1010 X0.9715 Y-0.1523
N1015 X0.9818 Y-0.1244
N1020 X0.9913 Y-0.0967
N1025 X1.0001 Y-0.0692
N1030 X1.0083 Y-0.0419
N1035 X1.0157 Y-0.0148
N1040 X1.0224 Y0.012
N1045 X1.0284 Y0.0386
N1050 X1.0336 Y0.065
N1055 X1.0381 Y0.091
N1060 X1.0419 Y0.1168
N1065 X1.045 Y0.1423
N1070 X1.0474 Y0.1674
N1075 X1.049 Y0.1923
N1080 X1.0499 Y0.2168
N1085 X1.05 Y0.2411
N1090 X1.0495 Y0.265
N1095 X1.0482 Y0.2886
N1100 X1.0462 Y0.3118
N1105 X1.0434 Y0.3348
N1110 X1.0399 Y0.3574
N1115 X1.0357 Y0.3797
N1120 X1.0308 Y0.4016
N1125 X1.0251 Y0.4232
N1130 X1.0187 Y0.4445
N1135 X1.0116 Y0.4654
N1140 X1.2748 Y0.387
N1145 X1.3 Y0.47
N1150 X0.9876 Y0.5648
N1155 X1.15 Y1.1
N1160 X-0.4257 Y1.5664
N1165 X-0.608 Y1.0489
N1170 X-0.9722 Y1.1595
N1175 X-1.0096 Y1.0678
N1180 X-0.6942 Y0.9738
N1185 Z0.16
N1190 G0 Z0.2
N1195 G1 X-0.6201 Y0.8983 F650.
N1200 G0 Z0.16
N1205 G1 Z-0.04 F13.123
N1210 X-0.5987 Y0.9187 F39.37
N1215 X-0.5768 Y0.9388
N1220 X0.9047 Y0.4973
N1225 X0.9151 Y0.4699
N1230 X0.9243 Y0.4421
N1235 X0.9323 Y0.4138
N1240 X0.9391 Y0.3852
N1245 X0.9447 Y0.3561
N1250 X0.9491 Y0.3267
N1255 X0.9523 Y0.2968
N1260 X0.9543 Y0.2665
N1265 X0.9551 Y0.2359
N1270 X0.9547 Y0.2048
N1275 X0.9531 Y0.1734
N1280 X0.9503 Y0.1416
N1285 X0.9464 Y0.1095
N1290 X0.9412 Y0.077
N1295 X0.9348 Y0.0442
N1300 X0.9273 Y0.0111
N1305 X0.9185 Y-0.0222
N1310 X0.9086 Y-0.0558
N1315 X0.8975 Y-0.0896
N1320 X0.8852 Y-0.1236
N1325 X0.8718 Y-0.1577
N1330 X0.8572 Y-0.1918
N1335 X0.8415 Y-0.226
N1340 X0.8247 Y-0.2602
N1345 X0.8067 Y-0.2943
N1350 X0.7877 Y-0.3282
N1355 X0.7676 Y-0.3619
N1360 X0.7464 Y-0.3952
N1365 X0.7242 Y-0.4282
N1370 X0.7009 Y-0.4607
N1375 X0.6767 Y-0.4927
N1380 X0.6515 Y-0.5239
N1385 X0.6254 Y-0.5544
N1390 X0.5984 Y-0.5841
N1395 X0.5705 Y-0.6128
N1400 X0.5418 Y-0.6405
N1405 X0.5122 Y-0.6671
N1410 X0.4819 Y-0.6924
N1415 X0.4509 Y-0.7164
N1420 X0.4191 Y-0.739
N1425 X0.403 Y-0.7498
N1430 X0.3868 Y-0.7602
N1435 X0.3703 Y-0.7702
N1440 X0.3538 Y-0.7798
N1445 X0.337 Y-0.7889
N1450 X0.3202 Y-0.7977
N1455 X0.3032 Y-0.806
N1460 X0.2861 Y-0.814
N1465 X0.2689 Y-0.8214
N1470 X0.2515 Y-0.8285
N1475 X0.2341 Y-0.835
N1480 X0.2166 Y-0.8412
N1485 X0.1989 Y-0.8468
N1490 X0.1812 Y-0.852
N1495 X0.1634 Y-0.8567
N1500 X0.1455 Y-0.861
N1505 X0.1276 Y-0.8648
N1510 X0.1096 Y-0.8681
N1515 X0.0915 Y-0.8709
N1520 X0.0734 Y-0.8732
N1525 X0.0553 Y-0.8751
N1530 X0.0371 Y-0.8765
N1535 X0.0189 Y-0.8774
N1540 X0.0007 Y-0.8778
N1545 X-0.0176 Y-0.8777
N1550 X-0.0358 Y-0.8772
N1555 X-0.054 Y-0.8763
N1560 X-0.0722 Y-0.8748
N1565 X-0.0904 Y-0.873
N1570 X-0.1086 Y-0.8706
N1575 X-0.1267 Y-0.8679
N1580 X-0.1448 Y-0.8647
N1585 X-0.1628 Y-0.8611
N1590 X-0.1808 Y-0.8571
N1595 X-0.2165 Y-0.848
N1600 X-0.2519 Y-0.8374
N1605 X-0.2869 Y-0.8254
N1610 X-0.3214 Y-0.8122
N1615 X-0.3553 Y-0.7978
N1620 X-0.3887 Y-0.7824
N1625 X-0.4214 Y-0.7661
N1630 X-0.4533 Y-0.7489
N1635 X-0.4845 Y-0.7311
N1640 X-0.5149 Y-0.7126
N1645 X-0.5443 Y-0.6937
N1650 X-0.5728 Y-0.6743
N1655 X-0.6004 Y-0.6545
N1660 X-0.6269 Y-0.6345
N1665 X-0.6524 Y-0.6141
N1670 X-0.6767 Y-0.5936
N1675 X-0.7 Y-0.5728
N1680 X-0.7221 Y-0.5517
N1685 X-0.7431 Y-0.5304
N1690 X-0.7629 Y-0.5088
N1695 X-0.7816 Y-0.4867
N1700 X-0.7991 Y-0.4641
N1705 X-0.8155 Y-0.4408
N1710 X-0.8308 Y-0.4166
N1715 X-0.845 Y-0.3914
N1720 X-0.8581 Y-0.3651
N1725 X-0.8702 Y-0.3376
N1730 X-0.8813 Y-0.3089
N1735 X-0.8913 Y-0.279
N1740 X-0.9004 Y-0.2479
N1745 X-0.9085 Y-0.2158
N1750 X-0.9157 Y-0.1826
N1755 X-0.9219 Y-0.1485
N1760 X-0.9272 Y-0.1136
N1765 X-0.9316 Y-0.0781
N1770 X-0.9352 Y-0.0421
N1775 X-0.9378 Y-0.0058
N1780 X-0.9396 Y0.0307
N1785 X-0.9405 Y0.0673
N1790 X-0.9406 Y0.1037
N1795 X-0.9399 Y0.1398
N1800 X-0.9384 Y0.1755
N1805 X-0.9361 Y0.2107
N1810 X-0.9329 Y0.2452
N1815 X-0.929 Y0.2789
N1820 X-0.9243 Y0.3119
N1825 X-0.9189 Y0.3439
N1830 X-0.9127 Y0.3752
N1835 X-0.9057 Y0.4056
N1840 X-0.8981 Y0.4352
N1845 X-0.8896 Y0.4642
N1850 X-0.8805 Y0.4924
N1855 X-0.8707 Y0.52
N1860 X-0.8601 Y0.547
N1865 X-0.8489 Y0.5735
N1870 X-0.8369 Y0.5994
N1875 X-0.8243 Y0.6248
N1880 X-0.8109 Y0.6498
N1885 X-0.7969 Y0.6744
N1890 X-0.7822 Y0.6985
N1895 X-0.7669 Y0.7222
N1900 X-0.7509 Y0.7455
N1905 X-0.7342 Y0.7684
N1910 X-0.7168 Y0.791
N1915 X-0.6988 Y0.8132
N1920 X-0.6801 Y0.835
N1925 X-0.6607 Y0.8565
N1930 X-0.6407 Y0.8776
N1935 X-0.6201 Y0.8983
N1940 Z0.16
N1945 G0 Z0.2
N1950 G1 X0.1017 Y-1.1503 F650.
N1955 G0 Z0.16
N1960 G1 Z-0.04 F13.123
N1965 X0.1043 Y-1.1516 F39.37
N1970 X0.1072 Y-1.1542
N1975 X0.1104 Y-1.1579
N1980 X0.1138 Y-1.1626
N1985 X0.1176 Y-1.1684
N1990 X0.1216 Y-1.1752
N1995 X0.126 Y-1.1828
N2000 X0.1307 Y-1.1914
N2005 X0.1357 Y-1.2007
N2010 X0.141 Y-1.2108
N2015 X0.1467 Y-1.2216
N2020 X0.1526 Y-1.2331
N2025 X0.1722 Y-1.2711
N2030 X0.1793 Y-1.2848
N2035 X0.1866 Y-1.2989
N2040 X0.1942 Y-1.3135
N2045 X0.2019 Y-1.3284
N2050 X0.2181 Y-1.359
N2055 X0.2349 Y-1.3906
N2060 X0.2522 Y-1.4227
N2065 X0.2875 Y-1.4874
N2070 X0.3052 Y-1.5195
N2075 X0.3227 Y-1.551
N2080 X0.3399 Y-1.5818
N2085 X0.3725 Y-1.6404
N2090 X0.3878 Y-1.6678
N2095 X0.3951 Y-1.681
N2100 X0.4022 Y-1.6939
N2105 X0.4091 Y-1.7063
N2110 X0.4158 Y-1.7184
N2115 X0.4221 Y-1.7301
N2120 X0.4283 Y-1.7414
N2125 X0.4342 Y-1.7522
N2130 X0.4398 Y-1.7627
N2135 X0.4452 Y-1.7727
N2140 X0.4503 Y-1.7823
N2145 X0.4551 Y-1.7914
N2150 X0.4597 Y-1.8002
N2155 X0.4639 Y-1.8084
N2160 X0.4679 Y-1.8163
N2165 X0.4716 Y-1.8237
N2170 X0.475 Y-1.8306
N2175 X0.4782 Y-1.8371
N2180 X0.481 Y-1.8431
N2185 X0.4836 Y-1.8487
N2190 X0.4859 Y-1.8539
N2195 X0.4879 Y-1.8586
N2200 X0.4896 Y-1.8628
N2205 X0.4911 Y-1.8666
N2210 X0.4922 Y-1.87
N2215 X0.0211
N2220 X0.0231 Y-1.8559
N2225 X0.0251 Y-1.8424
N2230 X0.027 Y-1.8293
N2235 X0.0288 Y-1.8168
N2240 X0.0306 Y-1.8047
N2245 X0.0324 Y-1.7932
N2250 X0.034 Y-1.7821
N2255 X0.0357 Y-1.7715
N2260 X0.0372 Y-1.7614
N2265 X0.0387 Y-1.7517
N2270 X0.0402 Y-1.7425
N2275 X0.0415 Y-1.7338
N2280 X0.0429 Y-1.7255
N2285 X0.0442 Y-1.7176
N2290 X0.0454 Y-1.7101
N2295 X0.0466 Y-1.703
N2300 X0.0488 Y-1.69
N2305 X0.0508 Y-1.6784
N2310 X0.0526 Y-1.6681
N2315 X0.0543 Y-1.659
N2320 X0.0558 Y-1.6509
N2325 X0.0583 Y-1.6374
N2330 X0.0594 Y-1.6317
N2335 X0.0612 Y-1.6216
N2340 X0.0626 Y-1.6124
N2345 X0.0638 Y-1.6029
N2350 X0.0647 Y-1.5924
N2355 X0.0651 Y-1.5864
N2360 X0.0656 Y-1.5799
N2365 X0.066 Y-1.5727
N2370 X0.0664 Y-1.5647
N2375 X0.0668 Y-1.556
N2380 X0.0672 Y-1.5464
N2385 X0.0676 Y-1.5361
N2390 X0.068 Y-1.5249
N2395 X0.0707 Y-1.457
N2400 X0.0713 Y-1.4415
N2405 X0.072 Y-1.4254
N2410 X0.0727 Y-1.409
N2415 X0.0741 Y-1.3752
N2420 X0.0757 Y-1.3411
N2425 X0.0774 Y-1.3074
N2430 X0.0783 Y-1.291
N2435 X0.0792 Y-1.2751
N2440 X0.0801 Y-1.2597
N2445 X0.0812 Y-1.245
N2450 X0.0822 Y-1.231
N2455 X0.0833 Y-1.2179
N2460 X0.0845 Y-1.2058
N2465 X0.0857 Y-1.1947
N2470 X0.087 Y-1.1847
N2475 X0.0884 Y-1.1759
N2480 X0.0899 Y-1.1684
N2485 X0.0914 Y-1.1621
N2490 X0.0931 Y-1.1572
N2495 X0.095 Y-1.1535
N2500 X0.097 Y-1.1512
N2505 X0.0992 Y-1.1501
N2510 X0.1017 Y-1.1503
N2515 Z0.16
N2520 G0 Z0.2
N2525 G1 X-0.0678 Y-1.8348 F650.
N2530 G0 Z0.16
N2535 G1 Z-0.04 F13.123
N2540 X-0.0706 Y-1.8418 F39.37
N2545 X-0.0733 Y-1.8483
N2550 X-0.0762 Y-1.8544
N2555 X-0.079 Y-1.86
N2560 X-0.082 Y-1.8652
N2565 X-0.085 Y-1.87
N2570 X-0.5248
N2575 X-0.5119 Y-1.8558
N2580 X-0.4995 Y-1.842
N2585 X-0.4874 Y-1.8288
N2590 X-0.4758 Y-1.816
N2595 X-0.4647 Y-1.8038
N2600 X-0.4539 Y-1.792
N2605 X-0.4436 Y-1.7807
N2610 X-0.4337 Y-1.7699
N2615 X-0.4242 Y-1.7596
N2620 X-0.4151 Y-1.7497
N2625 X-0.4064 Y-1.7403
N2630 X-0.3981 Y-1.7313
N2635 X-0.3902 Y-1.7228
N2640 X-0.3827 Y-1.7147
N2645 X-0.3755 Y-1.7071
N2650 X-0.3688 Y-1.6998
N2655 X-0.3623 Y-1.693
N2660 X-0.3562 Y-1.6865
N2665 X-0.3505 Y-1.6804
N2670 X-0.345 Y-1.6747
N2675 X-0.3399 Y-1.6694
N2680 X-0.3351 Y-1.6644
N2685 X-0.3306 Y-1.6597
N2690 X-0.3264 Y-1.6553
N2695 X-0.3187 Y-1.6475
N2700 X-0.3121 Y-1.6408
N2705 X-0.3064 Y-1.635
N2710 X-0.3015 Y-1.6301
N2715 X-0.2973 Y-1.6259
N2720 X-0.2937 Y-1.6224
N2725 X-0.2906 Y-1.6193
N2730 X-0.2879 Y-1.6167
N2735 X-0.2835 Y-1.612
N2740 X-0.2796 Y-1.6074
N2745 X-0.2755 Y-1.6021
N2750 X-0.2732 Y-1.599
N2755 X-0.2706 Y-1.5954
N2760 X-0.2677 Y-1.5912
N2765 X-0.2644 Y-1.5864
N2770 X-0.2463 Y-1.5603
N2775 X-0.2405 Y-1.5518
N2780 X-0.2341 Y-1.5426
N2785 X-0.2272 Y-1.5326
N2790 X-0.2198 Y-1.5219
N2795 X-0.2034 Y-1.4984
N2800 X-0.1853 Y-1.4724
N2805 X-0.1658 Y-1.4445
N2810 X-0.1453 Y-1.4153
N2815 X-0.1036 Y-1.3556
N2820 X-0.0833 Y-1.3267
N2825 X-0.0735 Y-1.3127
N2830 X-0.064 Y-1.2992
N2835 X-0.0549 Y-1.2863
N2840 X-0.0462 Y-1.2741
N2845 X-0.038 Y-1.2626
N2850 X-0.0304 Y-1.2519
N2855 X-0.0233 Y-1.242
N2860 X-0.0167 Y-1.2332
N2865 X-0.0108 Y-1.2253
N2870 X-0.0055 Y-1.2185
N2875 X-0.0009 Y-1.2128
N2880 X0.0031 Y-1.2083
N2885 X0.0065 Y-1.2049
N2890 X0.0092 Y-1.2026
N2895 X0.0114 Y-1.2015
N2900 X0.0131 Y-1.2016
N2905 X0.0143 Y-1.2028
N2910 X0.0151 Y-1.2051
N2915 X0.0155 Y-1.2085
N2920 X0.0156 Y-1.2129
N2925 X0.0154 Y-1.2182
N2930 X0.0149 Y-1.2246
N2935 X0.0142 Y-1.2319
N2940 X0.0134 Y-1.24
N2945 X0.0124 Y-1.249
N2950 X0.0113 Y-1.2587
N2955 X0.0088 Y-1.2804
N2960 X0.0074 Y-1.2922
N2965 X0.006 Y-1.3047
N2970 X0.0046 Y-1.3177
N2975 X0.0031 Y-1.3312
N2980 X0.0016 Y-1.3451
N2985 X0.0001 Y-1.3595
N2990 X-0.0029 Y-1.3893
N2995 X-0.0059 Y-1.4201
N3000 X-0.009 Y-1.4516
N3005 X-0.015 Y-1.5154
N3010 X-0.0182 Y-1.547
N3015 X-0.0214 Y-1.5781
N3020 X-0.0247 Y-1.6083
N3025 X-0.0282 Y-1.6375
N3030 X-0.0318 Y-1.6656
N3035 X-0.0356 Y-1.6923
N3040 X-0.0396 Y-1.7175
N3045 X-0.0437 Y-1.7413
N3050 X-0.0459 Y-1.7525
N3055 X-0.0481 Y-1.7634
N3060 X-0.0504 Y-1.7738
N3065 X-0.0527 Y-1.7838
N3070 X-0.0551 Y-1.7934
N3075 X-0.0575 Y-1.8026
N3080 X-0.06 Y-1.8113
N3085 X-0.0626 Y-1.8196
N3090 X-0.0652 Y-1.8274
N3095 X-0.0678 Y-1.8348
N3100 Z0.16
N3105 G0 Z0.6

N3110 M5
N3115 M9
N3120 G53 G0 Z0.
N3125 G53 G0 X-29. Y-8.
N3130 G0 B0. C0.
N3135 M30

%
